;FLAVOR:UltiGCode
;TIME:2373
;MATERIAL:2975
;MATERIAL2:0
;NOZZLE_DIAMETER:0.4
;Generated with Cura_SteamEngine 2.3.1

;LAYER_COUNT:90
;LAYER:0
M107
G10
G0 F3600 X87.729 Y72.818 Z.3
;TYPE:SKIRT
G11
G1 F1800 X88.059 Y72.435 E0.06067
G1 X88.446 Y72.109 E0.12139
G1 X88.879 Y71.848 E0.18206
G1 X89.347 Y71.658 E0.24267
G1 X90.002 Y71.525 E0.32287
G1 X93.881 Y71.15 E0.79052
G1 X99.297 Y70.372 E1.44711
G1 X104.709 Y69.279 E2.10967
G1 X107.279 Y68.647 E2.42725
G1 X112.59 Y67.096 E3.0912
G1 X119.212 Y64.703 E3.93613
G1 X119.7 Y64.569 E3.99686
G1 X120.3 Y64.512 E4.06918
G1 X132.69 Y64.511 E5.55598
G1 X133.194 Y64.551 E5.61665
G1 X133.685 Y64.67 E5.67728
G1 X134.152 Y64.864 E5.73796
G1 X134.582 Y65.13 E5.79864
G1 X134.965 Y65.46 E5.8593
G1 X135.291 Y65.847 E5.92002
G1 X135.552 Y66.28 E5.98069
G1 X135.742 Y66.748 E6.0413
G1 X135.855 Y67.241 E6.102
G1 X135.89 Y67.711 E6.15856
G1 X135.89 Y155.291 E16.66816
G1 X135.85 Y155.795 E16.72883
G1 X135.731 Y156.286 E16.78945
G1 X135.537 Y156.753 E16.85013
G1 X135.271 Y157.183 E16.91081
G1 X134.941 Y157.566 E16.97148
G1 X134.554 Y157.892 E17.0322
G1 X134.121 Y158.153 E17.09287
G1 X133.653 Y158.343 E17.15348
G1 X133.16 Y158.456 E17.21417
G1 X132.69 Y158.491 E17.27073
G1 X119.508 Y158.491 E18.85257
G1 X119.004 Y158.451 E18.91324
G1 X118.513 Y158.332 E18.97386
G1 X118.046 Y158.138 E19.03455
G1 X117.616 Y157.872 E19.09522
G1 X117.233 Y157.542 E19.15589
G1 X116.907 Y157.155 E19.21661
G1 X116.646 Y156.722 E19.27728
G1 X116.456 Y156.254 E19.33789
G1 X116.343 Y155.761 E19.39859
G1 X116.311 Y155.435 E19.43789
G1 X116.203 Y153.044 E19.72511
G1 X115.736 Y147.588 E20.38222
G1 X114.956 Y142.148 E21.0417
G1 X113.88 Y136.801 E21.6962
G1 X113.227 Y134.14 E22.02499
G1 X111.696 Y128.887 E22.68158
G1 X109.864 Y123.711 E23.34046
G1 X107.748 Y118.658 E23.99784
G1 X105.35 Y113.735 E24.65496
G1 X102.682 Y108.963 E25.31102
G1 X99.747 Y104.348 E25.96733
G1 X96.547 Y99.893 E26.62555
G1 X93.11 Y95.638 E27.28191
G1 X89.408 Y91.552 E27.94355
G1 X88.016 Y90.12 E28.1832
G1 X87.693 Y89.73 E28.24397
G1 X87.436 Y89.295 E28.30459
G1 X87.25 Y88.825 E28.36525
G1 X87.141 Y88.331 E28.42596
G1 X87.11 Y87.889 E28.47913
G1 X87.11 Y74.71 E30.06061
G1 X87.15 Y74.206 E30.12128
G1 X87.269 Y73.715 E30.1819
G1 X87.463 Y73.248 E30.24259
G1 X87.729 Y72.818 E30.30326
G10
G0 F3600 X89.636 Y75.328
G0 X90.929 Y75.328
G0 X91.001 Y75.5
G0 X90.901 Y75.5
;TYPE:WALL-INNER
G11
G1 F1800 X90.901 Y75.3 E30.32726
G1 X91.101 Y75.3 E30.3428
G1 X120.7 Y75.301 E33.89468
G1 X120.9 Y75.301 E33.91868
G1 X120.9 Y75.101 E33.93422
G1 X120.899 Y68.501 E34.72622
G1 X120.899 Y68.301 E34.75022
G1 X121.099 Y68.301 E34.76576
G1 X132.099 Y68.301 E36.08576
G1 X132.099 Y154.7 E46.45364
G1 X120.299 Y154.7 E47.86964
G1 X120.099 Y154.7 E47.89364
G1 X120.099 Y154.5 E47.90918
G1 X120.1 Y128.499 E51.0293
G1 X125.1 Y128.499 E51.6293
G1 X125.1 Y111.299 E53.6933
G1 X120.1 Y111.299 E54.2933
G1 X120.1 Y87.301 E57.17306
G1 X110.101 Y87.3 E58.37294
G1 X110.101 Y82.3 E58.97294
G1 X92.901 Y82.3 E61.03694
G1 X92.901 Y87.3 E61.63694
G1 X90.901 Y87.3 E61.87694
G1 X90.901 Y75.5 E63.29294
G0 F3600 X90.501 Y75.1
;TYPE:WALL-OUTER
G1 F1800 X90.501 Y74.9 E63.31694
G1 X90.701 Y74.9 E63.33248
G1 X120.3 Y74.901 E66.88436
G1 X120.5 Y74.901 E66.90836
G1 X120.5 Y74.701 E66.9239
G1 X120.499 Y68.101 E67.7159
G1 X120.499 Y67.901 E67.7399
G1 X120.699 Y67.901 E67.75544
G1 X132.499 Y67.901 E69.17144
G1 X132.499 Y155.1 E79.63532
G1 X119.899 Y155.1 E81.14732
G1 X119.699 Y155.1 E81.17132
G1 X119.699 Y154.9 E81.18686
G1 X119.7 Y128.099 E84.40298
G1 X124.7 Y128.099 E85.00298
G1 X124.7 Y111.699 E86.97098
G1 X119.7 Y111.699 E87.57098
G1 X119.7 Y87.701 E90.45074
G1 X109.701 Y87.7 E91.65062
G1 X109.701 Y82.7 E92.25062
G1 X93.301 Y82.7 E94.21862
G1 X93.301 Y87.7 E94.81862
G1 X90.501 Y87.7 E95.15462
G1 X90.501 Y75.1 E96.66662
G0 F3600 X90.971 Y75.37
G0 X91.32 Y75.48
;TYPE:SKIN
G1 F1800 X97.959 Y82.119 E97.7933
G0 X98.029 Y82.189
G0 F3600 X98.524 Y82.119
G1 F1800 X91.885 Y75.48 E98.91997
G0 X91.815 Y75.41
G0 F3600 X92.451 Y75.48
G1 F1800 X99.09 Y82.119 E100.04665
G0 X99.16 Y82.189
G0 F3600 X99.656 Y82.119
G1 F1800 X93.017 Y75.48 E101.17332
G0 X92.947 Y75.41
G0 F3600 X93.582 Y75.48
G1 F1800 X100.221 Y82.119 E102.3
G0 X100.291 Y82.189
G0 F3600 X100.787 Y82.119
G1 F1800 X94.148 Y75.48 E103.42667
G0 X94.078 Y75.41
G0 F3600 X94.714 Y75.48
G1 F1800 X101.353 Y82.119 E104.55335
G0 X101.423 Y82.189
G0 F3600 X101.918 Y82.119
G1 F1800 X95.279 Y75.48 E105.68003
G0 X95.209 Y75.41
G0 F3600 X95.845 Y75.48
G1 F1800 X102.484 Y82.119 E106.8067
G0 X102.554 Y82.189
G0 F3600 X103.05 Y82.119
G1 F1800 X96.411 Y75.48 E107.93338
G0 X96.341 Y75.41
G0 F3600 X96.976 Y75.48
G1 F1800 X103.615 Y82.119 E109.06005
G0 X103.685 Y82.189
G0 F3600 X104.181 Y82.119
G1 F1800 X97.542 Y75.48 E110.18673
G0 X97.472 Y75.41
G0 F3600 X98.108 Y75.48
G1 F1800 X104.747 Y82.119 E111.3134
G0 X104.817 Y82.189
G0 F3600 X105.312 Y82.119
G1 F1800 X98.673 Y75.48 E112.44008
G0 X98.603 Y75.41
G0 F3600 X99.239 Y75.48
G1 F1800 X105.878 Y82.119 E113.56676
G0 X105.948 Y82.189
G0 F3600 X106.444 Y82.119
G1 F1800 X99.805 Y75.48 E114.69343
G0 X99.735 Y75.41
G0 F3600 X100.37 Y75.48
G1 F1800 X107.01 Y82.119 E115.82019
G0 X107.08 Y82.189
G0 F3600 X107.575 Y82.119
G1 F1800 X100.936 Y75.48 E116.94687
G0 X100.866 Y75.41
G0 F3600 X101.502 Y75.48
G1 F1800 X108.141 Y82.119 E118.07354
G0 X108.211 Y82.189
G0 F3600 X108.707 Y82.119
G1 F1800 X102.068 Y75.48 E119.20022
G0 X101.998 Y75.41
G0 F3600 X102.633 Y75.48
G1 F1800 X109.272 Y82.119 E120.32689
G0 X109.342 Y82.189
G0 F3600 X109.838 Y82.119
G1 F1800 X103.199 Y75.48 E121.45357
G0 X103.129 Y75.41
G0 F3600 X103.765 Y75.48
G1 F1800 X115.404 Y87.12 E123.42886
G0 X115.474 Y87.19
G0 F3600 X115.97 Y87.12
G1 F1800 X104.33 Y75.48 E125.40423
G0 X104.26 Y75.41
G0 F3600 X104.896 Y75.48
G1 F1800 X116.536 Y87.12 E127.37961
G0 X116.606 Y87.19
G0 F3600 X117.101 Y87.12
G1 F1800 X105.462 Y75.48 E129.35489
G0 X105.392 Y75.41
G0 F3600 X106.027 Y75.48
G1 F1800 X117.667 Y87.12 E131.33027
G0 X117.737 Y87.19
G0 F3600 X118.233 Y87.12
G1 F1800 X106.593 Y75.48 E133.30564
G0 X106.523 Y75.41
G0 F3600 X107.159 Y75.48
G1 F1800 X118.798 Y87.12 E135.28093
G0 X118.868 Y87.19
G0 F3600 X119.364 Y87.12
G1 F1800 X107.724 Y75.48 E137.2563
G0 X107.654 Y75.41
G0 F3600 X108.29 Y75.48
G1 F1800 X119.93 Y87.12 E139.23168
G0 X120 Y87.19
G0 F3600 X120.278 Y87.469
G1 F1800 X131.918 Y99.108 E141.20697
G0 X131.988 Y99.178
G0 F3600 X131.918 Y98.543
G1 F1800 X108.856 Y75.48 E145.1208
G0 X108.786 Y75.41
G0 F3600 X109.421 Y75.48
G1 F1800 X131.918 Y97.977 E148.93867
G0 X131.988 Y98.047
G0 F3600 X131.918 Y97.411
G1 F1800 X109.987 Y75.48 E152.66048
G0 X109.917 Y75.41
G0 F3600 X110.553 Y75.48
G1 F1800 X131.918 Y96.846 E156.28633
G0 X131.988 Y96.916
G0 F3600 X131.918 Y96.28
G1 F1800 X111.119 Y75.48 E159.81612
G0 X111.049 Y75.41
G0 F3600 X111.684 Y75.48
G1 F1800 X131.918 Y95.714 E163.24995
G0 X131.988 Y95.784
G0 F3600 X131.918 Y95.148
G1 F1800 X112.25 Y75.48 E166.58772
G0 X112.18 Y75.41
G0 F3600 X112.816 Y75.48
G1 F1800 X131.918 Y94.583 E169.82952
G0 X131.988 Y94.653
G0 F3600 X131.918 Y94.017
G1 F1800 X113.381 Y75.48 E172.97535
G0 X113.311 Y75.41
G0 F3600 X113.947 Y75.48
G1 F1800 X131.918 Y93.451 E176.02513
G0 X131.988 Y93.521
G0 F3600 X131.918 Y92.886
G1 F1800 X114.513 Y75.48 E178.97894
G0 X114.443 Y75.41
G0 F3600 X115.078 Y75.48
G1 F1800 X131.918 Y92.32 E181.83678
G0 X131.988 Y92.39
G0 F3600 X131.918 Y91.754
G1 F1800 X115.644 Y75.48 E184.59857
G0 X115.574 Y75.41
G0 F3600 X116.21 Y75.48
G1 F1800 X131.918 Y91.189 E187.26439
G0 X131.988 Y91.259
G0 F3600 X131.918 Y90.623
G1 F1800 X116.775 Y75.48 E189.83425
G0 X116.705 Y75.41
G0 F3600 X117.341 Y75.48
G1 F1800 X131.918 Y90.057 E192.30805
G0 X131.988 Y90.127
G0 F3600 X131.918 Y89.492
G1 F1800 X117.907 Y75.48 E194.68588
G0 X117.837 Y75.41
G0 F3600 X118.472 Y75.48
G1 F1800 X131.918 Y88.926 E196.96774
G0 X131.988 Y88.996
G0 F3600 X131.918 Y88.36
G1 F1800 X119.038 Y75.48 E199.15355
G0 X118.968 Y75.41
G0 F3600 X119.604 Y75.48
G1 F1800 X131.918 Y87.795 E201.24339
G0 X131.988 Y87.865
G0 F3600 X131.918 Y87.229
G1 F1800 X120.169 Y75.48 E203.23726
G0 X120.099 Y75.41
G0 F3600 X120.735 Y75.48
G1 F1800 X131.918 Y86.663 E205.13508
G0 X131.988 Y86.733
G0 F3600 X131.918 Y86.098
G1 F1800 X121.078 Y75.258 E206.97468
G0 X121.008 Y75.188
G0 F3600 X121.078 Y74.692
G1 F1800 X131.918 Y85.532 E208.81429
G0 X131.988 Y85.602
G0 F3600 X131.918 Y84.966
G1 F1800 X121.078 Y74.126 E210.6539
G0 X121.008 Y74.056
G0 F3600 X121.078 Y73.561
G1 F1800 X131.918 Y84.4 E212.49343
G0 X131.988 Y84.47
G0 F3600 X131.918 Y83.835
G1 F1800 X121.078 Y72.995 E214.33304
G0 X121.008 Y72.925
G0 F3600 X121.078 Y72.429
G1 F1800 X131.918 Y83.269 E216.17264
G0 X131.988 Y83.339
G0 F3600 X131.918 Y82.703
G1 F1800 X121.078 Y71.863 E218.01225
G0 X121.008 Y71.793
G0 F3600 X121.078 Y71.298
G1 F1800 X131.918 Y82.138 E219.85186
G0 X131.988 Y82.208
G0 F3600 X131.918 Y81.572
G1 F1800 X121.078 Y70.732 E221.69147
G0 X121.008 Y70.662
G0 F3600 X121.078 Y70.166
G1 F1800 X131.918 Y81.006 E223.53108
G0 X131.988 Y81.076
G0 F3600 X131.918 Y80.441
G1 F1800 X121.078 Y69.601 E225.37069
G0 X121.008 Y69.531
G0 F3600 X121.078 Y69.035
G1 F1800 X131.918 Y79.875 E227.2103
G0 X131.988 Y79.945
G0 F3600 X131.918 Y79.309
G1 F1800 X121.089 Y68.481 E229.04796
G0 X121.019 Y68.411
G0 F3600 X121.655 Y68.481
G1 F1800 X131.918 Y78.744 E230.78965
G0 X131.988 Y78.814
G0 F3600 X131.918 Y78.178
G1 F1800 X122.221 Y68.481 E232.43528
G0 X122.151 Y68.411
G0 F3600 X122.786 Y68.481
G1 F1800 X131.918 Y77.612 E233.98495
G0 X131.988 Y77.682
G0 F3600 X131.918 Y77.047
G1 F1800 X123.352 Y68.481 E235.43865
G0 X123.282 Y68.411
G0 F3600 X123.918 Y68.481
G1 F1800 X131.918 Y76.481 E236.79629
G0 X131.988 Y76.551
G0 F3600 X131.918 Y75.915
G1 F1800 X124.484 Y68.481 E238.05788
G0 X124.414 Y68.411
G0 F3600 X125.049 Y68.481
G1 F1800 X131.918 Y75.35 E239.22359
G0 X131.988 Y75.42
G0 F3600 X131.918 Y74.784
G1 F1800 X125.615 Y68.481 E240.29325
G0 X125.545 Y68.411
G0 F3600 X126.181 Y68.481
G1 F1800 X131.918 Y74.218 E241.26685
G0 X131.988 Y74.288
G0 F3600 X131.918 Y73.652
G1 F1800 X126.746 Y68.481 E242.14448
G0 X126.676 Y68.411
G0 F3600 X127.312 Y68.481
G1 F1800 X131.918 Y73.087 E242.92614
G0 X131.988 Y73.157
G0 F3600 X131.918 Y72.521
G1 F1800 X127.878 Y68.481 E243.61175
G0 X127.808 Y68.411
G0 F3600 X128.443 Y68.481
G1 F1800 X131.918 Y71.955 E244.2014
G0 X131.988 Y72.025
G0 F3600 X131.918 Y71.39
G1 F1800 X129.009 Y68.481 E244.69507
G0 X128.939 Y68.411
G0 F3600 X129.575 Y68.481
G1 F1800 X131.918 Y70.824 E245.09269
G0 X131.988 Y70.894
G0 F3600 X131.918 Y70.258
G1 F1800 X130.14 Y68.481 E245.39434
G0 X130.07 Y68.411
G0 F3600 X130.706 Y68.481
G1 F1800 X131.918 Y69.693 E245.60003
G0 X131.988 Y69.763
G0 F3600 X131.918 Y69.127
G1 F1800 X131.272 Y68.481 E245.70965
G0 X131.202 Y68.411
G0 F3600 X131.837 Y68.481
G1 F1800 X131.918 Y68.561 E245.72332
G0 F3600 X120.278 Y88.034
G1 F1800 X131.918 Y99.674 E247.69869
G0 X131.988 Y99.744
G0 F3600 X131.918 Y100.24
G1 F1800 X120.278 Y88.6 E249.67406
G0 X120.208 Y88.53
G0 F3600 X120.278 Y89.166
G1 F1800 X131.918 Y100.805 E251.64935
G0 X131.988 Y100.875
G0 F3600 X131.918 Y101.371
G1 F1800 X120.278 Y89.731 E253.62473
G0 X120.208 Y89.661
G0 F3600 X120.278 Y90.297
G1 F1800 X131.918 Y101.937 E255.6001
G0 X131.988 Y102.007
G0 F3600 X131.918 Y102.502
G1 F1800 X120.278 Y90.863 E257.57539
G0 X120.208 Y90.793
G0 F3600 X120.278 Y91.428
G1 F1800 X131.918 Y103.068 E259.55076
G0 X131.988 Y103.138
G0 F3600 X131.918 Y103.634
G1 F1800 X120.278 Y91.994 E261.52613
G0 X120.208 Y91.924
G0 F3600 X120.278 Y92.56
G1 F1800 X131.918 Y104.199 E263.50142
G0 X131.988 Y104.269
G0 F3600 X131.918 Y104.765
G1 F1800 X120.278 Y93.125 E265.4768
G0 X120.208 Y93.055
G0 F3600 X120.278 Y93.691
G1 F1800 X131.918 Y105.331 E267.45217
G0 X131.988 Y105.401
G0 F3600 X131.918 Y105.897
G1 F1800 X120.278 Y94.257 E269.42754
G0 X120.208 Y94.187
G0 F3600 X120.278 Y94.823
G1 F1800 X131.918 Y106.462 E271.40283
G0 X131.988 Y106.532
G0 F3600 X131.918 Y107.028
G1 F1800 X120.278 Y95.388 E273.37821
G0 X120.208 Y95.318
G0 F3600 X120.278 Y95.954
G1 F1800 X131.918 Y107.594 E275.35358
G0 X131.988 Y107.664
G0 F3600 X131.918 Y108.159
G1 F1800 X120.278 Y96.52 E277.32887
G0 X120.208 Y96.45
G0 F3600 X120.278 Y97.085
G1 F1800 X131.918 Y108.725 E279.30424
G0 X131.988 Y108.795
G0 F3600 X131.918 Y109.291
G1 F1800 X120.278 Y97.651 E281.27962
G0 X120.208 Y97.581
G0 F3600 X120.278 Y98.217
G1 F1800 X131.918 Y109.856 E283.2549
G0 X131.988 Y109.926
G0 F3600 X131.918 Y110.422
G1 F1800 X120.278 Y98.782 E285.23028
G0 X120.208 Y98.712
G0 F3600 X120.278 Y99.348
G1 F1800 X131.918 Y110.988 E287.20565
G0 X131.988 Y111.058
G0 F3600 X131.918 Y111.553
G1 F1800 X120.278 Y99.914 E289.18094
G0 X120.208 Y99.844
G0 F3600 X120.278 Y100.479
G1 F1800 X131.918 Y112.119 E291.15631
G0 X131.988 Y112.189
G0 F3600 X131.918 Y112.685
G1 F1800 X120.278 Y101.045 E293.13169
G0 X120.208 Y100.975
G0 F3600 X120.278 Y101.611
G1 F1800 X131.918 Y113.25 E295.10698
G0 X131.988 Y113.32
G0 F3600 X131.918 Y113.816
G1 F1800 X120.278 Y102.176 E297.08235
G0 X120.208 Y102.106
G0 F3600 X120.278 Y102.742
G1 F1800 X131.918 Y114.382 E299.05772
G0 X131.988 Y114.452
G0 F3600 X131.918 Y114.947
G1 F1800 X120.278 Y103.308 E301.03301
G0 X120.208 Y103.238
G0 F3600 X120.278 Y103.873
G1 F1800 X131.918 Y115.513 E303.00838
G0 X131.988 Y115.583
G0 F3600 X131.918 Y116.079
G1 F1800 X120.278 Y104.439 E304.98376
G0 X120.208 Y104.369
G0 F3600 X120.278 Y105.005
G1 F1800 X131.918 Y116.645 E306.95913
G0 X131.988 Y116.715
G0 F3600 X131.918 Y117.21
G1 F1800 X120.278 Y105.571 E308.93442
G0 X120.208 Y105.501
G0 F3600 X120.278 Y106.136
G1 F1800 X125.261 Y111.119 E309.78006
G0 X125.331 Y111.189
G0 F3600 X125.279 Y111.137
G1 F1800 X131.918 Y117.776 E310.90674
G0 X131.988 Y117.846
G0 F3600 X131.918 Y118.342
G1 F1800 X125.279 Y111.703 E312.03341
G0 X125.209 Y111.633
G0 F3600 X125.279 Y112.268
G1 F1800 X131.918 Y118.907 E313.16009
G0 X131.988 Y118.977
G0 F3600 X131.918 Y119.473
G1 F1800 X125.279 Y112.834 E314.28677
G0 X125.209 Y112.764
G0 F3600 X125.279 Y113.4
G1 F1800 X131.918 Y120.039 E315.41344
G0 X131.988 Y120.109
G0 F3600 X131.918 Y120.604
G1 F1800 X125.279 Y113.965 E316.54012
G0 X125.209 Y113.895
G0 F3600 X125.279 Y114.531
G1 F1800 X131.918 Y121.17 E317.66679
G0 X131.988 Y121.24
G0 F3600 X131.918 Y121.736
G1 F1800 X125.279 Y115.097 E318.79347
G0 X125.209 Y115.027
G0 F3600 X125.279 Y115.662
G1 F1800 X131.918 Y122.301 E319.92014
G0 X131.988 Y122.371
G0 F3600 X131.918 Y122.867
G1 F1800 X125.279 Y116.228 E321.04682
G0 X125.209 Y116.158
G0 F3600 X125.279 Y116.794
G1 F1800 X131.918 Y123.433 E322.1735
G0 X131.988 Y123.503
G0 F3600 X131.918 Y123.998
G1 F1800 X125.279 Y117.359 E323.30017
G0 X125.209 Y117.289
G0 F3600 X125.279 Y117.925
G1 F1800 X131.918 Y124.564 E324.42685
G0 X131.988 Y124.634
G0 F3600 X131.918 Y125.13
G1 F1800 X125.279 Y118.491 E325.55352
G0 X125.209 Y118.421
G0 F3600 X125.279 Y119.056
G1 F1800 X131.918 Y125.696 E326.68028
G0 X131.988 Y125.766
G0 F3600 X131.918 Y126.261
G1 F1800 X125.279 Y119.622 E327.80696
G0 X125.209 Y119.552
G0 F3600 X125.279 Y120.188
G1 F1800 X131.918 Y126.827 E328.93363
G0 X131.988 Y126.897
G0 F3600 X131.918 Y127.393
G1 F1800 X125.279 Y120.754 E330.06031
G0 X125.209 Y120.684
G0 F3600 X125.279 Y121.319
G1 F1800 X131.918 Y127.958 E331.18699
G0 X131.988 Y128.028
G0 F3600 X131.918 Y128.524
G1 F1800 X125.279 Y121.885 E332.31366
G0 X125.209 Y121.815
G0 F3600 X125.279 Y122.451
G1 F1800 X131.918 Y129.09 E333.44034
G0 X131.988 Y129.16
G0 F3600 X131.918 Y129.655
G1 F1800 X125.279 Y123.016 E334.56701
