;FLAVOR:UltiGCode
;TIME:1233
;MATERIAL:1009
;MATERIAL2:0
;NOZZLE_DIAMETER:0.4
;Generated with Cura_SteamEngine 2.3.1

;LAYER_COUNT:198
;LAYER:0
M107
G10
G0 F3600 X100.802 Y106.895 Z.3
;TYPE:SKIRT
G11
G1 F1800 X101.257 Y106.515 E0.07114
G1 X101.657 Y106.255 E0.12839
G1 X102.765 Y105.62 E0.28163
G1 X103.285 Y105.366 E0.35108
G1 X108.135 Y103.379 E0.98003
G1 X113.047 Y101.045 E1.63263
G1 X114.896 Y100.077 E1.88308
G1 X115.439 Y99.839 E1.95422
G1 X116.009 Y99.675 E2.02539
G1 X116.596 Y99.589 E2.09659
G1 X117.188 Y99.583 E2.16763
G1 X117.777 Y99.657 E2.23887
G1 X118.35 Y99.809 E2.31
G1 X118.897 Y100.037 E2.38112
G1 X119.409 Y100.337 E2.45233
G1 X119.876 Y100.702 E2.52345
G1 X120.228 Y101.056 E2.58336
G1 X121.485 Y102.473 E2.81066
G1 X121.803 Y102.877 E2.87236
G1 X122.504 Y103.883 E3.0195
G1 X122.744 Y104.268 E3.07394
G1 X123.624 Y105.858 E3.29201
G1 X123.878 Y106.401 E3.36395
G1 X124.567 Y108.182 E3.5931
G1 X124.732 Y108.705 E3.65891
G1 X125.171 Y110.464 E3.87647
G1 X125.277 Y111.063 E3.94946
G1 X125.483 Y112.999 E4.1831
G1 X125.508 Y113.472 E4.23993
G1 X125.506 Y114.68 E4.38489
G1 X125.489 Y115.061 E4.43066
G1 X125.378 Y116.316 E4.58185
G1 X125.314 Y116.769 E4.63675
G1 X124.97 Y118.535 E4.85265
G1 X124.817 Y119.108 E4.92382
G1 X124.589 Y119.656 E4.99504
G1 X124.29 Y120.167 E5.06609
G1 X123.924 Y120.634 E5.13729
G1 X123.499 Y121.048 E5.20849
G1 X123.022 Y121.4 E5.27963
G1 X122.503 Y121.685 E5.35068
G1 X121.949 Y121.898 E5.4219
G1 X121.372 Y122.035 E5.49307
G1 X120.951 Y122.084 E5.54393
G1 X114.661 Y122.513 E6.30048
G1 X107.135 Y123.395 E7.20978
G1 X106.543 Y123.424 E7.28091
G1 X105.96 Y123.375 E7.35112
G1 X104.917 Y123.216 E7.47772
G1 X104.06 Y122.995 E7.58393
G1 X103.229 Y122.689 E7.69019
G1 X102.477 Y122.328 E7.79029
G1 X101.558 Y121.774 E7.91906
G1 X101.072 Y121.435 E7.99017
G1 X100.841 Y121.235 E8.02683
G1 X100.193 Y120.635 E8.13281
G1 X99.786 Y120.203 E8.20403
G1 X99.583 Y119.937 E8.24418
G1 X98.849 Y118.893 E8.39733
G1 X98.541 Y118.386 E8.46851
G1 X98.314 Y117.869 E8.53627
G1 X97.863 Y116.632 E8.69427
G1 X97.698 Y116.063 E8.76536
G1 X97.625 Y115.618 E8.81948
G1 X97.503 Y114.537 E8.95002
G1 X97.476 Y113.945 E9.02113
G1 X97.512 Y113.475 E9.0777
G1 X97.679 Y112.194 E9.23272
G1 X97.881 Y111.333 E9.33884
G1 X98.104 Y110.684 E9.42119
G1 X98.376 Y110.057 E9.50321
G1 X98.778 Y109.297 E9.60638
G1 X99.121 Y108.749 E9.68396
G1 X99.5 Y108.233 E9.76079
G1 X100.003 Y107.66 E9.85228
G1 X100.802 Y106.895 E9.98502
G0 F3600 X101.079 Y107.184
G1 F1800 X101.514 Y106.823 E10.05286
G1 X101.856 Y106.603 E10.10165
G1 X102.964 Y105.968 E10.2549
G1 X103.436 Y105.737 E10.31796
G1 X108.285 Y103.75 E10.9468
G1 X113.246 Y101.393 E11.60589
G1 X115.082 Y100.432 E11.85457
G1 X115.6 Y100.206 E11.92239
G1 X116.145 Y100.055 E11.99025
G1 X116.705 Y99.983 E12.05801
G1 X117.271 Y99.99 E12.12593
G1 X117.829 Y100.077 E12.1937
G1 X118.37 Y100.242 E12.26157
G1 X118.882 Y100.481 E12.32938
G1 X119.355 Y100.791 E12.39724
G1 X119.928 Y101.322 E12.49099
G1 X121.185 Y102.739 E12.71829
G1 X121.475 Y103.106 E12.77442
G1 X122.176 Y104.112 E12.92156
G1 X122.394 Y104.462 E12.97104
G1 X123.274 Y106.052 E13.18911
G1 X123.505 Y106.546 E13.25455
G1 X124.194 Y108.327 E13.48371
G1 X124.344 Y108.801 E13.54337
G1 X124.783 Y110.56 E13.76092
G1 X124.88 Y111.106 E13.82747
G1 X125.086 Y113.042 E14.0611
G1 X125.108 Y113.472 E14.11277
G1 X125.106 Y114.68 E14.25773
G1 X125.09 Y115.025 E14.29917
G1 X124.979 Y116.28 E14.45036
G1 X124.921 Y116.693 E14.5004
G1 X124.577 Y118.459 E14.71631
G1 X124.43 Y119.005 E14.78416
G1 X124.208 Y119.524 E14.8519
G1 X123.914 Y120.007 E14.91975
G1 X123.555 Y120.444 E14.98762
G1 X123.139 Y120.826 E15.05539
G1 X122.672 Y121.146 E15.12333
G1 X122.165 Y121.396 E15.19116
G1 X121.628 Y121.573 E15.25901
G1 X120.923 Y121.685 E15.34467
G1 X114.628 Y122.115 E16.10183
G1 X107.088 Y122.998 E17.01282
G1 X106.524 Y123.024 E17.08057
G1 X106.02 Y122.979 E17.14129
G1 X104.977 Y122.82 E17.26789
G1 X104.198 Y122.62 E17.36441
G1 X103.367 Y122.314 E17.47067
G1 X102.684 Y121.986 E17.56159
G1 X101.765 Y121.432 E17.69036
G1 X101.112 Y120.941 E17.7884
G1 X100.464 Y120.341 E17.89438
G1 X99.91 Y119.707 E17.99541
G1 X99.176 Y118.663 E18.14855
G1 X98.884 Y118.178 E18.21649
G1 X98.69 Y117.732 E18.27485
G1 X98.239 Y116.495 E18.43285
G1 X98.083 Y115.952 E18.50065
G1 X98.022 Y115.574 E18.54659
G1 X97.9 Y114.493 E18.67714
G1 X97.877 Y113.928 E18.74499
G1 X97.909 Y113.527 E18.79326
G1 X98.076 Y112.246 E18.94829
G1 X98.259 Y111.463 E19.04478
G1 X98.482 Y110.814 E19.12713
G1 X98.729 Y110.244 E19.20167
G1 X99.131 Y109.484 E19.30484
G1 X99.443 Y108.986 E19.37536
G1 X99.822 Y108.47 E19.45219
G1 X100.28 Y107.949 E19.53543
G1 X101.079 Y107.184 E19.66818
G0 F3600 X101.355 Y107.473
G1 F1800 X101.769 Y107.132 E19.73254
G1 X102.055 Y106.95 E19.77322
G1 X103.163 Y106.315 E19.92647
G1 X103.588 Y106.107 E19.98325
G1 X108.46 Y104.111 E20.61505
G1 X113.393 Y101.766 E21.27049
G1 X115.267 Y100.786 E21.52426
G1 X115.759 Y100.574 E21.58855
G1 X116.278 Y100.437 E21.65296
G1 X116.811 Y100.378 E21.71731
G1 X117.347 Y100.4 E21.78169
G1 X117.874 Y100.5 E21.84606
G1 X118.38 Y100.678 E21.91042
G1 X118.853 Y100.929 E21.97468
G1 X119.285 Y101.248 E22.03912
G1 X119.629 Y101.587 E22.09708
G1 X120.886 Y103.004 E22.32438
G1 X121.147 Y103.335 E22.37496
G1 X121.848 Y104.341 E22.5221
G1 X122.044 Y104.656 E22.56662
G1 X122.924 Y106.246 E22.78469
G1 X123.132 Y106.69 E22.84353
G1 X123.821 Y108.471 E23.07269
G1 X123.956 Y108.898 E23.12643
G1 X124.395 Y110.657 E23.34398
G1 X124.482 Y111.148 E23.40382
G1 X124.688 Y113.084 E23.63745
G1 X124.708 Y113.471 E23.68395
G1 X124.706 Y114.679 E23.82891
G1 X124.692 Y114.99 E23.86627
G1 X124.581 Y116.245 E24.01746
G1 X124.529 Y116.616 E24.06241
G1 X124.185 Y118.382 E24.27832
G1 X124.043 Y118.9 E24.34277
G1 X123.826 Y119.39 E24.40708
G1 X123.539 Y119.843 E24.47143
G1 X123.188 Y120.248 E24.53574
G1 X122.78 Y120.597 E24.60017
G1 X122.325 Y120.881 E24.66453
G1 X121.833 Y121.094 E24.72887
G1 X121.315 Y121.232 E24.7932
G1 X120.896 Y121.286 E24.84389
G1 X114.597 Y121.716 E25.60153
G1 X107.042 Y122.601 E26.51433
G1 X106.506 Y122.623 E26.5787
G1 X106.08 Y122.584 E26.63004
G1 X105.037 Y122.425 E26.75664
G1 X104.336 Y122.244 E26.84352
G1 X103.505 Y121.938 E26.94979
G1 X102.89 Y121.643 E27.03164
G1 X101.971 Y121.089 E27.16041
G1 X101.384 Y120.648 E27.24851
G1 X100.736 Y120.048 E27.35449
G1 X100.237 Y119.477 E27.44548
G1 X99.503 Y118.433 E27.59863
G1 X99.228 Y117.972 E27.66304
G1 X99.066 Y117.595 E27.71228
G1 X98.615 Y116.358 E27.87028
G1 X98.469 Y115.842 E27.93463
G1 X98.42 Y115.529 E27.97265
G1 X98.298 Y114.448 E28.10319
G1 X98.277 Y113.912 E28.16756
G1 X98.305 Y113.579 E28.20766
G1 X98.472 Y112.298 E28.36269
G1 X98.637 Y111.593 E28.44957
G1 X98.86 Y110.944 E28.53192
G1 X99.083 Y110.431 E28.59905
G1 X99.485 Y109.671 E28.70222
G1 X99.766 Y109.223 E28.76568
G1 X100.145 Y108.707 E28.84251
G1 X100.556 Y108.238 E28.91734
G1 X101.355 Y107.473 E29.05008
G0 F3600 X101.632 Y107.762
G1 F1800 X102.024 Y107.442 E29.1108
G1 X102.254 Y107.297 E29.14343
G1 X103.362 Y106.662 E29.29668
G1 X103.74 Y106.477 E29.34718
G1 X108.613 Y104.48 E29.97914
G1 X113.603 Y102.109 E30.64209
G1 X115.453 Y101.141 E30.89265
G1 X115.918 Y100.942 E30.95334
G1 X116.408 Y100.82 E31.01394
G1 X116.912 Y100.776 E31.07465
G1 X117.416 Y100.812 E31.13528
G1 X117.908 Y100.927 E31.19591
G1 X118.376 Y101.118 E31.25657
G1 X118.808 Y101.381 E31.31726
G1 X119.33 Y101.852 E31.40163
G1 X120.587 Y103.269 E31.62893
G1 X120.818 Y103.564 E31.6739
G1 X121.519 Y104.57 E31.82103
G1 X121.694 Y104.849 E31.86055
G1 X122.574 Y106.439 E32.07863
G1 X122.758 Y106.834 E32.13092
G1 X123.447 Y108.615 E32.36007
G1 X123.568 Y108.995 E32.40793
G1 X124.007 Y110.754 E32.62548
G1 X124.084 Y111.19 E32.67861
G1 X124.29 Y113.126 E32.91225
G1 X124.308 Y113.47 E32.95358
G1 X124.306 Y114.678 E33.09854
G1 X124.294 Y114.955 E33.13181
G1 X124.183 Y116.21 E33.283
G1 X124.136 Y116.54 E33.323
G1 X123.792 Y118.306 E33.5389
G1 X123.656 Y118.793 E33.59958
G1 X123.446 Y119.253 E33.66026
G1 X123.165 Y119.673 E33.7209
G1 X122.822 Y120.045 E33.78162
G1 X122.425 Y120.357 E33.84221
G1 X121.983 Y120.603 E33.90291
G1 X121.509 Y120.777 E33.9635
G1 X120.869 Y120.887 E34.04143
G1 X114.542 Y121.319 E34.80244
G1 X106.995 Y122.203 E35.71427
G1 X106.49 Y122.222 E35.77491
G1 X106.141 Y122.188 E35.81699
G1 X105.098 Y122.029 E35.9436
G1 X104.474 Y121.869 E36.0209
G1 X103.643 Y121.563 E36.12716
G1 X103.097 Y121.301 E36.19984
G1 X102.178 Y120.747 E36.32861
G1 X101.656 Y120.354 E36.40701
G1 X101.008 Y119.754 E36.51299
G1 X100.564 Y119.246 E36.59395
G1 X99.83 Y118.202 E36.74709
G1 X99.573 Y117.767 E36.80772
G1 X99.442 Y117.458 E36.848
G1 X98.991 Y116.221 E37.006
G1 X98.817 Y115.484 E37.09687
G1 X98.695 Y114.403 E37.22741
G1 X98.678 Y113.898 E37.28805
G1 X98.702 Y113.63 E37.32034
G1 X98.869 Y112.349 E37.47536
G1 X99.016 Y111.723 E37.55252
G1 X99.239 Y111.074 E37.63487
G1 X99.436 Y110.618 E37.69448
G1 X99.838 Y109.858 E37.79765
G1 X100.088 Y109.46 E37.85405
G1 X100.467 Y108.944 E37.93088
G1 X100.833 Y108.527 E37.99746
G1 X101.632 Y107.762 E38.1302
G10
G0 F3600 X103.296 Y109.655
G0 X104.156 Y110.636
G0 X104.248 Y110.634
G0 X104.188 Y110.555
;TYPE:WALL-INNER
G11
G1 F1800 X104.669 Y110.235 E38.19953
G1 X105.179 Y109.984 E38.26774
G1 X105.732 Y109.795 E38.33786
G1 X106.285 Y109.685 E38.40552
G1 X106.865 Y109.648 E38.47527
G1 X107.44 Y109.685 E38.54441
G1 X108.013 Y109.799 E38.61452
G1 X108.543 Y109.98 E38.68172
G1 X109.079 Y110.245 E38.75347
G1 X109.538 Y110.552 E38.81974
G1 X109.985 Y110.944 E38.89108
G1 X110.226 Y111.207 E38.93389
G1 X110.468 Y111.522 E38.98156
G1 X110.672 Y111.841 E39.027
G1 X110.854 Y112.192 E39.07444
G1 X110.97 Y112.456 E39.10904
G1 X111.114 Y112.909 E39.16608
G1 X111.196 Y113.281 E39.2118
G1 X111.246 Y113.649 E39.25636
G1 X111.26 Y113.971 E39.29504
G1 X111.26 Y114.126 E39.31364
G1 X111.242 Y114.473 E39.35533
G1 X111.196 Y114.809 E39.39603
G1 X111.114 Y115.181 E39.44174
G1 X110.93 Y115.725 E39.51066
G1 X110.682 Y116.231 E39.57828
G1 X110.356 Y116.722 E39.649
G1 X109.97 Y117.16 E39.71906
G1 X109.541 Y117.536 E39.78751
G1 X109.069 Y117.852 E39.85567
G1 X108.544 Y118.111 E39.92592
G1 X108.007 Y118.293 E39.99396
G1 X107.423 Y118.406 E40.06534
G1 X106.866 Y118.443 E40.13233
G1 X106.269 Y118.403 E40.20413
G1 X105.728 Y118.295 E40.27033
G1 X105.169 Y118.103 E40.34126
G1 X104.664 Y117.853 E40.40888
G1 X104.188 Y117.536 E40.47751
G1 X103.756 Y117.157 E40.54647
G1 X103.366 Y116.709 E40.61775
G1 X103.052 Y116.238 E40.68567
G1 X102.803 Y115.733 E40.75324
G1 X102.611 Y115.16 E40.82576
G1 X102.504 Y114.624 E40.89135
G1 X102.467 Y114.044 E40.96109
G1 X102.505 Y113.459 E41.03144
G1 X102.616 Y112.905 E41.09924
G1 X102.81 Y112.345 E41.17036
G1 X103.063 Y111.835 E41.23867
G1 X103.385 Y111.357 E41.30783
G1 X103.768 Y110.924 E41.3772
G1 X104.188 Y110.555 E41.44429
G0 F3600 X104.248 Y110.634
G0 X104.906 Y111.327
G0 X104.964 Y111.408
G1 F1800 X104.611 Y111.702 E41.49942
G1 X104.301 Y112.046 E41.55499
G1 X104.042 Y112.432 E41.61077
G1 X103.842 Y112.849 E41.66627
G1 X103.702 Y113.291 E41.7219
G1 X103.627 Y113.749 E41.7776
G1 X103.618 Y114.214 E41.83341
G1 X103.675 Y114.674 E41.88903
G1 X103.797 Y115.123 E41.94486
G1 X103.982 Y115.548 E42.00048
G1 X104.224 Y115.942 E42.05597
G1 X104.521 Y116.299 E42.1117
G1 X104.861 Y116.605 E42.16659
G1 X105.265 Y116.875 E42.2249
G1 X105.67 Y117.068 E42.27873
G1 X106.111 Y117.208 E42.33426
G1 X106.569 Y117.283 E42.38995
G1 X107.033 Y117.292 E42.44564
G1 X107.495 Y117.235 E42.5015
G1 X107.941 Y117.113 E42.55699
G1 X108.367 Y116.929 E42.61267
G1 X108.766 Y116.682 E42.66898
G1 X109.119 Y116.388 E42.72411
G1 X109.429 Y116.044 E42.77968
G1 X109.688 Y115.658 E42.83546
G1 X109.888 Y115.241 E42.89096
G1 X110.028 Y114.799 E42.94659
G1 X110.103 Y114.34 E43.0024
G1 X110.111 Y113.877 E43.05797
G1 X110.056 Y113.415 E43.1138
G1 X109.932 Y112.969 E43.16935
G1 X109.749 Y112.543 E43.22499
G1 X109.506 Y112.148 E43.28064
G1 X109.207 Y111.79 E43.33662
G1 X108.852 Y111.473 E43.39373
G1 X108.479 Y111.222 E43.44768
G1 X108.059 Y111.021 E43.50355
G1 X107.618 Y110.883 E43.559
G1 X107.16 Y110.808 E43.6147
G1 X106.697 Y110.8 E43.67026
G1 X106.236 Y110.855 E43.72598
G1 X105.789 Y110.978 E43.78161
G1 X105.363 Y111.161 E43.83725
G1 X104.964 Y111.408 E43.89356
G10
G0 F3600 X104.906 Y111.327
G0 X105.776 Y110.941
G0 X106.695 Y110.761
G0 X107.627 Y110.845
G0 X110.638 Y111.861
G0 X111.714 Y111.172
G0 X111.783 Y111.129
G0 X111.685 Y111.115
G11
G1 F1800 X111.229 Y110.53 E43.98257
G1 X116.789 Y104.969 E44.92621
G1 X116.936 Y104.822 E44.95116
G1 X117.076 Y104.975 E44.96703
G1 X117.334 Y105.256 E45.01281
G1 X118.065 Y106.209 E45.15694
G1 X118.704 Y107.213 E45.29975
G1 X119.249 Y108.26 E45.44139
G1 X119.713 Y109.378 E45.58665
G1 X120.069 Y110.506 E45.72859
G1 X120.326 Y111.67 E45.87163
G1 X120.482 Y112.847 E46.01411
G1 X120.534 Y114.044 E46.15788
G1 X120.482 Y115.241 E46.30166
G1 X120.326 Y116.419 E46.44425
G1 X120.243 Y116.794 E46.49034
G1 X120.198 Y116.998 E46.51541
G1 X119.997 Y116.944 E46.53135
G1 X112.396 Y114.906 E47.47569
G1 X112.445 Y114.512 E47.52333
G1 X112.464 Y114.044 E47.57954
G1 X112.458 Y113.911 E47.59551
G1 X112.501 Y113.906 E47.60071
G1 X112.397 Y113.159 E47.69121
G1 X112.448 Y113.143 E47.69763
G1 X112.354 Y112.848 E47.73478
G1 X112.333 Y112.696 E47.75319
G1 X112.323 Y112.697 E47.7544
G1 X112.307 Y112.701 E47.75638
G1 X112.276 Y112.603 E47.76871
G1 X112.246 Y112.468 E47.78531
G1 X112.276 Y112.456 E47.78804
G1 X112.209 Y112.302 E47.80819
G1 X112.148 Y112.025 E47.84223
G1 X112.095 Y112.038 E47.84878
G1 X111.938 Y111.674 E47.89635
G1 X111.714 Y111.244 E47.95453
G1 X111.648 Y111.141 E47.96921
G1 X111.685 Y111.115 E47.97464
G0 F3600 X111.113 Y111.032
;TYPE:WALL-OUTER
G1 F1800 X110.872 Y110.723 E48.02166
G1 X110.867 Y110.726 E48.02236
G1 X110.829 Y110.684 E48.02916
G1 X110.677 Y110.516 E48.05634
G1 X116.802 Y104.39 E49.09588
G1 X116.949 Y104.243 E49.12082
G1 X117.089 Y104.396 E49.13669
G1 X117.09 Y104.397 E49.13686
G1 X117.637 Y104.995 E49.23411
G1 X118.395 Y105.983 E49.38355
G1 X119.054 Y107.018 E49.53079
G1 X119.613 Y108.091 E49.67597
G1 X120.085 Y109.231 E49.82403
G1 X120.458 Y110.412 E49.97265
G1 X120.721 Y111.602 E50.1189
G1 X120.881 Y112.81 E50.26513
G1 X120.935 Y114.045 E50.41347
G1 X120.881 Y115.277 E50.56145
G1 X120.721 Y116.488 E50.70803
G1 X120.544 Y117.288 E50.80635
G1 X120.499 Y117.492 E50.83142
G1 X120.298 Y117.438 E50.84736
G1 X111.93 Y115.195 E51.88697
G1 X111.985 Y114.95 E51.9171
G1 X112.019 Y114.724 E51.94453
G1 X112.037 Y114.556 E51.9648
G1 X112.038 Y114.542 E51.96649
G1 X112.046 Y114.482 E51.97375
G1 X112.064 Y114.045 E52.02623
G1 X112.059 Y113.957 E52.03681
G1 X112.059 Y113.936 E52.03933
G1 X112.044 Y113.613 E52.07813
G1 X112.043 Y113.58 E52.0821
G1 X112.041 Y113.56 E52.08451
G1 X112.049 Y113.559 E52.08547
G1 X111.995 Y113.171 E52.12046
G0 X111.99 Y113.172
G1 X111.982 Y113.135 E52.125
G1 X111.978 Y113.113 E52.12768
G1 X111.929 Y112.886 E52.15555
G1 X111.945 Y112.881 E52.15721
G1 X111.887 Y112.698 E52.18024
G1 X111.846 Y112.513 E52.20298
G1 X111.83 Y112.517 E52.20478
G1 X111.819 Y112.486 E52.20873
G1 X111.736 Y112.241 E52.23977
G1 X111.746 Y112.237 E52.24106
G1 X111.712 Y112.158 E52.2463
G1 X111.577 Y111.846 E52.2871
G1 X111.368 Y111.445 E52.34136
G1 X111.353 Y111.422 E52.34466
G1 X111.132 Y111.078 E52.39372
G1 X111.106 Y111.037 E52.39955
G0 X111.113 Y111.032
G0 F3600 X110.381 Y110.785
G1 F1800 X110.533 Y110.951 E52.42645
G1 X110.797 Y111.294 E52.47839
G1 X111.017 Y111.637 E52.52705
G1 X111.217 Y112.024 E52.57932
G1 X111.345 Y112.316 E52.61758
