;FLAVOR:UltiGCode
;TIME:4425
;MATERIAL:2888
;MATERIAL2:0
;NOZZLE_DIAMETER:0.4
;Generated with Cura_SteamEngine 2.3.1

;LAYER_COUNT:224
;LAYER:0
M107
G10
G0 F3600 X95.516 Y96.507 Z.3
;TYPE:SKIRT
G11
G1 F1800 X95.966 Y96.165 E0.06783
G1 X96.459 Y95.889 E0.13563
G1 X96.987 Y95.685 E0.20355
G1 X97.537 Y95.558 E0.27129
G1 X98.16 Y95.509 E0.34628
G1 X119.847 Y95.51 E2.94872
G1 X120.631 Y95.588 E3.04326
G1 X125.623 Y96.586 E3.65416
G1 X126.168 Y96.735 E3.72196
G1 X126.687 Y96.96 E3.78984
G1 X127.169 Y97.256 E3.85771
G1 X127.604 Y97.617 E3.92555
G1 X127.984 Y98.036 E3.99342
G1 X128.301 Y98.504 E4.06126
G1 X128.549 Y99.012 E4.12909
G1 X128.723 Y99.55 E4.19694
G1 X128.819 Y100.107 E4.26477
G1 X128.839 Y100.508 E4.31295
G1 X128.839 Y122.488 E6.95055
G1 X128.799 Y123.052 E7.0184
G1 X128.68 Y123.605 E7.08628
G1 X128.484 Y124.135 E7.15409
G1 X128.216 Y124.632 E7.22185
G1 X127.88 Y125.087 E7.28972
G1 X127.483 Y125.49 E7.3576
G1 X127.033 Y125.832 E7.42543
G1 X126.54 Y126.108 E7.49323
G1 X126.012 Y126.312 E7.56115
G1 X125.627 Y126.41 E7.60883
G1 X120.64 Y127.412 E8.21923
G1 X119.852 Y127.49 E8.31425
G1 X98.16 Y127.49 E10.91729
G1 X97.596 Y127.45 E10.98514
G1 X97.043 Y127.331 E11.05302
G1 X96.513 Y127.135 E11.12083
G1 X96.016 Y126.867 E11.18859
G1 X95.561 Y126.531 E11.25646
G1 X95.158 Y126.134 E11.32435
G1 X94.816 Y125.684 E11.39217
G1 X94.54 Y125.191 E11.45997
G1 X94.336 Y124.663 E11.5279
G1 X94.209 Y124.113 E11.59563
G1 X94.16 Y123.49 E11.67062
G1 X94.16 Y99.509 E14.54834
G1 X94.2 Y98.945 E14.61619
G1 X94.319 Y98.392 E14.68407
G1 X94.515 Y97.862 E14.75188
G1 X94.783 Y97.365 E14.81964
G1 X95.119 Y96.91 E14.88751
G1 X95.516 Y96.507 E14.9554
G0 F3600 X95.907 Y96.701
G1 F1800 X96.349 Y96.398 E15.0197
G1 X96.832 Y96.163 E15.08416
G1 X97.343 Y96.003 E15.14842
G1 X97.873 Y95.92 E15.21279
G1 X98.16 Y95.909 E15.24726
G1 X119.847 Y95.91 E17.8497
G1 X120.553 Y95.98 E17.93483
G1 X125.545 Y96.978 E18.54573
G1 X126.061 Y97.122 E18.61001
G1 X126.551 Y97.341 E18.67442
G1 X127.002 Y97.63 E18.7387
G1 X127.406 Y97.984 E18.80315
G1 X127.752 Y98.393 E18.86744
G1 X128.034 Y98.849 E18.93178
G1 X128.245 Y99.342 E18.99613
G1 X128.38 Y99.861 E19.06048
G1 X128.439 Y100.508 E19.13844
G1 X128.439 Y122.488 E21.77604
G1 X128.399 Y123.023 E21.84042
G1 X128.28 Y123.546 E21.90479
G1 X128.085 Y124.045 E21.96908
G1 X127.817 Y124.51 E22.03348
G1 X127.484 Y124.93 E22.0978
G1 X127.092 Y125.296 E22.16216
G1 X126.65 Y125.599 E22.22646
G1 X126.167 Y125.834 E22.29092
G1 X125.548 Y126.017 E22.36838
G1 X120.561 Y127.019 E22.97878
G1 X119.852 Y127.09 E23.06428
G1 X98.16 Y127.09 E25.66732
G1 X97.625 Y127.05 E25.7317
G1 X97.102 Y126.931 E25.79607
G1 X96.603 Y126.736 E25.86036
G1 X96.138 Y126.468 E25.92476
G1 X95.718 Y126.135 E25.98908
G1 X95.352 Y125.743 E26.05344
G1 X95.049 Y125.301 E26.11774
G1 X94.814 Y124.818 E26.1822
G1 X94.654 Y124.307 E26.24645
G1 X94.571 Y123.777 E26.31083
G1 X94.56 Y123.49 E26.34529
G1 X94.56 Y99.509 E29.22301
G1 X94.6 Y98.974 E29.28739
G1 X94.719 Y98.451 E29.35176
G1 X94.914 Y97.952 E29.41605
G1 X95.182 Y97.487 E29.48045
G1 X95.515 Y97.067 E29.54477
G1 X95.907 Y96.701 E29.60913
G0 F3600 X96.296 Y96.908
G1 F1800 X96.729 Y96.647 E29.6698
G1 X97.197 Y96.457 E29.73041
G1 X97.69 Y96.344 E29.7911
G1 X98.16 Y96.309 E29.84766
G1 X119.847 Y96.31 E32.4501
G1 X120.474 Y96.372 E32.52571
G1 X125.466 Y97.37 E33.1366
G1 X125.953 Y97.508 E33.19734
G1 X126.411 Y97.721 E33.25795
G1 X126.831 Y98.003 E33.31866
G1 X127.2 Y98.348 E33.37928
G1 X127.511 Y98.747 E33.43999
G1 X127.755 Y99.19 E33.50068
G1 X127.926 Y99.666 E33.56137
G1 X128.02 Y100.162 E33.62195
G1 X128.039 Y100.508 E33.66353
G1 X128.039 Y122.488 E36.30113
G1 X127.999 Y122.992 E36.3618
G1 X127.88 Y123.483 E36.42243
G1 X127.686 Y123.95 E36.48311
G1 X127.42 Y124.38 E36.54379
G1 X127.09 Y124.763 E36.60445
G1 X126.703 Y125.089 E36.66517
G1 X126.27 Y125.35 E36.72584
G1 X125.802 Y125.54 E36.78645
G1 X125.469 Y125.625 E36.8277
G1 X120.482 Y126.627 E37.4381
G1 X119.852 Y126.69 E37.51407
G1 X98.16 Y126.69 E40.11711
G1 X97.656 Y126.65 E40.17778
G1 X97.165 Y126.531 E40.23841
G1 X96.698 Y126.337 E40.29909
G1 X96.268 Y126.071 E40.35977
G1 X95.885 Y125.741 E40.42043
G1 X95.559 Y125.354 E40.48116
G1 X95.298 Y124.921 E40.54182
G1 X95.108 Y124.453 E40.60244
G1 X94.995 Y123.96 E40.66313
G1 X94.96 Y123.49 E40.71969
G1 X94.96 Y99.509 E43.59741
G1 X95 Y99.005 E43.65808
G1 X95.119 Y98.514 E43.7187
G1 X95.313 Y98.047 E43.77939
G1 X95.579 Y97.617 E43.84006
G1 X95.909 Y97.234 E43.90073
G1 X96.296 Y96.908 E43.96145
G10
G0 F3600 X98.779 Y98.835
G0 X98.779 Y100.128
G0 X98.821 Y100.17
G0 X98.751 Y100.1
;TYPE:WALL-INNER
G11
G1 F1800 X119.793 Y100.1 E46.48649
G1 X124.249 Y100.992 E47.03182
G1 X124.249 Y102.563 E47.22034
G1 X119.65 Y102.563 E47.77222
G1 X119.65 Y109.987 E48.6631
G1 X124.249 Y109.988 E49.21498
G1 X124.249 Y113.013 E49.57798
G1 X119.65 Y113.013 E50.12986
G1 X119.65 Y120.237 E50.99674
G1 X119.65 Y120.437 E51.02074
G1 X119.85 Y120.437 E51.03628
G1 X124.049 Y120.436 E51.54016
G1 X124.249 Y120.436 E51.56416
G1 X124.249 Y120.636 E51.5797
G1 X124.249 Y122.008 E51.74434
G1 X119.793 Y122.9 E52.28967
G1 X98.751 Y122.9 E54.81471
G1 X98.751 Y100.1 E57.55071
G0 F3600 X98.351 Y99.7
;TYPE:WALL-OUTER
G1 F1800 X119.831 Y99.7 E60.12831
G1 X124.649 Y100.664 E60.71792
G1 X124.649 Y102.963 E60.9938
G1 X120.05 Y102.963 E61.54568
G1 X120.05 Y109.587 E62.34056
G1 X124.649 Y109.588 E62.89244
G1 X124.649 Y113.413 E63.35144
G1 X120.05 Y113.413 E63.90332
G1 X120.05 Y119.837 E64.6742
G1 X120.05 Y120.037 E64.6982
G1 X120.25 Y120.037 E64.71374
G1 X124.449 Y120.036 E65.21762
G1 X124.649 Y120.036 E65.24162
G1 X124.649 Y120.236 E65.25716
G1 X124.649 Y122.336 E65.50916
G1 X119.831 Y123.3 E66.09878
G1 X98.351 Y123.3 E68.67638
G1 X98.351 Y99.7 E71.50838
G0 F3600 X98.821 Y100.17
G0 X99.148 Y100.279
;TYPE:SKIN
G1 F1800 X119.469 Y120.601 E74.95706
G0 X119.539 Y120.671
G0 F3600 X119.485 Y120.616
G1 F1800 X121.285 Y122.417 E75.26261
G0 X121.355 Y122.487
G0 F3600 X120.814 Y122.511
G1 F1800 X98.93 Y100.627 E78.97645
G0 X98.86 Y100.557
G0 F3600 X98.93 Y101.193
G1 F1800 X120.342 Y122.605 E82.61019
G0 X120.412 Y122.675
G0 F3600 X119.871 Y122.699
G1 F1800 X98.93 Y101.759 E86.16391
G0 X98.86 Y101.689
G0 F3600 X98.93 Y102.324
G1 F1800 X119.324 Y122.719 E89.62497
G0 X119.394 Y122.789
G0 F3600 X118.759 Y122.719
G1 F1800 X98.93 Y102.89 E92.99006
G0 X98.86 Y102.82
G0 F3600 X98.93 Y103.456
G1 F1800 X118.193 Y122.719 E96.2591
G0 X118.263 Y122.789
G0 F3600 X117.627 Y122.719
G1 F1800 X98.93 Y104.021 E99.43217
G0 X98.86 Y103.951
G0 F3600 X98.93 Y104.587
G1 F1800 X117.062 Y122.719 E102.50927
G0 X117.132 Y122.789
G0 F3600 X116.496 Y122.719
G1 F1800 X98.93 Y105.153 E105.49032
G0 X98.86 Y105.083
G0 F3600 X98.93 Y105.718
G1 F1800 X115.93 Y122.719 E108.3754
G0 X116 Y122.789
G0 F3600 X115.365 Y122.719
G1 F1800 X98.93 Y106.284 E111.16452
G0 X98.86 Y106.214
G0 F3600 X98.93 Y106.85
G1 F1800 X114.799 Y122.719 E113.85757
G0 X114.869 Y122.789
G0 F3600 X114.233 Y122.719
G1 F1800 X98.93 Y107.415 E116.45466
G0 X98.86 Y107.345
G0 F3600 X98.93 Y107.981
G1 F1800 X113.668 Y122.719 E118.95579
G0 X113.738 Y122.789
G0 F3600 X113.102 Y122.719
G1 F1800 X98.93 Y108.547 E121.36085
G0 X98.86 Y108.477
G0 F3600 X98.93 Y109.112
G1 F1800 X112.536 Y122.719 E123.66995
G0 X112.606 Y122.789
G0 F3600 X111.971 Y122.719
G1 F1800 X98.93 Y109.678 E125.88309
G0 X98.86 Y109.608
G0 F3600 X98.93 Y110.244
G1 F1800 X111.405 Y122.719 E128.00016
G0 X111.475 Y122.789
G0 F3600 X110.839 Y122.719
G1 F1800 X98.93 Y110.809 E130.02127
G0 X98.86 Y110.739
G0 F3600 X98.93 Y111.375
G1 F1800 X110.274 Y122.719 E131.94641
G0 X110.344 Y122.789
G0 F3600 X109.708 Y122.719
G1 F1800 X98.93 Y111.941 E133.7755
G0 X98.86 Y111.871
G0 F3600 X98.93 Y112.507
G1 F1800 X109.142 Y122.719 E135.50853
G0 X109.212 Y122.789
G0 F3600 X108.576 Y122.719
G1 F1800 X98.93 Y113.072 E137.1456
G0 X98.86 Y113.002
G0 F3600 X98.93 Y113.638
G1 F1800 X108.011 Y122.719 E138.6867
G0 X108.081 Y122.789
G0 F3600 X107.445 Y122.719
G1 F1800 X98.93 Y114.204 E140.13174
G0 X98.86 Y114.134
G0 F3600 X98.93 Y114.769
G1 F1800 X106.879 Y122.719 E141.48081
G0 X106.949 Y122.789
G0 F3600 X106.314 Y122.719
G1 F1800 X98.93 Y115.335 E142.73392
G0 X98.86 Y115.265
G0 F3600 X98.93 Y115.901
G1 F1800 X105.748 Y122.719 E143.89097
G0 X105.818 Y122.789
G0 F3600 X105.182 Y122.719
G1 F1800 X98.93 Y116.466 E144.95206
G0 X98.86 Y116.396
G0 F3600 X98.93 Y117.032
G1 F1800 X104.617 Y122.719 E145.91717
G0 X104.687 Y122.789
G0 F3600 X104.051 Y122.719
G1 F1800 X98.93 Y117.598 E146.78624
G0 X98.86 Y117.528
G0 F3600 X98.93 Y118.163
G1 F1800 X103.485 Y122.719 E147.55933
G0 X103.555 Y122.789
G0 F3600 X102.92 Y122.719
G1 F1800 X98.93 Y118.729 E148.23646
G0 X98.86 Y118.659
G0 F3600 X98.93 Y119.295
G1 F1800 X102.354 Y122.719 E148.81753
G0 X102.424 Y122.789
G0 F3600 X101.788 Y122.719
G1 F1800 X98.93 Y119.86 E149.30263
G0 X98.86 Y119.79
G0 F3600 X98.93 Y120.426
G1 F1800 X101.223 Y122.719 E149.69177
G0 X101.293 Y122.789
G0 F3600 X100.657 Y122.719
G1 F1800 X98.93 Y120.992 E149.98485
G0 X98.86 Y120.922
G0 F3600 X98.93 Y121.558
G1 F1800 X100.091 Y122.719 E150.18188
G0 X100.161 Y122.789
G0 F3600 X99.525 Y122.719
G1 F1800 X98.93 Y122.123 E150.28294
G0 X98.86 Y122.053
G0 F3600 X119.469 Y120.035
G1 F1800 X99.714 Y100.279 E153.63556
G0 X99.644 Y100.209
G0 F3600 X100.279 Y100.279
G1 F1800 X119.469 Y119.469 E156.89221
G0 X119.539 Y119.539
G0 F3600 X119.469 Y118.904
G1 F1800 X100.845 Y100.279 E160.05289
G0 X100.775 Y100.209
G0 F3600 X101.411 Y100.279
G1 F1800 X119.469 Y118.338 E163.11752
G0 X119.539 Y118.408
G0 F3600 X119.469 Y117.772
G1 F1800 X101.976 Y100.279 E166.08618
G0 X101.906 Y100.209
G0 F3600 X102.542 Y100.279
G1 F1800 X119.469 Y117.207 E168.95887
G0 X119.539 Y117.277
G0 F3600 X119.469 Y116.641
G1 F1800 X103.108 Y100.279 E171.73551
G0 X103.038 Y100.209
G0 F3600 X103.673 Y100.279
G1 F1800 X119.469 Y116.075 E174.41618
G0 X119.539 Y116.145
G0 F3600 X119.469 Y115.51
G1 F1800 X104.239 Y100.279 E177.00088
G0 X104.169 Y100.209
G0 F3600 X104.805 Y100.279
G1 F1800 X119.469 Y114.944 E179.48953
G0 X119.539 Y115.014
G0 F3600 X119.469 Y114.378
G1 F1800 X105.37 Y100.279 E181.88221
G0 X105.3 Y100.209
G0 F3600 X105.936 Y100.279
G1 F1800 X119.469 Y113.813 E184.17892
G0 X119.539 Y113.883
G0 F3600 X119.469 Y113.247
G1 F1800 X106.502 Y100.279 E186.37958
G0 X106.432 Y100.209
G0 F3600 X107.067 Y100.279
G1 F1800 X119.621 Y112.833 E188.51006
G0 X119.691 Y112.903
G0 F3600 X120.186 Y112.833
G1 F1800 X107.633 Y100.279 E190.64046
G0 X107.563 Y100.209
G0 F3600 X108.199 Y100.279
G1 F1800 X120.752 Y112.833 E192.77086
G0 X120.822 Y112.903
G0 F3600 X121.318 Y112.833
G1 F1800 X108.765 Y100.279 E194.90126
G0 X108.695 Y100.209
G0 F3600 X109.33 Y100.279
G1 F1800 X121.883 Y112.833 E197.03166
G0 X121.953 Y112.903
G0 F3600 X122.449 Y112.833
G1 F1800 X119.783 Y110.167 E197.4841
G0 X119.713 Y110.097
G0 F3600 X119.469 Y109.852
G1 F1800 X109.897 Y100.28 E199.10852
G0 X109.827 Y100.21
G0 F3600 X110.462 Y100.28
G1 F1800 X119.469 Y109.286 E200.63697
G0 X119.539 Y109.356
G0 F3600 X119.469 Y108.721
G1 F1800 X111.028 Y100.28 E202.06946
G0 X110.958 Y100.21
G0 F3600 X111.594 Y100.28
G1 F1800 X119.469 Y108.155 E203.40589
G0 X119.539 Y108.225
G0 F3600 X119.469 Y107.589
G1 F1800 X112.159 Y100.28 E204.64635
G0 X112.089 Y100.21
G0 F3600 X112.725 Y100.28
G1 F1800 X119.469 Y107.024 E205.79085
G0 X119.539 Y107.094
G0 F3600 X119.469 Y106.458
G1 F1800 X113.291 Y100.28 E206.83929
G0 X113.221 Y100.21
G0 F3600 X113.856 Y100.28
G1 F1800 X119.469 Y105.892 E207.79176
G0 X119.539 Y105.962
G0 F3600 X119.469 Y105.327
G1 F1800 X114.422 Y100.28 E208.64827
G0 X114.352 Y100.21
G0 F3600 X114.988 Y100.28
G1 F1800 X119.469 Y104.761 E209.40872
G0 X119.539 Y104.831
G0 F3600 X119.469 Y104.195
G1 F1800 X115.553 Y100.28 E210.0732
G0 X115.483 Y100.21
G0 F3600 X116.119 Y100.28
G1 F1800 X119.469 Y103.63 E210.64171
G0 X119.539 Y103.7
G0 F3600 X119.469 Y103.064
G1 F1800 X116.685 Y100.28 E211.11417
G0 X116.615 Y100.21
G0 F3600 X117.251 Y100.28
G1 F1800 X119.469 Y102.498 E211.49058
G0 X119.539 Y102.568
G0 F3600 X119.918 Y102.382
G1 F1800 X117.816 Y100.28 E211.8473
G0 X117.746 Y100.21
G0 F3600 X118.382 Y100.28
G1 F1800 X120.484 Y102.382 E212.20402
G0 X120.554 Y102.452
G0 F3600 X121.05 Y102.382
G1 F1800 X118.948 Y100.28 E212.56074
G0 X118.878 Y100.21
G0 F3600 X119.513 Y100.28
G1 F1800 X121.616 Y102.382 E212.91755
G0 X121.686 Y102.452
G0 F3600 X122.181 Y102.382
G1 F1800 X120.155 Y100.356 E213.26137
G0 X120.085 Y100.286
G0 F3600 X120.862 Y100.498
G1 F1800 X122.747 Y102.382 E213.58118
G0 X122.817 Y102.452
G0 F3600 X123.313 Y102.382
G1 F1800 X121.57 Y100.639 E213.87698
G0 X121.5 Y100.569
G0 F3600 X122.277 Y100.781
G1 F1800 X123.878 Y102.382 E214.14868
G0 X123.948 Y102.452
G0 F3600 X124.068 Y102.006
G1 F1800 X122.984 Y100.923 E214.33256
G0 X122.914 Y100.853
G0 F3600 X123.692 Y101.064
G1 F1800 X124.068 Y101.44 E214.39636
G0 F3600 X119.622 Y102.535
G0 X119.622 Y110.015
G0 X123.744 Y110.167
G1 F1800 X124.068 Y110.492 E214.45143
G0 F3600 X124.068 Y111.058
G1 F1800 X123.178 Y110.167 E214.60256
G0 X123.108 Y110.097
G0 F3600 X122.613 Y110.167
G1 F1800 X124.068 Y111.623 E214.84956
G0 X124.138 Y111.693
G0 F3600 X124.068 Y112.189
G1 F1800 X122.047 Y110.167 E215.19262
G0 X121.977 Y110.097
G0 F3600 X121.48 Y110.167
G1 F1800 X124.068 Y112.755 E215.63182
G0 X124.138 Y112.825
G0 F3600 X123.581 Y112.833
G1 F1800 X120.915 Y110.167 E216.08426
G0 X120.845 Y110.097
G0 F3600 X120.349 Y110.167
G1 F1800 X123.015 Y112.833 E216.53669
G0 X123.085 Y112.903
G0 F3600 X119.622 Y112.985
G0 X119.622 Y120.465
G0 X122.879 Y120.616
G1 F1800 X124.068 Y121.805 E216.73847
G0 X124.138 Y121.875
G0 F3600 X123.642 Y121.945
G1 F1800 X122.313 Y120.616 E216.96401
G0 X122.243 Y120.546
G0 F3600 X121.748 Y120.616
G1 F1800 X123.17 Y122.039 E217.20542
G0 X123.24 Y122.109
G0 F3600 X122.699 Y122.134
G1 F1800 X121.182 Y120.616 E217.46295
G0 X121.112 Y120.546
G0 F3600 X120.616 Y120.616
G1 F1800 X122.228 Y122.228 E217.73651
G0 X122.298 Y122.298
G0 F3600 X121.756 Y122.322
G1 F1800 X120.051 Y120.616 E218.02594
G0 X119.981 Y120.546
G0 F3600 X123.445 Y120.616
G1 F1800 X124.068 Y121.239 E218.13167
G0 X124.138 Y121.309
G0 F3600 X124.068 Y120.674
G1 F1800 X124.01 Y120.616 E218.14151
G0 F3600 X123.849 Y120.837
;TIME_ELAPSED:68.650930
;LAYER:1
M106 S255
G0 F5400 X124.249 Y120.631 Z.36
;TYPE:WALL-INNER
G1 F2700 X124.249 Y122.008 E218.17456
G1 X119.793 Y122.9 E218.28363
G1 X98.751 Y122.9 E218.78864
G1 X98.751 Y100.1 E219.33584
G1 X119.793 Y100.1 E219.84084
G1 X124.249 Y100.992 E219.94991
G1 X124.249 Y102.568 E219.98773
G1 X119.65 Y102.568 E220.09811
G1 X119.65 Y109.992 E220.27628
G1 X124.249 Y109.993 E220.38666
G1 X124.249 Y113.008 E220.45902
G1 X119.65 Y113.008 E220.5694
G1 X119.65 Y120.232 E220.74277
G1 X119.65 Y120.432 E220.74757
G1 X119.85 Y120.432 E220.75068
G1 X124.049 Y120.431 E220.85146
G1 X124.249 Y120.431 E220.85626
G1 X124.249 Y120.631 E220.85936
G0 F5400 X124.649 Y120.231
;TYPE:WALL-OUTER
G1 F1800 X124.649 Y122.336 E220.90988
G1 X119.831 Y123.3 E221.02781
G1 X98.351 Y123.3 E221.54333
G1 X98.351 Y99.7 E222.10973
G1 X119.831 Y99.7 E222.62525
G1 X124.649 Y100.664 E222.74317
G1 X124.649 Y102.968 E222.79847
G1 X120.05 Y102.968 E222.90884
G1 X120.05 Y109.592 E223.06782
G1 X124.649 Y109.593 E223.1782
G1 X124.649 Y113.408 E223.26976
G1 X120.05 Y113.408 E223.38013
G1 X120.05 Y119.832 E223.53431
G1 X120.05 Y120.032 E223.53911
G1 X120.25 Y120.032 E223.54222
G1 X124.449 Y120.031 E223.64299
G1 X124.649 Y120.031 E223.64779
G1 X124.649 Y120.231 E223.6509
G0 F5400 X124.179 Y120.501
G0 X124.068 Y120.873
;TYPE:SKIN
