;FLAVOR:UltiGCode
;TIME:6418
;MATERIAL:13083
;MATERIAL2:0
;NOZZLE_DIAMETER:0.4
;Generated with Cura_SteamEngine 2.3.1

;LAYER_COUNT:29
;LAYER:0
M107
G10
G0 F3600 X73.853 Y73.921 Z.3
;TYPE:SKIRT
G11
G1 F1800 X73.963 Y73.813 E0.0185
G1 X76.299 Y71.622 E0.40282
G1 X76.454 Y71.485 E0.42765
G1 X78.953 Y69.428 E0.81605
G1 X79.115 Y69.304 E0.84053
G1 X81.67 Y67.461 E1.21858
G1 X81.839 Y67.347 E1.24304
G1 X84.569 Y65.631 E1.62998
G1 X84.745 Y65.528 E1.65445
G1 X87.538 Y64.012 E2.0358
G1 X87.723 Y63.919 E2.06065
G1 X90.661 Y62.562 E2.449
G1 X90.85 Y62.482 E2.47363
G1 X93.888 Y61.309 E2.86442
G1 X94.082 Y61.241 E2.88909
G1 X97.06 Y60.306 E3.26365
G1 X97.207 Y60.264 E3.28199
G1 X98.769 Y59.854 E3.47578
G1 X98.919 Y59.818 E3.49429
G1 X102.072 Y59.151 E3.88102
G1 X102.274 Y59.115 E3.90565
G1 X105.464 Y58.652 E4.29246
G1 X105.668 Y58.629 E4.31709
G1 X108.848 Y58.374 E4.69992
G1 X109.053 Y58.364 E4.72455
G1 X112.248 Y58.313 E5.108
G1 X112.454 Y58.317 E5.13272
G1 X115.678 Y58.473 E5.52005
G1 X115.933 Y58.495 E5.55077
G1 X120.675 Y59.108 E6.12454
G1 X120.926 Y59.151 E6.1551
G1 X124.091 Y59.819 E6.54327
G1 X124.295 Y59.869 E6.56847
G1 X127.397 Y60.74 E6.95511
G1 X127.589 Y60.801 E6.97928
G1 X130.571 Y61.845 E7.35842
G1 X130.763 Y61.919 E7.38311
G1 X133.704 Y63.166 E7.76644
G1 X133.888 Y63.251 E7.79077
G1 X136.746 Y64.682 E8.17432
G1 X136.927 Y64.78 E8.19901
G1 X139.703 Y66.402 E8.58483
G1 X139.878 Y66.511 E8.60957
G1 X142.556 Y68.316 E8.99711
G1 X142.721 Y68.436 E9.02159
G1 X145.249 Y70.386 E9.40472
G1 X145.409 Y70.517 E9.42953
G1 X147.811 Y72.63 E9.81343
G1 X147.923 Y72.734 E9.83177
G1 X149.079 Y73.853 E10.02483
G1 X149.187 Y73.963 E10.04333
G1 X151.378 Y76.299 E10.42766
G1 X151.515 Y76.454 E10.45248
G1 X153.572 Y78.953 E10.84089
G1 X153.696 Y79.115 E10.86537
G1 X155.539 Y81.67 E11.24341
G1 X155.653 Y81.839 E11.26787
G1 X157.369 Y84.569 E11.65481
G1 X157.472 Y84.745 E11.67928
G1 X158.988 Y87.538 E12.06063
G1 X159.081 Y87.723 E12.08548
G1 X160.438 Y90.661 E12.47383
G1 X160.518 Y90.85 E12.49846
G1 X161.691 Y93.888 E12.88925
G1 X161.759 Y94.082 E12.91392
G1 X162.694 Y97.059 E13.28836
G1 X162.736 Y97.206 E13.30671
G1 X163.146 Y98.769 E13.50061
G1 X163.182 Y98.919 E13.51913
G1 X163.849 Y102.072 E13.90586
G1 X163.885 Y102.274 E13.93048
G1 X164.348 Y105.464 E14.31729
G1 X164.371 Y105.668 E14.34193
G1 X164.626 Y108.848 E14.72475
G1 X164.636 Y109.053 E14.74938
G1 X164.687 Y112.248 E15.13283
G1 X164.683 Y112.454 E15.15755
G1 X164.527 Y115.678 E15.54489
G1 X164.511 Y115.883 E15.56956
G1 X164.151 Y119.063 E15.9536
G1 X164.121 Y119.264 E15.97799
G1 X163.563 Y122.397 E16.35986
G1 X163.521 Y122.597 E16.38439
G1 X162.768 Y125.673 E16.76441
G1 X162.728 Y125.823 E16.78303
G1 X162.247 Y127.443 E16.98582
G1 X162.199 Y127.589 E17.00427
G1 X161.155 Y130.571 E17.3834
G1 X161.081 Y130.763 E17.40809
G1 X159.834 Y133.705 E17.79154
G1 X159.749 Y133.889 E17.81586
G1 X158.318 Y136.746 E18.1993
G1 X158.22 Y136.927 E18.224
G1 X156.598 Y139.704 E18.60992
G1 X156.489 Y139.879 E18.63466
G1 X154.684 Y142.557 E19.0222
G1 X154.593 Y142.684 E19.04095
G1 X153.606 Y144.004 E19.23873
G1 X153.478 Y144.164 E19.26332
G1 X150.401 Y147.774 E19.83253
G1 X150.265 Y147.924 E19.85683
G1 X149.147 Y149.079 E20.04972
G1 X149.037 Y149.187 E20.06822
G1 X146.701 Y151.378 E20.45255
G1 X146.546 Y151.515 E20.47737
G1 X144.047 Y153.572 E20.86578
G1 X143.885 Y153.696 E20.89026
G1 X141.33 Y155.539 E21.2683
G1 X141.161 Y155.653 E21.29276
G1 X138.431 Y157.369 E21.67971
G1 X138.255 Y157.472 E21.70418
G1 X135.462 Y158.988 E22.08553
G1 X135.277 Y159.081 E22.11037
G1 X132.339 Y160.438 E22.49872
G1 X132.15 Y160.518 E22.52335
G1 X129.112 Y161.691 E22.91414
G1 X128.918 Y161.759 E22.93881
G1 X125.94 Y162.694 E23.31337
G1 X125.793 Y162.736 E23.33172
G1 X124.231 Y163.146 E23.52551
G1 X124.081 Y163.182 E23.54402
G1 X120.928 Y163.849 E23.93075
G1 X120.725 Y163.885 E23.95549
G1 X117.539 Y164.347 E24.34181
G1 X117.336 Y164.37 E24.36632
G1 X114.164 Y164.625 E24.74819
G1 X114.011 Y164.633 E24.76658
G1 X112.403 Y164.685 E24.95964
G1 X112.249 Y164.687 E24.97812
G1 X109.053 Y164.636 E25.36169
G1 X108.848 Y164.626 E25.38632
G1 X105.668 Y164.371 E25.76914
G1 X105.415 Y164.34 E25.79973
G1 X100.655 Y163.573 E26.3783
G1 X100.401 Y163.522 E26.40939
G1 X97.257 Y162.75 E26.79787
G1 X97.061 Y162.695 E26.8223
G1 X94.082 Y161.759 E27.19701
G1 X93.89 Y161.692 E27.22141
G1 X90.851 Y160.52 E27.61227
G1 X90.659 Y160.439 E27.63728
G1 X87.722 Y159.081 E28.02557
G1 X87.538 Y158.988 E28.05031
G1 X84.745 Y157.472 E28.43166
G1 X84.528 Y157.343 E28.46195
G1 X80.534 Y154.746 E29.03364
G1 X80.325 Y154.598 E29.06438
G1 X77.792 Y152.647 E29.44805
G1 X77.673 Y152.55 E29.46647
G1 X76.415 Y151.481 E29.66457
G1 X76.298 Y151.377 E29.68336
G1 X73.963 Y149.187 E30.06751
G1 X73.853 Y149.079 E30.08601
G1 X72.735 Y147.924 E30.27891
G1 X72.599 Y147.774 E30.30321
G1 X69.522 Y144.164 E30.87242
G1 X69.364 Y143.963 E30.9031
G1 X67.472 Y141.346 E31.29061
G1 X67.356 Y141.174 E31.31551
G1 X65.616 Y138.406 E31.70784
G1 X65.536 Y138.272 E31.72657
G1 X64.754 Y136.882 E31.91796
G1 X64.682 Y136.746 E31.93642
G1 X63.251 Y133.889 E32.31986
G1 X63.166 Y133.705 E32.34418
G1 X61.919 Y130.763 E32.72763
G1 X61.862 Y130.619 E32.74621
G1 X61.29 Y129.064 E32.94504
G1 X61.239 Y128.914 E32.96405
G1 X60.286 Y125.867 E33.34716
G1 X60.232 Y125.673 E33.37132
G1 X59.479 Y122.596 E33.75146
G1 X59.437 Y122.396 E33.77598
G1 X58.879 Y119.264 E34.15774
G1 X58.849 Y119.063 E34.18213
G1 X58.489 Y115.882 E34.56628
G1 X58.473 Y115.677 E34.59096
G1 X58.317 Y112.455 E34.97805
G1 X58.313 Y112.249 E35.00277
G1 X58.364 Y109.053 E35.38634
G1 X58.374 Y108.848 E35.41097
G1 X58.629 Y105.668 E35.7938
G1 X58.66 Y105.415 E35.82438
G1 X59.427 Y100.655 E36.40295
G1 X59.479 Y100.4 E36.43418
G1 X60.252 Y97.256 E36.8227
G1 X60.322 Y97.011 E36.85327
G1 X61.828 Y92.477 E37.42658
G1 X61.919 Y92.237 E37.45738
G1 X63.166 Y89.295 E37.84083
G1 X63.251 Y89.111 E37.86515
G1 X64.682 Y86.254 E38.24859
G1 X64.78 Y86.073 E38.27329
G1 X66.402 Y83.296 E38.65921
G1 X66.511 Y83.121 E38.68395
G1 X68.316 Y80.443 E39.07149
G1 X68.437 Y80.277 E39.09614
G1 X70.388 Y77.749 E39.47934
G1 X70.518 Y77.59 E39.50398
G1 X72.631 Y75.188 E39.88788
G1 X72.735 Y75.076 E39.90622
G1 X73.853 Y73.921 E40.09911
G10
G0 F3600 X75.645 Y75.714
G0 X76.568 Y76.635
G0 X76.092 Y77.196
G0 X76.021 Y77.127
;TYPE:WALL-INNER
G11
G1 F1800 X77.136 Y76.011 E40.28842
G1 X78.286 Y74.933 E40.47757
G1 X79.47 Y73.891 E40.66684
G1 X80.692 Y72.884 E40.85685
G1 X81.956 Y71.909 E41.04841
G1 X83.231 Y70.989 E41.23709
G1 X84.56 Y70.093 E41.42943
G1 X85.895 Y69.254 E41.61864
G1 X87.257 Y68.46 E41.80782
G1 X88.655 Y67.702 E41.99865
G1 X90.058 Y66.997 E42.18707
G1 X91.513 Y66.325 E42.3794
G1 X92.953 Y65.715 E42.56706
G1 X94.436 Y65.142 E42.75784
G1 X95.931 Y64.619 E42.9479
G1 X97.448 Y64.142 E43.13873
G1 X98.98 Y63.714 E43.32961
G1 X100.498 Y63.341 E43.51719
G1 X102.054 Y63.013 E43.70801
G1 X103.617 Y62.734 E43.89854
G1 X105.186 Y62.506 E44.08879
G1 X106.753 Y62.329 E44.27803
G1 X108.328 Y62.203 E44.46763
G1 X109.927 Y62.126 E44.65974
G1 X111.5 Y62.1 E44.84852
G1 X113.073 Y62.126 E45.03731
G1 X114.672 Y62.203 E45.22941
G1 X116.247 Y62.329 E45.41901
G1 X117.814 Y62.506 E45.60825
G1 X119.383 Y62.734 E45.79851
G1 X120.946 Y63.013 E45.98903
G1 X122.502 Y63.341 E46.17986
G1 X124.02 Y63.714 E46.36743
G1 X125.552 Y64.142 E46.55831
G1 X127.063 Y64.617 E46.74838
G1 X128.564 Y65.142 E46.9392
G1 X130.047 Y65.715 E47.12998
G1 X131.487 Y66.325 E47.31765
G1 X132.936 Y66.994 E47.50917
G1 X134.345 Y67.701 E47.69834
G1 X135.743 Y68.46 E47.88923
G1 X137.105 Y69.254 E48.07841
G1 X138.44 Y70.094 E48.26769
G1 X139.769 Y70.99 E48.46003
G1 X141.044 Y71.909 E48.64863
G1 X142.293 Y72.872 E48.83789
G1 X143.525 Y73.887 E49.02944
G1 X144.704 Y74.925 E49.21794
G1 X145.873 Y76.021 E49.41023
G1 X146.989 Y77.136 E49.59953
G1 X148.067 Y78.286 E49.78868
G1 X149.109 Y79.47 E49.97795
G1 X150.116 Y80.692 E50.16797
G1 X151.091 Y81.956 E50.35953
G1 X152.011 Y83.231 E50.5482
G1 X152.9 Y84.549 E50.73897
G1 X153.746 Y85.895 E50.92975
G1 X154.54 Y87.257 E51.11893
G1 X155.298 Y88.655 E51.30977
G1 X156.003 Y90.058 E51.49819
G1 X156.675 Y91.513 E51.69051
G1 X157.285 Y92.953 E51.87817
G1 X157.856 Y94.43 E52.0682
G1 X158.379 Y95.925 E52.25826
G1 X158.858 Y97.448 E52.44984
G1 X159.286 Y98.98 E52.64072
G1 X159.659 Y100.498 E52.8283
G1 X159.986 Y102.048 E53.0184
G1 X160.265 Y103.607 E53.20845
G1 X160.494 Y105.186 E53.39991
G1 X160.671 Y106.753 E53.58915
G1 X160.797 Y108.326 E53.77851
G1 X160.874 Y109.92 E53.97002
G1 X160.9 Y111.49 E54.15844
G1 X160.874 Y113.073 E54.34843
G1 X160.798 Y114.661 E54.5392
G1 X160.671 Y116.234 E54.72858
G1 X160.493 Y117.819 E54.91997
G1 X160.268 Y119.374 E55.10852
G1 X159.987 Y120.946 E55.30015
G1 X159.662 Y122.49 E55.48949
G1 X159.286 Y124.021 E55.67867
G1 X158.86 Y125.546 E55.86867
G1 X158.385 Y127.057 E56.05874
G1 X157.858 Y128.564 E56.25032
G1 X157.29 Y130.035 E56.43954
G1 X156.675 Y131.487 E56.62877
G1 X156.011 Y132.925 E56.81884
G1 X155.301 Y134.34 E57.00881
G1 X154.54 Y135.743 E57.20034
G1 X153.746 Y137.105 E57.38953
G1 X152.906 Y138.44 E57.5788
G1 X152.01 Y139.769 E57.77114
G1 X151.095 Y141.039 E57.95898
G1 X150.128 Y142.293 E58.149
G1 X149.113 Y143.525 E58.34055
G1 X148.075 Y144.704 E58.52905
G1 X146.979 Y145.873 E58.72134
G1 X145.865 Y146.988 E58.91048
G1 X144.714 Y148.067 E59.0998
G1 X143.53 Y149.109 E59.28907
G1 X142.308 Y150.116 E59.47908
G1 X141.044 Y151.091 E59.67064
G1 X139.769 Y152.011 E59.85932
G1 X138.442 Y152.906 E60.05139
G1 X137.105 Y153.746 E60.24087
G1 X135.743 Y154.54 E60.43005
G1 X134.345 Y155.298 E60.62088
G1 X132.942 Y156.003 E60.8093
G1 X131.487 Y156.675 E61.00163
G1 X130.047 Y157.285 E61.18929
G1 X128.564 Y157.858 E61.38007
G1 X127.069 Y158.381 E61.57013
G1 X125.552 Y158.858 E61.76096
G1 X124.02 Y159.286 E61.95184
G1 X122.497 Y159.66 E62.14003
G1 X120.944 Y159.987 E62.33048
G1 X119.383 Y160.266 E62.52077
G1 X117.814 Y160.494 E62.71102
G1 X116.247 Y160.671 E62.90026
G1 X114.672 Y160.797 E63.08986
G1 X113.073 Y160.874 E63.28196
G1 X111.5 Y160.9 E63.47075
G1 X109.927 Y160.874 E63.65954
G1 X108.328 Y160.797 E63.85164
G1 X106.753 Y160.671 E64.04124
G1 X105.186 Y160.494 E64.23048
G1 X103.617 Y160.266 E64.42074
G1 X102.056 Y159.987 E64.61102
G1 X100.503 Y159.66 E64.80147
G1 X98.98 Y159.286 E64.98966
G1 X97.448 Y158.858 E65.18054
G1 X95.931 Y158.381 E65.37137
G1 X94.436 Y157.858 E65.56143
G1 X92.953 Y157.285 E65.75221
G1 X91.513 Y156.675 E65.93987
G1 X90.058 Y156.003 E66.1322
G1 X88.655 Y155.298 E66.32062
G1 X87.257 Y154.54 E66.51145
G1 X85.895 Y153.746 E66.70064
G1 X84.551 Y152.9 E66.89121
G1 X83.231 Y152.01 E67.08225
G1 X81.956 Y151.091 E67.27085
G1 X80.692 Y150.116 E67.46241
G1 X79.47 Y149.109 E67.65243
G1 X78.296 Y148.075 E67.84016
G1 X77.127 Y146.979 E68.03245
G1 X76.011 Y145.864 E68.22176
G1 X74.925 Y144.705 E68.41235
G1 X73.887 Y143.525 E68.60094
G1 X72.872 Y142.293 E68.79249
G1 X71.905 Y141.039 E68.98252
G1 X70.989 Y139.769 E69.17042
G1 X70.093 Y138.44 E69.36276
G1 X69.254 Y137.105 E69.55197
G1 X68.46 Y135.743 E69.74116
G1 X67.699 Y134.34 E69.93269
G1 X66.989 Y132.925 E70.12266
G1 X66.325 Y131.487 E70.31273
G1 X65.71 Y130.035 E70.50196
G1 X65.142 Y128.564 E70.69118
G1 X64.615 Y127.057 E70.88276
G1 X64.139 Y125.546 E71.07286
G1 X63.714 Y124.021 E71.26284
G1 X63.338 Y122.49 E71.45201
G1 X63.013 Y120.946 E71.64135
G1 X62.732 Y119.374 E71.83298
G1 X62.507 Y117.819 E72.02153
G1 X62.329 Y116.234 E72.21292
G1 X62.202 Y114.661 E72.4023
G1 X62.126 Y113.073 E72.59308
G1 X62.1 Y111.51 E72.78066
G1 X62.126 Y109.927 E72.97065
G1 X62.202 Y108.339 E73.16143
G1 X62.329 Y106.766 E73.3508
G1 X62.507 Y105.181 E73.5422
G1 X62.732 Y103.626 E73.73074
G1 X63.013 Y102.054 E73.92237
G1 X63.338 Y100.51 E74.11171
G1 X63.714 Y98.979 E74.30089
G1 X64.14 Y97.454 E74.49089
G1 X64.615 Y95.943 E74.68096
G1 X65.142 Y94.436 E74.87254
G1 X65.71 Y92.965 E75.06176
G1 X66.325 Y91.513 E75.25099
G1 X66.989 Y90.075 E75.44106
G1 X67.699 Y88.66 E75.63103
G1 X68.46 Y87.257 E75.82256
G1 X69.254 Y85.895 E76.01175
G1 X70.094 Y84.56 E76.20102
G1 X70.99 Y83.231 E76.39336
G1 X71.905 Y81.961 E76.5812
G1 X72.872 Y80.707 E76.77122
G1 X73.887 Y79.475 E76.96277
G1 X74.925 Y78.296 E77.15127
G1 X76.021 Y77.127 E77.34356
G0 F3600 X76.092 Y77.196
G0 X97.016 Y88.785
G0 X97.104 Y88.832
G1 F1800 X96.949 Y89.197 E77.39115
G1 X96.864 Y89.585 E77.43881
G1 X96.852 Y89.981 E77.48636
G1 X96.912 Y90.375 E77.53418
G1 X97.045 Y90.75 E77.58193
G1 X97.243 Y91.093 E77.62945
G1 X97.501 Y91.395 E77.67712
G1 X97.811 Y91.645 E77.72491
G1 X98.162 Y91.832 E77.77263
G1 X98.54 Y91.952 E77.82022
G1 X98.934 Y92.001 E77.86787
G1 X99.331 Y91.978 E77.91559
G1 X99.717 Y91.88 E77.96338
G1 X100.078 Y91.714 E78.01106
G1 X100.401 Y91.485 E78.05857
G1 X100.678 Y91.2 E78.10626
G1 X100.897 Y90.868 E78.15399
G1 X101.052 Y90.503 E78.20157
G1 X101.137 Y90.114 E78.24936
G1 X101.149 Y89.718 E78.2969
G1 X101.089 Y89.326 E78.34449
G1 X100.957 Y88.95 E78.3923
G1 X100.758 Y88.606 E78.43999
G1 X100.499 Y88.304 E78.48774
G1 X100.19 Y88.056 E78.53528
G1 X99.84 Y87.867 E78.58301
G1 X99.461 Y87.748 E78.63068
G1 X99.067 Y87.699 E78.67833
G1 X98.67 Y87.722 E78.72605
G1 X98.284 Y87.82 E78.77384
G1 X97.923 Y87.986 E78.82152
G1 X97.6 Y88.215 E78.86903
G1 X97.323 Y88.5 E78.91672
G1 X97.104 Y88.832 E78.96445
G0 F3600 X97.016 Y88.785
G0 X96.825 Y89.581
G0 X96.874 Y90.384
G0 X97.211 Y91.116
G0 X109.619 Y108.911
G0 X109.677 Y108.991
G1 F1800 X109.307 Y109.307 E79.02284
G1 X108.991 Y109.677 E79.08123
G1 X108.737 Y110.093 E79.13972
G1 X108.55 Y110.542 E79.19808
G1 X108.437 Y111.014 E79.25632
G1 X108.398 Y111.5 E79.31483
G1 X108.437 Y111.986 E79.37334
G1 X108.55 Y112.458 E79.43158
G1 X108.737 Y112.907 E79.48995
G1 X108.991 Y113.323 E79.54844
G1 X109.307 Y113.693 E79.60682
G1 X109.677 Y114.009 E79.66521
G1 X110.093 Y114.263 E79.7237
G1 X110.542 Y114.45 E79.78207
G1 X111.014 Y114.563 E79.84031
G1 X111.5 Y114.602 E79.89882
G1 X111.986 Y114.563 E79.95733
G1 X112.458 Y114.45 E80.01557
G1 X112.907 Y114.263 E80.07393
G1 X113.323 Y114.009 E80.13242
G1 X113.693 Y113.693 E80.19081
G1 X114.009 Y113.323 E80.2492
G1 X114.263 Y112.907 E80.30769
G1 X114.45 Y112.458 E80.36606
G1 X114.563 Y111.986 E80.4243
G1 X114.602 Y111.5 E80.4828
G1 X114.563 Y111.014 E80.54131
G1 X114.45 Y110.542 E80.59955
G1 X114.263 Y110.093 E80.65792
G1 X114.009 Y109.677 E80.71641
G1 X113.693 Y109.307 E80.7748
G1 X113.323 Y108.991 E80.83319
G1 X112.907 Y108.737 E80.89168
G1 X112.458 Y108.55 E80.95004
G1 X111.986 Y108.437 E81.00828
G1 X111.5 Y108.398 E81.06679
G1 X111.014 Y108.437 E81.1253
G1 X110.542 Y108.55 E81.18354
G1 X110.093 Y108.737 E81.2419
G1 X109.677 Y108.991 E81.30039
G0 F3600 X109.619 Y108.911
G0 X108.959 Y109.654
G0 X108.512 Y110.53
G0 X99.75 Y131.026
G0 X99.717 Y131.12
G1 F1800 X99.331 Y131.022 E81.34818
G1 X98.934 Y130.999 E81.3959
G1 X98.54 Y131.048 E81.44355
G1 X98.162 Y131.168 E81.49114
G1 X97.811 Y131.355 E81.53886
G1 X97.501 Y131.605 E81.58665
G1 X97.243 Y131.907 E81.63432
G1 X97.045 Y132.25 E81.68184
G1 X96.912 Y132.625 E81.72959
G1 X96.852 Y133.019 E81.77741
G1 X96.864 Y133.415 E81.82495
G1 X96.949 Y133.803 E81.87262
G1 X97.104 Y134.168 E81.9202
G1 X97.323 Y134.5 E81.96793
G1 X97.6 Y134.785 E82.01562
G1 X97.923 Y135.014 E82.06314
G1 X98.284 Y135.18 E82.11082
G1 X98.67 Y135.278 E82.15861
G1 X99.067 Y135.301 E82.20633
G1 X99.461 Y135.252 E82.25397
G1 X99.84 Y135.133 E82.30164
G1 X100.19 Y134.944 E82.34937
G1 X100.499 Y134.696 E82.39692
G1 X100.758 Y134.394 E82.44466
G1 X100.957 Y134.05 E82.49235
G1 X101.089 Y133.674 E82.54017
G1 X101.149 Y133.282 E82.58776
