;FLAVOR:UltiGCode
;TIME:595
;MATERIAL:415
;MATERIAL2:0
;NOZZLE_DIAMETER:0.4
;Generated with Cura_SteamEngine 2.3.1

;LAYER_COUNT:108
;LAYER:0
M107
G10
G0 F3600 X102.726 Y103.607 Z.3
;TYPE:SKIRT
G11
G1 F1800 X103.445 Y102.898 E0.12117
G1 X104.136 Y102.3 E0.23083
G1 X104.758 Y101.814 E0.32555
G1 X105.598 Y101.3 E0.44373
G1 X106.403 Y100.875 E0.55296
G1 X107.119 Y100.542 E0.64772
G1 X108.065 Y100.228 E0.76733
G1 X108.949 Y99.996 E0.87701
G1 X109.722 Y99.835 E0.97176
G1 X110.706 Y99.744 E1.09034
G1 X111.615 Y99.718 E1.19946
G1 X112.404 Y99.736 E1.29417
G1 X113.387 Y99.87 E1.41322
G1 X114.28 Y100.051 E1.52256
G1 X115.045 Y100.247 E1.61732
G1 X115.971 Y100.601 E1.73629
G1 X116.801 Y100.98 E1.84578
G1 X117.502 Y101.344 E1.94056
G1 X118.325 Y101.899 E2.05968
G1 X119.047 Y102.456 E2.16911
G1 X119.647 Y102.97 E2.26392
G1 X120.315 Y103.687 E2.38151
G1 X120.893 Y104.392 E2.49091
G1 X121.362 Y105.027 E2.58564
G1 X121.858 Y105.89 E2.70508
G1 X122.261 Y106.708 E2.81451
G1 X122.574 Y107.433 E2.90927
G1 X122.863 Y108.394 E3.02969
G1 X123.069 Y109.283 E3.1392
G1 X123.208 Y110.061 E3.23404
G1 X123.27 Y111.044 E3.35223
G1 X123.27 Y111.954 E3.46143
G1 X123.23 Y112.743 E3.55624
G1 X123.071 Y113.707 E3.67348
G1 X122.866 Y114.596 E3.78296
G1 X122.649 Y115.355 E3.87769
G1 X122.262 Y116.29 E3.99912
G1 X121.859 Y117.108 E4.10854
G1 X121.475 Y117.798 E4.2033
G1 X120.897 Y118.603 E4.32222
G1 X120.318 Y119.31 E4.43188
G1 X119.787 Y119.895 E4.52669
G1 X119.047 Y120.544 E4.6448
G1 X118.325 Y121.101 E4.75423
G1 X117.677 Y121.551 E4.8489
G1 X116.801 Y122.02 E4.96814
G1 X115.971 Y122.399 E5.07763
G1 X115.237 Y122.691 E5.17243
G1 X114.28 Y122.949 E5.29137
G1 X113.387 Y123.13 E5.4007
G1 X112.607 Y123.247 E5.49535
G1 X112.061 Y123.282 E5.56101
G1 X111.606 Y123.295 E5.61563
G1 X110.816 Y123.277 E5.71045
G1 X110.264 Y123.217 E5.77708
G1 X109.36 Y123.086 E5.8867
G1 X108.586 Y122.934 E5.98135
G1 X107.653 Y122.637 E6.09885
G1 X106.804 Y122.307 E6.20815
G1 X106.084 Y121.984 E6.30285
G1 X105.221 Y121.471 E6.42332
G1 X104.468 Y120.955 E6.53286
G1 X103.84 Y120.476 E6.62764
G1 X103.135 Y119.8 E6.74485
G1 X102.52 Y119.131 E6.8539
G1 X102.015 Y118.523 E6.94874
G1 X101.468 Y117.684 E7.06893
G1 X101.019 Y116.888 E7.1786
G1 X100.667 Y116.182 E7.27326
G1 X100.33 Y115.259 E7.39118
G1 X100.073 Y114.386 E7.50038
G1 X99.889 Y113.618 E7.59515
G1 X99.769 Y112.628 E7.71482
G1 X99.717 Y111.718 E7.8242
G1 X99.712 Y110.928 E7.919
G1 X99.818 Y109.946 E8.03752
G1 X99.973 Y109.048 E8.14688
G1 X100.146 Y108.278 E8.24158
G1 X100.474 Y107.339 E8.36094
G1 X100.829 Y106.499 E8.47037
G1 X101.173 Y105.788 E8.56515
G1 X101.696 Y104.961 E8.68257
G1 X102.231 Y104.222 E8.79205
G1 X102.726 Y103.607 E8.88679
G0 F3600 X103.038 Y103.858
G1 F1800 X103.707 Y103.2 E8.99939
G1 X104.398 Y102.602 E9.10905
G1 X105.004 Y102.13 E9.20122
G1 X105.785 Y101.654 E9.31098
G1 X106.59 Y101.229 E9.42021
G1 X107.288 Y100.906 E9.51251
G1 X108.167 Y100.615 E9.62362
G1 X109.051 Y100.383 E9.73329
G1 X109.804 Y100.227 E9.82557
G1 X110.717 Y100.144 E9.93558
G1 X111.626 Y100.118 E10.04471
G1 X112.395 Y100.136 E10.13701
G1 X113.308 Y100.262 E10.24761
G1 X114.201 Y100.443 E10.35695
G1 X114.946 Y100.635 E10.44927
G1 X115.805 Y100.965 E10.55969
G1 X116.635 Y101.344 E10.66919
G1 X117.317 Y101.699 E10.76145
G1 X118.081 Y102.216 E10.87215
G1 X118.803 Y102.773 E10.98157
G1 X119.387 Y103.274 E11.07391
G1 X120.006 Y103.94 E11.18302
G1 X120.584 Y104.645 E11.29242
G1 X121.04 Y105.265 E11.38477
G1 X121.499 Y106.067 E11.49566
G1 X121.902 Y106.885 E11.60509
G1 X122.206 Y107.591 E11.69733
G1 X122.473 Y108.485 E11.80929
G1 X122.679 Y109.374 E11.91879
G1 X122.813 Y110.131 E12.01105
G1 X122.87 Y111.044 E12.12082
G1 X122.87 Y111.954 E12.23002
G1 X122.83 Y112.722 E12.32231
G1 X122.681 Y113.617 E12.43118
G1 X122.476 Y114.506 E12.54066
G1 X122.264 Y115.245 E12.63292
G1 X121.903 Y116.113 E12.74573
G1 X121.5 Y116.931 E12.85516
G1 X121.125 Y117.603 E12.9475
G1 X120.587 Y118.35 E13.05797
G1 X120.008 Y119.057 E13.16763
G1 X119.491 Y119.626 E13.25989
G1 X118.803 Y120.227 E13.36951
G1 X118.081 Y120.784 E13.47894
G1 X117.449 Y121.222 E13.57121
G1 X116.635 Y121.656 E13.68191
G1 X115.805 Y122.035 E13.7914
G1 X115.089 Y122.318 E13.88379
G1 X114.201 Y122.557 E13.99414
G1 X113.308 Y122.738 E14.10348
G1 X112.547 Y122.851 E14.1958
G1 X112.049 Y122.882 E14.25567
G1 X111.594 Y122.895 E14.3103
G1 X110.825 Y122.877 E14.4026
G1 X110.322 Y122.822 E14.46332
G1 X109.418 Y122.691 E14.57293
G1 X108.663 Y122.541 E14.6653
G1 X107.798 Y122.264 E14.7743
G1 X106.949 Y121.934 E14.8836
G1 X106.248 Y121.619 E14.97583
G1 X105.447 Y121.141 E15.08776
G1 X104.694 Y120.625 E15.1973
G1 X104.083 Y120.158 E15.28958
G1 X103.429 Y119.529 E15.39847
G1 X102.814 Y118.86 E15.50752
G1 X102.324 Y118.268 E15.59973
G1 X101.817 Y117.488 E15.71137
G1 X101.368 Y116.692 E15.82104
G1 X101.025 Y116.003 E15.9134
G1 X100.714 Y115.146 E16.0228
G1 X100.457 Y114.273 E16.132
G1 X100.279 Y113.525 E16.22427
G1 X100.168 Y112.605 E16.33547
G1 X100.116 Y111.695 E16.44485
G1 X100.112 Y110.926 E16.53713
G1 X100.212 Y110.014 E16.64723
G1 X100.367 Y109.116 E16.75658
G1 X100.537 Y108.366 E16.84886
G1 X100.843 Y107.494 E16.95976
G1 X101.198 Y106.654 E17.06919
G1 X101.534 Y105.962 E17.1615
G1 X102.02 Y105.196 E17.27036
G1 X102.555 Y104.457 E17.37984
G1 X103.038 Y103.858 E17.47218
G0 F3600 X103.349 Y104.109
G1 F1800 X103.968 Y103.503 E17.57613
G1 X104.659 Y102.905 E17.68579
G1 X105.25 Y102.446 E17.77559
G1 X105.972 Y102.008 E17.87692
G1 X106.777 Y101.583 E17.98616
G1 X107.456 Y101.269 E18.07593
G1 X108.268 Y101.002 E18.1785
G1 X109.152 Y100.77 E18.28817
G1 X109.885 Y100.619 E18.37798
G1 X110.729 Y100.544 E18.47966
G1 X111.638 Y100.518 E18.58878
G1 X112.386 Y100.536 E18.67857
G1 X113.229 Y100.655 E18.78073
G1 X114.122 Y100.836 E18.89007
G1 X114.846 Y101.023 E18.9798
G1 X115.639 Y101.328 E19.08176
G1 X116.469 Y101.707 E19.19125
G1 X117.132 Y102.054 E19.28105
G1 X117.837 Y102.533 E19.38333
G1 X118.559 Y103.09 E19.49276
G1 X119.126 Y103.578 E19.58253
G1 X119.696 Y104.194 E19.68324
G1 X120.274 Y104.899 E19.79264
G1 X120.717 Y105.502 E19.88242
G1 X121.14 Y106.243 E19.98481
G1 X121.543 Y107.061 E20.09424
G1 X121.838 Y107.749 E20.18407
G1 X122.083 Y108.575 E20.28746
G1 X122.289 Y109.464 E20.39696
G1 X122.419 Y110.201 E20.48677
G1 X122.47 Y111.044 E20.58811
G1 X122.47 Y111.954 E20.69731
G1 X122.43 Y112.701 E20.78708
G1 X122.291 Y113.527 E20.88759
G1 X122.086 Y114.416 E20.99707
G1 X121.879 Y115.135 E21.08686
G1 X121.544 Y115.937 E21.19116
G1 X121.141 Y116.755 E21.30058
G1 X120.775 Y117.407 E21.39031
G1 X120.278 Y118.096 E21.49225
G1 X119.699 Y118.803 E21.60191
G1 X119.194 Y119.356 E21.69178
G1 X118.559 Y119.91 E21.7929
G1 X117.837 Y120.467 E21.90233
G1 X117.221 Y120.892 E21.99214
G1 X116.469 Y121.293 E22.0944
G1 X115.639 Y121.672 E22.2039
G1 X114.942 Y121.945 E22.29372
G1 X114.122 Y122.164 E22.39557
G1 X113.229 Y122.345 E22.50491
G1 X112.488 Y122.455 E22.59481
G1 X112.038 Y122.482 E22.6489
G1 X111.583 Y122.495 E22.70353
G1 X110.835 Y122.477 E22.79331
G1 X110.379 Y122.426 E22.84837
G1 X109.475 Y122.295 E22.95799
G1 X108.742 Y122.148 E23.0477
G1 X107.943 Y121.891 E23.14842
G1 X107.094 Y121.561 E23.25772
G1 X106.412 Y121.254 E23.34747
G1 X105.673 Y120.811 E23.45086
G1 X104.92 Y120.295 E23.5604
G1 X104.326 Y119.84 E23.65019
G1 X103.724 Y119.258 E23.75067
G1 X103.109 Y118.589 E23.85972
G1 X102.633 Y118.012 E23.94948
G1 X102.165 Y117.291 E24.05263
G1 X101.716 Y116.495 E24.1623
G1 X101.384 Y115.825 E24.25203
G1 X101.098 Y115.033 E24.35307
G1 X100.841 Y114.16 E24.46228
G1 X100.668 Y113.432 E24.55207
G1 X100.567 Y112.582 E24.65479
G1 X100.515 Y111.672 E24.76417
G1 X100.513 Y110.924 E24.85393
G1 X100.606 Y110.082 E24.95558
G1 X100.761 Y109.184 E25.06493
G1 X100.927 Y108.455 E25.15465
G1 X101.211 Y107.65 E25.25709
G1 X101.566 Y106.81 E25.36652
G1 X101.894 Y106.138 E25.45625
G1 X102.344 Y105.43 E25.55692
G1 X102.879 Y104.691 E25.6664
G1 X103.349 Y104.109 E25.75617
G0 F3600 X103.661 Y104.362
G1 F1800 X104.23 Y103.805 E25.85172
G1 X104.921 Y103.207 E25.96138
G1 X105.496 Y102.763 E26.04856
G1 X106.159 Y102.361 E26.1416
G1 X106.964 Y101.936 E26.25084
G1 X107.624 Y101.633 E26.33798
G1 X108.37 Y101.389 E26.43217
G1 X109.254 Y101.157 E26.54184
G1 X109.965 Y101.012 E26.62892
G1 X110.74 Y100.944 E26.72228
G1 X111.649 Y100.918 E26.8314
G1 X112.375 Y100.937 E26.91855
G1 X113.149 Y101.047 E27.01236
G1 X114.042 Y101.228 E27.1217
G1 X114.745 Y101.411 E27.20888
G1 X115.472 Y101.692 E27.30241
G1 X116.302 Y102.071 E27.4119
G1 X116.946 Y102.409 E27.49917
G1 X117.592 Y102.849 E27.59297
G1 X118.314 Y103.406 E27.70239
G1 X118.864 Y103.881 E27.7896
G1 X119.387 Y104.448 E27.88217
G1 X119.965 Y105.153 E27.99156
G1 X120.394 Y105.739 E28.07871
G1 X120.781 Y106.42 E28.17271
G1 X121.184 Y107.238 E28.28213
G1 X121.469 Y107.906 E28.36928
G1 X121.694 Y108.665 E28.46428
G1 X121.9 Y109.554 E28.57379
G1 X122.024 Y110.27 E28.66099
G1 X122.07 Y111.044 E28.75403
G1 X122.07 Y111.954 E28.86323
G1 X122.03 Y112.679 E28.95036
G1 X121.901 Y113.437 E29.04263
G1 X121.696 Y114.326 E29.15211
G1 X121.494 Y115.024 E29.23931
G1 X121.185 Y115.76 E29.3351
G1 X120.782 Y116.578 E29.44452
G1 X120.426 Y117.211 E29.53167
G1 X119.968 Y117.843 E29.62533
G1 X119.389 Y118.55 E29.73499
G1 X118.899 Y119.086 E29.82214
G1 X118.314 Y119.594 E29.91511
G1 X117.592 Y120.151 E30.02454
G1 X116.994 Y120.562 E30.11161
G1 X116.302 Y120.929 E30.20561
G1 X115.472 Y121.308 E30.3151
G1 X114.796 Y121.573 E30.40223
G1 X114.042 Y121.772 E30.49581
G1 X113.149 Y121.953 E30.60515
G1 X112.43 Y122.058 E30.69234
G1 X112.026 Y122.082 E30.74091
G1 X111.571 Y122.095 E30.79553
G1 X110.845 Y122.076 E30.88268
G1 X110.436 Y122.03 E30.93207
G1 X109.532 Y121.899 E31.04168
G1 X108.82 Y121.755 E31.12885
G1 X108.088 Y121.519 E31.22115
G1 X107.239 Y121.189 E31.33045
G1 X106.577 Y120.889 E31.41767
G1 X105.899 Y120.481 E31.51262
G1 X105.146 Y119.965 E31.62216
G1 X104.571 Y119.522 E31.70927
G1 X104.018 Y118.988 E31.80152
G1 X103.403 Y118.319 E31.91056
G1 X102.942 Y117.758 E31.9977
G1 X102.513 Y117.095 E32.09246
G1 X102.064 Y116.299 E32.20213
G1 X101.743 Y115.647 E32.28934
G1 X101.482 Y114.92 E32.38203
G1 X101.225 Y114.047 E32.49123
G1 X101.058 Y113.34 E32.57841
G1 X100.967 Y112.56 E32.67264
G1 X100.915 Y111.65 E32.78202
G1 X100.913 Y110.923 E32.86926
G1 X101 Y110.15 E32.96261
G1 X101.155 Y109.252 E33.07196
G1 X101.318 Y108.545 E33.15903
G1 X101.58 Y107.806 E33.25311
G1 X101.935 Y106.966 E33.36255
G1 X102.254 Y106.313 E33.44976
G1 X102.668 Y105.665 E33.54203
G1 X103.203 Y104.926 E33.65151
G1 X103.661 Y104.362 E33.7387
G0 F3600 X103.971 Y104.614
G1 F1800 X104.492 Y104.108 E33.82585
G1 X105.183 Y103.51 E33.93551
G1 X105.74 Y103.08 E34.01995
G1 X106.345 Y102.715 E34.10474
G1 X107.15 Y102.29 E34.21397
G1 X107.791 Y101.997 E34.29855
G1 X108.471 Y101.776 E34.38435
G1 X109.355 Y101.544 E34.49402
G1 X110.045 Y101.404 E34.57851
G1 X110.752 Y101.344 E34.66366
G1 X111.661 Y101.318 E34.77278
G1 X112.364 Y101.337 E34.85717
G1 X113.07 Y101.439 E34.94277
G1 X113.963 Y101.62 E35.05211
G1 X114.644 Y101.798 E35.13658
G1 X115.306 Y102.056 E35.22183
G1 X116.136 Y102.435 E35.33133
G1 X116.759 Y102.763 E35.41582
G1 X117.348 Y103.166 E35.50146
G1 X118.07 Y103.723 E35.61088
G1 X118.602 Y104.184 E35.69536
G1 X119.078 Y104.701 E35.77969
G1 X119.656 Y105.406 E35.88909
G1 X120.07 Y105.975 E35.97353
G1 X120.423 Y106.597 E36.05935
G1 X120.826 Y107.415 E36.16877
G1 X121.1 Y108.063 E36.2532
G1 X121.304 Y108.755 E36.33977
G1 X121.51 Y109.644 E36.44928
G1 X121.63 Y110.338 E36.5338
G1 X121.67 Y111.044 E36.61865
G1 X121.67 Y111.954 E36.72785
G1 X121.63 Y112.657 E36.81235
G1 X121.511 Y113.347 E36.89637
G1 X121.306 Y114.236 E37.00585
G1 X121.11 Y114.912 E37.09031
G1 X120.827 Y115.583 E37.1777
G1 X120.424 Y116.401 E37.28713
G1 X120.077 Y117.014 E37.37165
G1 X119.659 Y117.589 E37.45696
G1 X119.08 Y118.296 E37.56662
G1 X118.603 Y118.815 E37.65121
G1 X118.07 Y119.277 E37.73585
G1 X117.348 Y119.834 E37.84528
G1 X116.767 Y120.232 E37.92979
G1 X116.136 Y120.565 E38.0154
G1 X115.306 Y120.944 E38.1249
G1 X114.65 Y121.199 E38.20935
G1 X113.963 Y121.38 E38.29461
G1 X113.07 Y121.561 E38.40395
G1 X112.373 Y121.662 E38.48846
G1 X112.015 Y121.682 E38.53149
G1 X111.56 Y121.695 E38.58611
G1 X110.856 Y121.676 E38.67062
G1 X110.494 Y121.634 E38.71435
G1 X109.59 Y121.503 E38.82397
G1 X108.9 Y121.363 E38.90845
G1 X108.233 Y121.146 E38.99262
G1 X107.384 Y120.816 E39.10193
G1 X106.743 Y120.524 E39.18645
G1 X106.125 Y120.151 E39.27307
G1 X105.372 Y119.635 E39.38261
G1 X104.815 Y119.205 E39.46705
G1 X104.313 Y118.717 E39.55107
G1 X103.698 Y118.048 E39.66011
G1 X103.251 Y117.503 E39.7447
G1 X102.862 Y116.898 E39.83101
G1 X102.413 Y116.102 E39.94068
G1 X102.102 Y115.47 E40.0252
G1 X101.865 Y114.807 E40.10969
G1 X101.608 Y113.934 E40.2189
G1 X101.448 Y113.248 E40.30343
G1 X101.366 Y112.537 E40.38931
G1 X101.314 Y111.627 E40.49869
G1 X101.314 Y110.923 E40.58317
G1 X101.394 Y110.218 E40.66831
G1 X101.549 Y109.32 E40.77767
G1 X101.708 Y108.635 E40.86205
G1 X101.948 Y107.961 E40.94791
G1 X102.303 Y107.121 E41.05734
G1 X102.613 Y106.49 E41.1417
G1 X102.992 Y105.899 E41.22595
G1 X103.527 Y105.16 E41.33543
G1 X103.971 Y104.614 E41.41988
G0 F3600 X104.282 Y104.868
G1 F1800 X104.754 Y104.41 E41.4988
G1 X105.445 Y103.812 E41.60846
G1 X105.985 Y103.398 E41.69012
G1 X106.532 Y103.069 E41.76672
G1 X107.337 Y102.644 E41.87595
G1 X107.957 Y102.362 E41.95769
G1 X108.573 Y102.163 E42.03537
G1 X109.457 Y101.931 E42.14504
G1 X110.124 Y101.797 E42.22668
G1 X110.763 Y101.743 E42.30363
G1 X111.672 Y101.717 E42.41276
G1 X112.353 Y101.738 E42.49452
G1 X112.99 Y101.831 E42.57177
G1 X113.883 Y102.012 E42.68111
G1 X114.541 Y102.186 E42.76278
G1 X115.14 Y102.42 E42.83995
G1 X115.97 Y102.799 E42.94944
G1 X116.572 Y103.118 E43.0312
G1 X117.104 Y103.483 E43.10862
G1 X117.826 Y104.04 E43.21804
G1 X118.34 Y104.487 E43.29979
G1 X118.768 Y104.955 E43.37589
G1 X119.346 Y105.66 E43.48529
G1 X119.746 Y106.211 E43.56699
G1 X120.064 Y106.774 E43.64459
G1 X120.467 Y107.592 E43.75401
G1 X120.731 Y108.219 E43.83565
G1 X120.914 Y108.846 E43.91403
G1 X121.12 Y109.735 E44.02354
G1 X121.235 Y110.406 E44.10523
G1 X121.27 Y111.044 E44.1819
G1 X121.27 Y111.954 E44.2911
G1 X121.23 Y112.634 E44.37285
G1 X121.122 Y113.257 E44.44872
G1 X120.917 Y114.146 E44.5582
G1 X120.725 Y114.8 E44.63999
G1 X120.468 Y115.406 E44.71898
G1 X120.065 Y116.224 E44.82841
G1 X119.729 Y116.816 E44.91009
G1 X119.349 Y117.336 E44.98738
G1 X118.77 Y118.043 E45.09704
G1 X118.309 Y118.543 E45.17865
G1 X117.826 Y118.96 E45.25522
G1 X117.104 Y119.517 E45.36465
G1 X116.541 Y119.901 E45.44643
G1 X115.97 Y120.201 E45.52383
G1 X115.14 Y120.58 E45.63332
G1 X114.505 Y120.826 E45.71504
G1 X113.883 Y120.988 E45.79217
G1 X112.99 Y121.169 E45.90151
G1 X112.004 Y121.283 E46.02062
G1 X111.549 Y121.296 E46.07524
G1 X110.551 Y121.238 E46.1952
G1 X109.647 Y121.107 E46.30481
G1 X108.98 Y120.97 E46.38652
G1 X108.378 Y120.773 E46.46253
G1 X107.529 Y120.443 E46.57184
G1 X106.91 Y120.159 E46.65356
G1 X106.351 Y119.821 E46.73195
G1 X105.598 Y119.305 E46.84149
G1 X105.06 Y118.888 E46.92318
G1 X104.607 Y118.446 E46.99912
G1 X103.992 Y117.777 E47.10817
G1 X103.561 Y117.25 E47.18987
G1 X103.21 Y116.702 E47.26796
G1 X102.761 Y115.906 E47.37763
G1 X102.462 Y115.294 E47.45936
G1 X102.249 Y114.694 E47.53577
G1 X101.992 Y113.821 E47.64497
G1 X101.838 Y113.158 E47.72665
G1 X101.765 Y112.514 E47.80443
G1 X101.713 Y111.604 E47.9138
G1 X101.715 Y110.923 E47.99552
G1 X101.789 Y110.286 E48.07248
G1 X101.944 Y109.388 E48.18183
G1 X102.099 Y108.725 E48.26354
G1 X102.317 Y108.117 E48.34104
