;FLAVOR:UltiGCode
;TIME:298
;MATERIAL:490
;MATERIAL2:0
;NOZZLE_DIAMETER:0.4
;Generated with Cura_SteamEngine 2.3.1

;LAYER_COUNT:39
;LAYER:0
M107
G10
G0 F3600 X100.78 Y60.371 Z.3
G0 X100.469 Y60.907
;TYPE:SKIRT
G11
G1 F1800 X100.78 Y60.371 E0.07436
G1 X101.173 Y59.861 E0.15163
G1 X101.673 Y59.296 E0.24216
G1 X102.251 Y58.744 E0.33807
G1 X102.757 Y58.335 E0.41615
G1 X103.455 Y57.865 E0.51713
G1 X104.055 Y57.534 E0.59935
G1 X104.616 Y57.271 E0.67371
G1 X104.941 Y57.156 E0.71507
G1 X105.823 Y56.88 E0.82598
G1 X106.705 Y56.693 E0.93417
G1 X107.328 Y56.621 E1.00943
G1 X108.185 Y56.599 E1.1123
G1 X108.906 Y56.645 E1.199
G1 X109.52 Y56.724 E1.27328
G1 X109.94 Y56.826 E1.32515
G1 X110.972 Y57.126 E1.45411
G1 X111.554 Y57.337 E1.5284
G1 X111.883 Y57.496 E1.57225
G1 X112.367 Y57.753 E1.63801
G1 X113.068 Y58.207 E1.73823
G1 X113.722 Y58.717 E1.83775
G1 X114.395 Y59.355 E1.94904
G1 X114.849 Y59.878 E2.03214
G1 X115.224 Y60.371 E2.10647
G1 X115.464 Y60.775 E2.16286
G1 X115.999 Y61.783 E2.2998
G1 X116.253 Y62.347 E2.37403
G1 X116.413 Y62.86 E2.43852
G1 X116.593 Y63.574 E2.52688
G1 X116.706 Y64.183 E2.6012
G1 X116.733 Y64.501 E2.6395
G1 X116.777 Y65.358 E2.74248
G1 X116.768 Y65.977 E2.81676
G1 X116.691 Y66.539 E2.88483
G1 X116.471 Y67.647 E3.02039
G1 X116.312 Y68.245 E3.09464
G1 X116.171 Y68.612 E3.14182
G1 X115.971 Y69.076 E3.20245
G1 X115.597 Y69.777 E3.2978
G1 X115.143 Y70.481 E3.39832
G1 X114.658 Y71.111 E3.49373
G1 X114.343 Y71.457 E3.54988
G1 X113.733 Y72.021 E3.64957
G1 X113.001 Y72.588 E3.76068
G1 X112.488 Y72.935 E3.835
G1 X111.883 Y73.234 E3.91598
G1 X110.773 Y73.689 E4.05994
G1 X110.186 Y73.887 E4.13428
G1 X109.758 Y73.98 E4.18684
G1 X109.165 Y74.081 E4.25902
G1 X108.549 Y74.145 E4.33334
G1 X108.087 Y74.141 E4.38878
G1 X106.941 Y74.076 E4.52652
G1 X106.326 Y74.001 E4.60087
G1 X105.854 Y73.887 E4.65914
G1 X105.17 Y73.685 E4.74472
G1 X104.588 Y73.472 E4.81909
G1 X104.298 Y73.332 E4.85774
G1 X103.553 Y72.941 E4.9587
G1 X103.025 Y72.619 E5.03291
G1 X102.733 Y72.396 E5.077
G1 X102.155 Y71.92 E5.16686
G1 X101.703 Y71.497 E5.24114
G1 X101.482 Y71.243 E5.28155
G1 X100.921 Y70.553 E5.38826
G1 X100.562 Y70.048 E5.46261
G1 X100.178 Y69.281 E5.56554
G1 X99.608 Y67.831 E5.7525
G1 X99.419 Y67.241 E5.82685
G1 X99.29 Y66.451 E5.9229
G1 X99.232 Y65.713 E6.01174
G1 X99.223 Y65.094 E6.08602
G1 X99.272 Y64.611 E6.14428
G1 X99.445 Y63.48 E6.28158
G1 X99.578 Y62.875 E6.35591
G1 X99.891 Y62.071 E6.45945
G1 X100.469 Y60.907 E6.6154
G0 F3600 X100.827 Y61.085
G1 F1800 X101.126 Y60.573 E6.68655
G1 X101.473 Y60.126 E6.75445
G1 X101.973 Y59.561 E6.84499
G1 X102.502 Y59.055 E6.93284
G1 X103.008 Y58.646 E7.01091
G1 X103.649 Y58.215 E7.1036
G1 X104.249 Y57.884 E7.18583
G1 X105.06 Y57.538 E7.29164
G1 X105.942 Y57.262 E7.40254
G1 X106.751 Y57.09 E7.50179
G1 X107.374 Y57.018 E7.57705
G1 X108.159 Y56.998 E7.67128
G1 X108.88 Y57.044 E7.75797
G1 X109.468 Y57.121 E7.82914
G1 X109.828 Y57.21 E7.87364
G1 X110.86 Y57.51 E8.0026
G1 X111.417 Y57.713 E8.07374
G1 X111.696 Y57.849 E8.11099
G1 X112.18 Y58.106 E8.17675
G1 X112.822 Y58.522 E8.26855
G1 X113.476 Y59.032 E8.36807
G1 X114.093 Y59.618 E8.47018
G1 X114.547 Y60.141 E8.55329
G1 X114.904 Y60.614 E8.6244
G1 X115.111 Y60.962 E8.67299
G1 X115.646 Y61.97 E8.80993
G1 X115.888 Y62.512 E8.88116
G1 X116.026 Y62.957 E8.93707
G1 X116.206 Y63.671 E9.02543
G1 X116.333 Y64.521 E9.12856
G1 X116.377 Y65.378 E9.23154
G1 X116.368 Y65.971 E9.30271
G1 X116.299 Y66.461 E9.36209
G1 X116.079 Y67.569 E9.49764
G1 X115.924 Y68.141 E9.56876
G1 X115.804 Y68.454 E9.60898
G1 X115.604 Y68.918 E9.66962
G1 X115.261 Y69.561 E9.75707
G1 X114.807 Y70.265 E9.85759
G1 X114.363 Y70.842 E9.94496
G1 X114.048 Y71.188 E10.00111
G1 X113.488 Y71.705 E10.09257
G1 X112.756 Y72.272 E10.20368
G1 X112.264 Y72.602 E10.27477
G1 X111.731 Y72.864 E10.34604
G1 X110.621 Y73.319 E10.48999
G1 X110.058 Y73.507 E10.56122
G1 X109.691 Y73.586 E10.60627
G1 X109.098 Y73.687 E10.67845
G1 X108.508 Y73.746 E10.74961
G1 X108.11 Y73.742 E10.79737
G1 X106.964 Y73.677 E10.93511
G1 X106.375 Y73.604 E11.00633
G1 X105.967 Y73.504 E11.05674
G1 X105.283 Y73.302 E11.14232
G1 X104.484 Y72.978 E11.24579
G1 X103.739 Y72.587 E11.34675
G1 X103.234 Y72.277 E11.41786
G1 X102.987 Y72.087 E11.45525
G1 X102.409 Y71.611 E11.54511
G1 X101.792 Y70.991 E11.65007
G1 X101.231 Y70.301 E11.75678
G1 X100.889 Y69.816 E11.828
G1 X100.55 Y69.135 E11.91928
G1 X99.98 Y67.685 E12.10624
G1 X99.801 Y67.12 E12.17737
G1 X99.689 Y66.42 E12.26243
G1 X99.631 Y65.682 E12.35127
G1 X99.624 Y65.089 E12.42243
G1 X99.668 Y64.672 E12.47275
G1 X99.841 Y63.541 E12.61005
G1 X99.97 Y62.962 E12.68123
G1 X100.249 Y62.249 E12.77311
G1 X100.827 Y61.085 E12.92906
G0 F3600 X101.185 Y61.263
G1 F1800 X101.472 Y60.776 E12.9969
G1 X101.773 Y60.391 E13.05554
G1 X102.273 Y59.826 E13.14608
G1 X102.754 Y59.366 E13.22594
G1 X103.26 Y58.957 E13.30402
G1 X103.842 Y58.566 E13.38815
G1 X104.442 Y58.235 E13.47038
G1 X105.179 Y57.92 E13.56656
G1 X106.061 Y57.644 E13.67746
G1 X106.797 Y57.487 E13.76777
G1 X107.42 Y57.415 E13.84303
G1 X108.134 Y57.397 E13.92874
G1 X108.855 Y57.443 E14.01543
G1 X109.415 Y57.519 E14.08325
G1 X109.717 Y57.594 E14.12059
G1 X110.749 Y57.894 E14.24956
G1 X111.508 Y58.202 E14.34785
G1 X111.992 Y58.459 E14.41361
G1 X112.576 Y58.838 E14.49715
G1 X113.23 Y59.348 E14.59668
G1 X113.791 Y59.88 E14.68945
G1 X114.245 Y60.403 E14.77256
G1 X114.584 Y60.855 E14.84036
G1 X114.757 Y61.15 E14.8814
G1 X115.292 Y62.158 E15.01834
G1 X115.521 Y62.675 E15.08619
G1 X115.638 Y63.055 E15.13391
G1 X115.818 Y63.769 E15.22227
G1 X115.934 Y64.542 E15.31607
G1 X115.978 Y65.399 E15.41904
G1 X115.967 Y65.964 E15.48685
G1 X115.906 Y66.383 E15.53766
G1 X115.686 Y67.491 E15.67322
G1 X115.436 Y68.295 E15.77426
G1 X115.236 Y68.759 E15.83489
G1 X114.925 Y69.344 E15.91439
G1 X114.471 Y70.048 E16.01491
G1 X114.067 Y70.573 E16.09441
G1 X113.752 Y70.919 E16.15056
G1 X113.243 Y71.388 E16.23361
G1 X112.511 Y71.955 E16.34472
G1 X112.041 Y72.269 E16.41255
G1 X111.579 Y72.494 E16.47422
G1 X110.469 Y72.949 E16.61817
G1 X109.932 Y73.126 E16.68602
G1 X109.624 Y73.191 E16.7238
G1 X109.031 Y73.292 E16.79598
G1 X108.468 Y73.348 E16.86388
G1 X108.132 Y73.343 E16.9042
G1 X106.986 Y73.278 E17.04194
G1 X106.426 Y73.206 E17.10969
G1 X106.08 Y73.12 E17.15248
G1 X105.396 Y72.918 E17.23806
G1 X104.67 Y72.624 E17.33205
G1 X103.925 Y72.233 E17.43302
G1 X103.241 Y71.779 E17.53153
G1 X102.663 Y71.303 E17.62139
G1 X102.102 Y70.738 E17.71693
G1 X101.541 Y70.048 E17.82365
G1 X101.217 Y69.586 E17.89136
G1 X100.922 Y68.988 E17.97138
G1 X100.352 Y67.538 E18.15834
G1 X100.183 Y66.999 E18.22612
G1 X100.087 Y66.388 E18.30034
G1 X100.029 Y65.65 E18.38918
G1 X100.025 Y65.085 E18.45698
G1 X100.063 Y64.732 E18.49958
G1 X100.236 Y63.601 E18.63688
G1 X100.361 Y63.05 E18.70468
G1 X100.607 Y62.427 E18.78506
G1 X101.185 Y61.263 E18.94101
G0 F3600 X101.544 Y61.441
G1 F1800 X101.817 Y60.98 E19.0053
G1 X102.072 Y60.656 E19.05478
G1 X102.572 Y60.091 E19.14532
G1 X103.005 Y59.677 E19.2172
G1 X103.511 Y59.268 E19.29528
G1 X104.035 Y58.916 E19.37103
G1 X104.635 Y58.585 E19.45326
G1 X105.299 Y58.301 E19.53992
G1 X106.181 Y58.025 E19.65082
G1 X106.843 Y57.885 E19.73202
G1 X107.466 Y57.813 E19.80728
G1 X108.108 Y57.796 E19.88435
G1 X108.829 Y57.842 E19.97104
G1 X109.605 Y57.978 E20.06558
G1 X110.637 Y58.278 E20.19455
G1 X111.32 Y58.555 E20.28299
G1 X111.804 Y58.812 E20.34875
G1 X112.33 Y59.153 E20.42397
G1 X112.984 Y59.663 E20.5235
G1 X113.489 Y60.142 E20.60702
G1 X113.943 Y60.665 E20.69013
G1 X114.263 Y61.095 E20.75445
G1 X114.404 Y61.337 E20.78806
G1 X114.939 Y62.345 E20.925
G1 X115.154 Y62.836 E20.98932
G1 X115.25 Y63.153 E21.02907
G1 X115.43 Y63.867 E21.11743
G1 X115.534 Y64.562 E21.20176
G1 X115.578 Y65.419 E21.30473
G1 X115.566 Y65.956 E21.36919
G1 X115.514 Y66.305 E21.41153
G1 X115.294 Y67.413 E21.54709
G1 X115.069 Y68.137 E21.63806
G1 X114.869 Y68.601 E21.6987
G1 X114.588 Y69.127 E21.77026
G1 X114.134 Y69.831 E21.87078
G1 X113.771 Y70.304 E21.94233
G1 X113.456 Y70.65 E21.99848
G1 X112.999 Y71.072 E22.07312
G1 X112.267 Y71.639 E22.18423
G1 X111.819 Y71.935 E22.24867
G1 X111.427 Y72.124 E22.30089
G1 X110.317 Y72.579 E22.44485
G1 X109.556 Y72.797 E22.53984
G1 X108.963 Y72.898 E22.61202
G1 X108.43 Y72.948 E22.67627
G1 X108.155 Y72.943 E22.70927
G1 X107.009 Y72.878 E22.84701
G1 X106.477 Y72.808 E22.9114
G1 X106.193 Y72.737 E22.94653
G1 X105.509 Y72.535 E23.03212
G1 X104.856 Y72.27 E23.11668
G1 X104.111 Y71.879 E23.21765
G1 X103.495 Y71.47 E23.30638
G1 X102.917 Y70.994 E23.39623
G1 X102.413 Y70.486 E23.4821
G1 X101.852 Y69.796 E23.58882
G1 X101.545 Y69.356 E23.6532
G1 X101.295 Y68.842 E23.72179
G1 X100.725 Y67.392 E23.90875
G1 X100.566 Y66.88 E23.97308
G1 X100.486 Y66.357 E24.03657
G1 X100.428 Y65.619 E24.1254
G1 X100.426 Y65.083 E24.18973
G1 X100.458 Y64.793 E24.22474
G1 X100.631 Y63.662 E24.36203
G1 X100.752 Y63.139 E24.42645
G1 X100.966 Y62.605 E24.49549
G1 X101.544 Y61.441 E24.65144
G0 F3600 X101.902 Y61.619
G1 F1800 X102.162 Y61.185 E24.71215
G1 X102.372 Y60.921 E24.75263
G1 X102.872 Y60.356 E24.84317
G1 X103.256 Y59.988 E24.90699
G1 X103.762 Y59.579 E24.98507
G1 X104.228 Y59.266 E25.05243
G1 X104.828 Y58.935 E25.13466
G1 X105.418 Y58.683 E25.21165
G1 X106.3 Y58.407 E25.32255
G1 X106.889 Y58.282 E25.3948
G1 X107.512 Y58.21 E25.47006
G1 X108.083 Y58.195 E25.5386
G1 X108.804 Y58.241 E25.6253
G1 X109.493 Y58.362 E25.70924
G1 X110.525 Y58.662 E25.83821
G1 X111.133 Y58.909 E25.91696
G1 X111.617 Y59.166 E25.98272
G1 X112.084 Y59.469 E26.04952
G1 X112.738 Y59.979 E26.14905
G1 X113.187 Y60.404 E26.22323
G1 X113.641 Y60.927 E26.30634
G1 X114.051 Y61.525 E26.39335
G1 X114.586 Y62.533 E26.53029
G1 X114.787 Y62.997 E26.59097
G1 X114.862 Y63.251 E26.62275
G1 X115.042 Y63.965 E26.71111
G1 X115.135 Y64.583 E26.78611
G1 X115.179 Y65.44 E26.88908
G1 X115.165 Y65.945 E26.94971
G1 X115.122 Y66.227 E26.98394
G1 X114.902 Y67.335 E27.11949
G1 X114.702 Y67.979 E27.20041
G1 X114.502 Y68.443 E27.26105
G1 X114.252 Y68.91 E27.32461
G1 X113.798 Y69.614 E27.42513
G1 X113.475 Y70.034 E27.48871
G1 X113.16 Y70.38 E27.54486
G1 X112.754 Y70.756 E27.61127
G1 X112.022 Y71.323 E27.72238
G1 X111.599 Y71.6 E27.78305
G1 X111.276 Y71.754 E27.82599
G1 X110.166 Y72.209 E27.96995
G1 X109.489 Y72.403 E28.05446
G1 X108.896 Y72.504 E28.12664
G1 X108.178 Y72.544 E28.21294
G1 X107.032 Y72.479 E28.35068
G1 X106.307 Y72.353 E28.43898
G1 X105.623 Y72.151 E28.52457
G1 X105.042 Y71.915 E28.59982
G1 X104.297 Y71.524 E28.70078
G1 X103.75 Y71.161 E28.77956
G1 X103.172 Y70.685 E28.86941
G1 X102.723 Y70.234 E28.94578
G1 X102.162 Y69.544 E29.0525
G1 X101.875 Y69.127 E29.11324
G1 X101.667 Y68.696 E29.17067
G1 X101.097 Y67.246 E29.35763
G1 X100.95 Y66.762 E29.41833
G1 X100.885 Y66.326 E29.47123
G1 X100.827 Y65.588 E29.56006
G1 X100.854 Y64.853 E29.64832
G1 X101.027 Y63.722 E29.78562
G1 X101.142 Y63.23 E29.84625
G1 X101.324 Y62.783 E29.90417
G1 X101.902 Y61.619 E30.06012
G10
G0 F3600 X104.006 Y62.982
G0 X105.103 Y63.685
G0 X105.13 Y63.753
G0 X105.044 Y63.704
;TYPE:WALL-INNER
G11
G1 F1800 X105.253 Y63.38 E30.10639
G1 X105.501 Y63.076 E30.15347
G1 X105.781 Y62.804 E30.20031
G1 X106.081 Y62.573 E30.24575
G1 X106.416 Y62.371 E30.29269
G1 X106.772 Y62.207 E30.33972
G1 X107.144 Y62.088 E30.38659
G1 X107.515 Y62.012 E30.43204
G1 X107.906 Y61.979 E30.47912
G1 X108.296 Y61.99 E30.52594
G1 X108.68 Y62.046 E30.57251
G1 X109.057 Y62.144 E30.61925
G1 X109.406 Y62.28 E30.6642
G1 X109.763 Y62.469 E30.71267
G1 X110.082 Y62.686 E30.75897
G1 X110.375 Y62.939 E30.80542
G1 X110.629 Y63.218 E30.8507
G1 X110.868 Y63.544 E30.89921
G1 X111.049 Y63.867 E30.94364
G1 X111.203 Y64.234 E30.9914
G1 X111.316 Y64.614 E31.03897
G1 X111.379 Y64.986 E31.08425
G1 X111.402 Y65.376 E31.13113
G1 X111.379 Y65.766 E31.17801
G1 X111.316 Y66.138 E31.22329
G1 X111.203 Y66.518 E31.27086
G1 X111.05 Y66.88 E31.31802
G1 X110.866 Y67.21 E31.36336
G1 X110.629 Y67.534 E31.41153
G1 X110.374 Y67.812 E31.4568
G1 X110.077 Y68.07 E31.50401
G1 X109.762 Y68.285 E31.54977
G1 X109.42 Y68.465 E31.59615
G1 X109.048 Y68.61 E31.64406
G1 X108.683 Y68.706 E31.68935
G1 X108.296 Y68.762 E31.73628
G1 X107.906 Y68.773 E31.7831
G1 X107.515 Y68.74 E31.83018
G1 X107.138 Y68.663 E31.87636
G1 X106.774 Y68.545 E31.92227
G1 X106.418 Y68.383 E31.96921
G1 X106.081 Y68.179 E32.01648
G1 X105.778 Y67.945 E32.06242
G1 X105.501 Y67.676 E32.10876
G1 X105.253 Y67.372 E32.15584
G1 X105.044 Y67.048 E32.2021
G1 X104.872 Y66.699 E32.24879
G1 X104.746 Y66.344 E32.294
G1 X104.654 Y65.947 E32.3429
G1 X104.61 Y65.57 E32.38845
G1 X104.61 Y65.182 E32.43501
G1 X104.654 Y64.805 E32.48055
G1 X104.747 Y64.405 E32.52983
G1 X104.872 Y64.052 E32.57477
G1 X105.044 Y63.704 E32.62135
G0 F3600 X105.13 Y63.753
G0 X105.884 Y64.356
G0 X105.974 Y64.399
G1 F1800 X105.832 Y64.777 E32.66981
G1 X105.76 Y65.174 E32.71823
G1 X105.76 Y65.578 E32.76671
G1 X105.832 Y65.975 E32.81512
G1 X105.974 Y66.353 E32.86358
G1 X106.181 Y66.7 E32.91206
G1 X106.447 Y67.005 E32.96063
G1 X106.764 Y67.256 E33.00915
G1 X107.118 Y67.447 E33.05742
G1 X107.502 Y67.573 E33.10591
G1 X107.903 Y67.626 E33.15445
G1 X108.306 Y67.608 E33.20286
G1 X108.699 Y67.518 E33.25124
G1 X109.07 Y67.36 E33.29963
G1 X109.407 Y67.137 E33.34812
G1 X109.699 Y66.858 E33.39659
G1 X109.937 Y66.531 E33.44512
G1 X110.112 Y66.169 E33.49337
G1 X110.22 Y65.779 E33.54193
G1 X110.255 Y65.39 E33.5888
G1 X110.223 Y64.988 E33.63719
G1 X110.117 Y64.6 E33.68546
G1 X109.945 Y64.235 E33.73388
G1 X109.691 Y63.883 E33.78597
G1 X109.395 Y63.606 E33.83461
G1 X109.056 Y63.386 E33.88311
G1 X108.684 Y63.231 E33.93147
G1 X108.292 Y63.144 E33.97965
G1 X107.89 Y63.127 E34.02794
G1 X107.487 Y63.183 E34.07676
G1 X107.103 Y63.312 E34.12537
G1 X106.753 Y63.505 E34.17333
G1 X106.447 Y63.747 E34.22015
G1 X106.181 Y64.052 E34.26871
G1 X105.974 Y64.399 E34.3172
G0 F3600 X106.336 Y64.573
;TYPE:WALL-OUTER
G1 F1800 X106.219 Y64.884 E34.35707
G1 X106.16 Y65.21 E34.39683
G1 X106.16 Y65.542 E34.43667
G1 X106.219 Y65.868 E34.47642
G1 X106.336 Y66.179 E34.5163
G1 X106.506 Y66.464 E34.55612
G1 X106.724 Y66.714 E34.59592
G1 X106.985 Y66.921 E34.6359
G1 X107.276 Y67.078 E34.67558
G1 X107.591 Y67.181 E34.71535
G1 X107.921 Y67.225 E34.7553
G1 X108.252 Y67.21 E34.79506
G1 X108.575 Y67.136 E34.83482
G1 X108.88 Y67.006 E34.87461
G1 X109.157 Y66.823 E34.91445
G1 X109.397 Y66.594 E34.95425
G1 X109.592 Y66.325 E34.99412
G1 X109.736 Y66.027 E35.03384
G1 X109.825 Y65.707 E35.0737
G1 X109.854 Y65.388 E35.11213
G1 X109.827 Y65.058 E35.15187
G1 X109.74 Y64.739 E35.19154
G1 X109.599 Y64.439 E35.23132
G1 X109.389 Y64.149 E35.27429
G1 X109.147 Y63.922 E35.31411
G1 X108.869 Y63.741 E35.35391
G1 X108.563 Y63.614 E35.39367
G1 X108.24 Y63.542 E35.43338
G1 X107.909 Y63.528 E35.47314
G1 X107.579 Y63.574 E35.51312
G1 X107.264 Y63.68 E35.553
G1 X106.975 Y63.839 E35.59258
G1 X106.724 Y64.038 E35.63102
G1 X106.506 Y64.288 E35.67083
G1 X106.336 Y64.573 E35.71065
G0 F3600 X105.908 Y64.317
G0 X105.13 Y63.753
G0 X104.694 Y63.509
G1 F1800 X104.93 Y63.143 E35.76291
G1 X105.206 Y62.804 E35.81536
G1 X105.514 Y62.505 E35.86688
G1 X105.859 Y62.239 E35.91915
G1 X106.227 Y62.017 E35.97073
G1 X106.626 Y61.834 E36.0234
G1 X107.038 Y61.701 E36.07535
G1 X107.463 Y61.615 E36.12739
G1 X107.892 Y61.578 E36.17906
G1 X108.33 Y61.591 E36.23164
G1 X108.761 Y61.653 E36.28389
G1 X109.18 Y61.763 E36.33588
G1 X109.574 Y61.916 E36.3866
G1 X109.969 Y62.125 E36.44022
G1 X110.324 Y62.367 E36.49178
G1 X110.654 Y62.652 E36.5441
G1 X110.94 Y62.965 E36.59498
G1 X111.204 Y63.326 E36.64865
G1 X111.412 Y63.698 E36.6998
G1 X111.58 Y64.096 E36.75164
G1 X111.705 Y64.519 E36.80457
