;FLAVOR:UltiGCode
;TIME:4425
;MATERIAL:2889
;MATERIAL2:0
;NOZZLE_DIAMETER:0.4
;Generated with Cura_SteamEngine 2.3.1

;LAYER_COUNT:224
;LAYER:0
M107
G10
G0 F3600 X95.516 Y96.507 Z.3
;TYPE:SKIRT
G11
G1 F1800 X95.966 Y96.165 E0.06783
G1 X96.459 Y95.889 E0.13563
G1 X96.987 Y95.685 E0.20355
G1 X97.537 Y95.558 E0.27129
G1 X98.16 Y95.509 E0.34628
G1 X119.847 Y95.51 E2.94872
G1 X120.631 Y95.588 E3.04326
G1 X125.623 Y96.586 E3.65416
G1 X126.168 Y96.735 E3.72196
G1 X126.687 Y96.96 E3.78984
G1 X127.169 Y97.256 E3.85771
G1 X127.604 Y97.617 E3.92555
G1 X127.984 Y98.036 E3.99342
G1 X128.301 Y98.504 E4.06126
G1 X128.549 Y99.012 E4.12909
G1 X128.723 Y99.55 E4.19694
G1 X128.819 Y100.107 E4.26477
G1 X128.839 Y100.509 E4.31307
G1 X128.835 Y122.495 E6.95139
G1 X128.795 Y123.059 E7.01924
G1 X128.676 Y123.611 E7.087
G1 X128.48 Y124.142 E7.15492
G1 X128.211 Y124.639 E7.22274
G1 X127.875 Y125.094 E7.29061
G1 X127.478 Y125.496 E7.35841
G1 X127.029 Y125.839 E7.42621
G1 X126.535 Y126.115 E7.49412
G1 X126.008 Y126.318 E7.56189
G1 X125.619 Y126.416 E7.61003
G1 X120.636 Y127.412 E8.21981
G1 X119.852 Y127.49 E8.31436
G1 X98.16 Y127.49 E10.9174
G1 X97.596 Y127.45 E10.98525
G1 X97.043 Y127.331 E11.05313
G1 X96.513 Y127.135 E11.12094
G1 X96.016 Y126.867 E11.1887
G1 X95.561 Y126.531 E11.25657
G1 X95.158 Y126.134 E11.32445
G1 X94.816 Y125.684 E11.39228
G1 X94.54 Y125.191 E11.46008
G1 X94.336 Y124.663 E11.528
G1 X94.209 Y124.113 E11.59574
G1 X94.16 Y123.49 E11.67073
G1 X94.16 Y99.509 E14.54845
G1 X94.2 Y98.945 E14.6163
G1 X94.319 Y98.392 E14.68418
G1 X94.515 Y97.862 E14.75199
G1 X94.783 Y97.365 E14.81975
G1 X95.119 Y96.91 E14.88762
G1 X95.516 Y96.507 E14.95551
G0 F3600 X95.907 Y96.701
G1 F1800 X96.349 Y96.398 E15.01981
G1 X96.832 Y96.163 E15.08427
G1 X97.343 Y96.003 E15.14853
G1 X97.873 Y95.92 E15.2129
G1 X98.16 Y95.909 E15.24737
G1 X119.847 Y95.91 E17.84981
G1 X120.553 Y95.98 E17.93494
G1 X125.545 Y96.978 E18.54584
G1 X126.061 Y97.122 E18.61012
G1 X126.551 Y97.341 E18.67453
G1 X127.002 Y97.63 E18.7388
G1 X127.406 Y97.984 E18.80326
G1 X127.752 Y98.393 E18.86755
G1 X128.034 Y98.849 E18.93189
G1 X128.245 Y99.342 E18.99624
G1 X128.38 Y99.861 E19.06059
G1 X128.439 Y100.509 E19.13867
G1 X128.435 Y122.495 E21.77699
G1 X128.395 Y123.029 E21.84125
G1 X128.276 Y123.552 E21.90562
G1 X128.081 Y124.052 E21.97002
G1 X127.813 Y124.517 E22.03442
G1 X127.48 Y124.937 E22.09874
G1 X127.087 Y125.302 E22.1631
G1 X126.645 Y125.606 E22.22748
G1 X126.163 Y125.84 E22.29177
G1 X125.541 Y126.024 E22.36961
G1 X120.558 Y127.02 E22.9794
G1 X119.852 Y127.09 E23.06453
G1 X98.16 Y127.09 E25.66757
G1 X97.625 Y127.05 E25.73195
G1 X97.102 Y126.931 E25.79632
G1 X96.603 Y126.736 E25.86061
G1 X96.138 Y126.468 E25.92501
G1 X95.718 Y126.135 E25.98933
G1 X95.352 Y125.743 E26.05369
G1 X95.049 Y125.301 E26.11799
G1 X94.814 Y124.818 E26.18245
G1 X94.654 Y124.307 E26.2467
G1 X94.571 Y123.777 E26.31108
G1 X94.56 Y123.49 E26.34555
G1 X94.56 Y99.509 E29.22327
G1 X94.6 Y98.974 E29.28764
G1 X94.719 Y98.451 E29.35201
G1 X94.914 Y97.952 E29.4163
G1 X95.182 Y97.487 E29.4807
G1 X95.515 Y97.067 E29.54502
G1 X95.907 Y96.701 E29.60938
G0 F3600 X96.296 Y96.908
G1 F1800 X96.729 Y96.647 E29.67005
G1 X97.197 Y96.457 E29.73066
G1 X97.69 Y96.344 E29.79135
G1 X98.16 Y96.309 E29.84791
G1 X119.847 Y96.31 E32.45035
G1 X120.474 Y96.372 E32.52596
G1 X125.466 Y97.37 E33.13685
G1 X125.953 Y97.508 E33.19759
G1 X126.411 Y97.721 E33.2582
G1 X126.831 Y98.003 E33.31891
G1 X127.2 Y98.348 E33.37953
G1 X127.511 Y98.747 E33.44024
G1 X127.755 Y99.19 E33.50093
G1 X127.926 Y99.666 E33.56162
G1 X128.02 Y100.162 E33.6222
G1 X128.039 Y100.509 E33.6639
G1 X128.035 Y122.495 E36.30222
G1 X127.995 Y122.999 E36.36289
G1 X127.876 Y123.49 E36.42352
G1 X127.681 Y123.956 E36.48414
G1 X127.415 Y124.387 E36.54491
G1 X127.085 Y124.769 E36.60549
G1 X126.699 Y125.095 E36.66612
G1 X126.266 Y125.356 E36.72679
G1 X125.797 Y125.546 E36.78751
G1 X125.462 Y125.632 E36.82902
G1 X120.479 Y126.628 E37.4388
G1 X119.852 Y126.69 E37.51441
G1 X98.16 Y126.69 E40.11745
G1 X97.656 Y126.65 E40.17812
G1 X97.165 Y126.531 E40.23875
G1 X96.698 Y126.337 E40.29943
G1 X96.268 Y126.071 E40.3601
G1 X95.885 Y125.741 E40.42077
G1 X95.559 Y125.354 E40.48149
G1 X95.298 Y124.921 E40.54216
G1 X95.108 Y124.453 E40.60277
G1 X94.995 Y123.96 E40.66347
G1 X94.96 Y123.49 E40.72002
G1 X94.96 Y99.509 E43.59774
G1 X95 Y99.005 E43.65841
G1 X95.119 Y98.514 E43.71904
G1 X95.313 Y98.047 E43.77972
G1 X95.579 Y97.617 E43.8404
G1 X95.909 Y97.234 E43.90106
G1 X96.296 Y96.908 E43.96179
G10
G0 F3600 X98.779 Y98.835
G0 X98.779 Y100.128
G0 X98.821 Y100.17
G0 X98.751 Y100.1
;TYPE:WALL-INNER
G11
G1 F1800 X119.793 Y100.1 E46.48683
G1 X124.249 Y100.992 E47.03215
G1 X124.249 Y102.388 E47.19967
G1 X119.65 Y102.388 E47.75155
G1 X119.65 Y109.812 E48.64243
G1 X124.249 Y109.813 E49.19431
G1 X124.249 Y113.188 E49.59931
G1 X119.65 Y113.188 E50.15119
G1 X119.649 Y120.411 E51.01795
G1 X119.649 Y120.611 E51.04195
G1 X119.849 Y120.611 E51.05749
G1 X124.249 Y120.611 E51.58549
G1 X124.249 Y122.008 E51.75313
G1 X119.793 Y122.9 E52.29846
G1 X98.751 Y122.9 E54.8235
G1 X98.751 Y100.1 E57.5595
G0 F3600 X98.351 Y99.7
;TYPE:WALL-OUTER
G1 F1800 X119.831 Y99.7 E60.1371
G1 X124.649 Y100.664 E60.72672
G1 X124.649 Y102.788 E60.9816
G1 X120.05 Y102.788 E61.53348
G1 X120.05 Y109.412 E62.32836
G1 X124.649 Y109.413 E62.88024
G1 X124.649 Y113.588 E63.38124
G1 X120.05 Y113.588 E63.93312
G1 X120.049 Y120.011 E64.70388
G1 X120.049 Y120.211 E64.72788
G1 X120.249 Y120.211 E64.74342
G1 X124.649 Y120.211 E65.27142
G1 X124.649 Y122.336 E65.52642
G1 X119.831 Y123.3 E66.11604
G1 X98.351 Y123.3 E68.69364
G1 X98.351 Y99.7 E71.52564
G0 F3600 X98.821 Y100.17
G0 X99.148 Y100.279
;TYPE:SKIN
G1 F1800 X119.469 Y120.6 E74.97423
G0 X119.539 Y120.67
G0 F3600 X119.659 Y120.79
G1 F1800 X121.285 Y122.417 E75.25026
G0 X121.355 Y122.487
G0 F3600 X120.814 Y122.511
G1 F1800 X98.93 Y100.627 E78.96409
G0 X98.86 Y100.557
G0 F3600 X98.93 Y101.193
G1 F1800 X120.342 Y122.605 E82.59783
G0 X120.412 Y122.675
G0 F3600 X119.871 Y122.699
G1 F1800 X98.93 Y101.759 E86.15155
G0 X98.86 Y101.689
G0 F3600 X98.93 Y102.324
G1 F1800 X119.324 Y122.719 E89.61261
G0 X119.394 Y122.789
G0 F3600 X118.759 Y122.719
G1 F1800 X98.93 Y102.89 E92.97771
G0 X98.86 Y102.82
G0 F3600 X98.93 Y103.456
G1 F1800 X118.193 Y122.719 E96.24674
G0 X118.263 Y122.789
G0 F3600 X117.627 Y122.719
G1 F1800 X98.93 Y104.021 E99.41982
G0 X98.86 Y103.951
G0 F3600 X98.93 Y104.587
G1 F1800 X117.062 Y122.719 E102.49692
G0 X117.132 Y122.789
G0 F3600 X116.496 Y122.719
G1 F1800 X98.93 Y105.153 E105.47797
G0 X98.86 Y105.083
G0 F3600 X98.93 Y105.718
G1 F1800 X115.93 Y122.719 E108.36305
G0 X116 Y122.789
G0 F3600 X115.365 Y122.719
G1 F1800 X98.93 Y106.284 E111.15216
G0 X98.86 Y106.214
G0 F3600 X98.93 Y106.85
G1 F1800 X114.799 Y122.719 E113.84522
G0 X114.869 Y122.789
G0 F3600 X114.233 Y122.719
G1 F1800 X98.93 Y107.415 E116.44231
G0 X98.86 Y107.345
G0 F3600 X98.93 Y107.981
G1 F1800 X113.668 Y122.719 E118.94343
G0 X113.738 Y122.789
G0 F3600 X113.102 Y122.719
G1 F1800 X98.93 Y108.547 E121.3485
G0 X98.86 Y108.477
G0 F3600 X98.93 Y109.112
G1 F1800 X112.536 Y122.719 E123.6576
G0 X112.606 Y122.789
G0 F3600 X111.971 Y122.719
G1 F1800 X98.93 Y109.678 E125.87073
G0 X98.86 Y109.608
G0 F3600 X98.93 Y110.244
G1 F1800 X111.405 Y122.719 E127.98781
G0 X111.475 Y122.789
G0 F3600 X110.839 Y122.719
G1 F1800 X98.93 Y110.809 E130.00892
G0 X98.86 Y110.739
G0 F3600 X98.93 Y111.375
G1 F1800 X110.274 Y122.719 E131.93406
G0 X110.344 Y122.789
G0 F3600 X109.708 Y122.719
G1 F1800 X98.93 Y111.941 E133.76314
G0 X98.86 Y111.871
G0 F3600 X98.93 Y112.507
G1 F1800 X109.142 Y122.719 E135.49618
G0 X109.212 Y122.789
G0 F3600 X108.576 Y122.719
G1 F1800 X98.93 Y113.072 E137.13324
G0 X98.86 Y113.002
G0 F3600 X98.93 Y113.638
G1 F1800 X108.011 Y122.719 E138.67434
G0 X108.081 Y122.789
G0 F3600 X107.445 Y122.719
G1 F1800 X98.93 Y114.204 E140.11938
G0 X98.86 Y114.134
G0 F3600 X98.93 Y114.769
G1 F1800 X106.879 Y122.719 E141.46846
G0 X106.949 Y122.789
G0 F3600 X106.314 Y122.719
G1 F1800 X98.93 Y115.335 E142.72156
G0 X98.86 Y115.265
G0 F3600 X98.93 Y115.901
G1 F1800 X105.748 Y122.719 E143.87862
G0 X105.818 Y122.789
G0 F3600 X105.182 Y122.719
G1 F1800 X98.93 Y116.466 E144.9397
G0 X98.86 Y116.396
G0 F3600 X98.93 Y117.032
G1 F1800 X104.617 Y122.719 E145.90482
G0 X104.687 Y122.789
G0 F3600 X104.051 Y122.719
G1 F1800 X98.93 Y117.598 E146.77388
G0 X98.86 Y117.528
G0 F3600 X98.93 Y118.163
G1 F1800 X103.485 Y122.719 E147.54697
G0 X103.555 Y122.789
G0 F3600 X102.92 Y122.719
G1 F1800 X98.93 Y118.729 E148.2241
G0 X98.86 Y118.659
G0 F3600 X98.93 Y119.295
G1 F1800 X102.354 Y122.719 E148.80517
G0 X102.424 Y122.789
G0 F3600 X101.788 Y122.719
G1 F1800 X98.93 Y119.86 E149.29028
G0 X98.86 Y119.79
G0 F3600 X98.93 Y120.426
G1 F1800 X101.223 Y122.719 E149.67941
G0 X101.293 Y122.789
G0 F3600 X100.657 Y122.719
G1 F1800 X98.93 Y120.992 E149.97249
G0 X98.86 Y120.922
G0 F3600 X98.93 Y121.558
G1 F1800 X100.091 Y122.719 E150.16952
G0 X100.161 Y122.789
G0 F3600 X99.525 Y122.719
G1 F1800 X98.93 Y122.123 E150.27058
G0 X98.86 Y122.053
G0 F3600 X119.469 Y120.034
G1 F1800 X99.714 Y100.279 E153.62311
G0 X99.644 Y100.209
G0 F3600 X100.279 Y100.279
G1 F1800 X119.469 Y119.469 E156.87977
G0 X119.539 Y119.539
G0 F3600 X119.469 Y118.903
G1 F1800 X100.845 Y100.279 E160.04036
G0 X100.775 Y100.209
G0 F3600 X101.411 Y100.279
G1 F1800 X119.469 Y118.337 E163.10491
G0 X119.539 Y118.407
G0 F3600 X119.469 Y117.772
G1 F1800 X101.976 Y100.279 E166.07357
G0 X101.906 Y100.209
G0 F3600 X102.542 Y100.279
G1 F1800 X119.469 Y117.206 E168.94618
G0 X119.539 Y117.276
G0 F3600 X119.469 Y116.64
G1 F1800 X103.108 Y100.279 E171.72273
G0 X103.038 Y100.209
G0 F3600 X103.673 Y100.279
G1 F1800 X119.469 Y116.075 E174.4034
G0 X119.539 Y116.145
G0 F3600 X119.469 Y115.509
G1 F1800 X104.239 Y100.279 E176.98802
G0 X104.169 Y100.209
G0 F3600 X104.805 Y100.279
G1 F1800 X119.469 Y114.943 E179.47658
G0 X119.539 Y115.013
G0 F3600 X119.469 Y114.378
G1 F1800 X105.37 Y100.279 E181.86926
G0 X105.3 Y100.209
G0 F3600 X105.936 Y100.279
G1 F1800 X119.469 Y113.812 E184.16588
G0 X119.539 Y113.882
G0 F3600 X119.469 Y113.246
G1 F1800 X106.502 Y100.279 E186.36646
G0 X106.432 Y100.209
G0 F3600 X107.067 Y100.279
G1 F1800 X119.795 Y113.007 E188.52647
G0 X119.865 Y113.077
G0 F3600 X120.361 Y113.007
G1 F1800 X107.633 Y100.279 E190.68648
G0 X107.563 Y100.209
G0 F3600 X108.199 Y100.279
G1 F1800 X120.927 Y113.007 E192.8465
G0 X120.997 Y113.077
G0 F3600 X121.492 Y113.007
G1 F1800 X108.765 Y100.279 E195.00643
G0 X108.695 Y100.209
G0 F3600 X109.33 Y100.279
G1 F1800 X122.058 Y113.007 E197.16644
G0 X122.128 Y113.077
G0 F3600 X122.624 Y113.007
G1 F1800 X119.609 Y109.992 E197.6781
G0 X119.539 Y109.922
G0 F3600 X119.469 Y109.853
G1 F1800 X109.897 Y100.28 E199.30261
G0 X109.827 Y100.21
G0 F3600 X110.462 Y100.28
G1 F1800 X119.469 Y109.287 E200.83115
G0 X119.539 Y109.357
G0 F3600 X119.469 Y108.721
G1 F1800 X111.028 Y100.28 E202.26363
G0 X110.958 Y100.21
G0 F3600 X111.594 Y100.28
G1 F1800 X119.469 Y108.156 E203.60015
G0 X119.539 Y108.226
G0 F3600 X119.469 Y107.59
G1 F1800 X112.159 Y100.28 E204.8407
G0 X112.089 Y100.21
G0 F3600 X112.725 Y100.28
G1 F1800 X119.469 Y107.024 E205.98519
G0 X119.539 Y107.094
G0 F3600 X119.469 Y106.459
G1 F1800 X113.291 Y100.28 E207.03372
G0 X113.221 Y100.21
G0 F3600 X113.856 Y100.28
G1 F1800 X119.469 Y105.893 E207.98628
G0 X119.539 Y105.963
G0 F3600 X119.469 Y105.327
G1 F1800 X114.422 Y100.28 E208.84278
G0 X114.352 Y100.21
G0 F3600 X114.988 Y100.28
G1 F1800 X119.469 Y104.762 E209.60332
G0 X119.539 Y104.832
G0 F3600 X119.469 Y104.196
G1 F1800 X115.553 Y100.28 E210.26788
G0 X115.483 Y100.21
G0 F3600 X116.119 Y100.28
G1 F1800 X119.469 Y103.63 E210.8364
G0 X119.539 Y103.7
G0 F3600 X119.469 Y103.065
G1 F1800 X116.685 Y100.28 E211.30894
G0 X116.615 Y100.21
G0 F3600 X117.251 Y100.28
G1 F1800 X119.469 Y102.499 E211.68543
G0 X119.539 Y102.569
G0 F3600 X119.744 Y102.208
G1 F1800 X117.816 Y100.28 E212.01263
G0 X117.746 Y100.21
G0 F3600 X118.382 Y100.28
G1 F1800 X120.309 Y102.208 E212.33973
G0 X120.379 Y102.278
G0 F3600 X120.875 Y102.208
G1 F1800 X118.948 Y100.28 E212.66684
G0 X118.878 Y100.21
G0 F3600 X119.513 Y100.28
G1 F1800 X121.441 Y102.208 E212.99403
G0 X121.511 Y102.278
G0 F3600 X122.007 Y102.208
G1 F1800 X120.155 Y100.356 E213.30833
G0 X120.085 Y100.286
G0 F3600 X120.862 Y100.498
G1 F1800 X122.572 Y102.208 E213.59853
G0 X122.642 Y102.278
G0 F3600 X123.138 Y102.208
G1 F1800 X121.57 Y100.639 E213.86471
G0 X121.5 Y100.569
G0 F3600 X122.277 Y100.781
G1 F1800 X123.704 Y102.208 E214.10688
G0 X123.774 Y102.278
G0 F3600 X124.068 Y102.007
G1 F1800 X122.984 Y100.923 E214.29084
G0 X122.914 Y100.853
G0 F3600 X123.692 Y101.064
G1 F1800 X124.068 Y101.441 E214.35473
G0 F3600 X119.622 Y102.36
G0 X119.622 Y109.84
G0 X123.569 Y109.992
G1 F1800 X124.068 Y110.491 E214.43942
G0 F3600 X124.068 Y111.057
G1 F1800 X123.003 Y109.992 E214.62015
G0 X122.933 Y109.922
G0 F3600 X122.437 Y109.992
G1 F1800 X124.068 Y111.623 E214.89694
G0 X124.138 Y111.693
G0 F3600 X124.068 Y112.188
G1 F1800 X121.871 Y109.992 E215.2697
G0 X121.801 Y109.922
G0 F3600 X121.306 Y109.992
G1 F1800 X124.068 Y112.754 E215.73843
G0 X124.138 Y112.824
G0 F3600 X123.755 Y113.007
G1 F1800 X120.74 Y109.992 E216.25009
G0 X120.67 Y109.922
G0 F3600 X120.174 Y109.992
G1 F1800 X123.19 Y113.007 E216.76184
G0 X123.26 Y113.077
G0 F3600 X119.622 Y113.16
G0 X119.621 Y120.639
G0 X123.054 Y120.791
G1 F1800 X124.068 Y121.805 E216.93392
G0 X124.138 Y121.875
G0 F3600 X123.642 Y121.945
G1 F1800 X122.488 Y120.791 E217.12976
G0 X122.418 Y120.721
G0 F3600 X121.922 Y120.791
G1 F1800 X123.17 Y122.039 E217.34155
G0 X123.24 Y122.109
G0 F3600 X122.699 Y122.134
G1 F1800 X121.356 Y120.79 E217.56955
G0 X121.286 Y120.72
G0 F3600 X120.79 Y120.79
G1 F1800 X122.228 Y122.228 E217.81359
G0 X122.298 Y122.298
G0 F3600 X121.756 Y122.322
G1 F1800 X120.225 Y120.79 E218.07349
G0 X120.155 Y120.72
G0 F3600 X123.619 Y120.791
G1 F1800 X124.068 Y121.239 E218.14961
G0 F3600 X123.849 Y121.239
;TIME_ELAPSED:68.609119
;LAYER:1
M106 S255
G0 F5400 X123.849 Y121.239 Z.36
G0 X119.579 Y120.676
G0 X119.649 Y120.606
;TYPE:WALL-INNER
G1 F2700 X119.849 Y120.606 E218.15441
G1 X124.249 Y120.606 E218.26001
G1 X124.249 Y122.008 E218.29365
G1 X119.793 Y122.9 E218.40272
G1 X98.751 Y122.9 E218.90773
G1 X98.751 Y100.1 E219.45493
G1 X119.793 Y100.1 E219.95994
G1 X124.249 Y100.992 E220.069
G1 X124.249 Y102.393 E220.10263
G1 X119.65 Y102.393 E220.213
G1 X119.65 Y109.817 E220.39118
G1 X124.249 Y109.818 E220.50155
G1 X124.249 Y113.183 E220.58231
G1 X119.65 Y113.183 E220.69269
G1 X119.649 Y120.406 E220.86604
G1 X119.649 Y120.606 E220.86915
G0 F5400 X120.049 Y120.206
;TYPE:WALL-OUTER
G1 F1800 X120.249 Y120.206 E220.87395
G1 X124.649 Y120.206 E220.97955
G1 X124.649 Y122.336 E221.03067
G1 X119.831 Y123.3 E221.14859
G1 X98.351 Y123.3 E221.66411
G1 X98.351 Y99.7 E222.23051
G1 X119.831 Y99.7 E222.74603
G1 X124.649 Y100.664 E222.86396
G1 X124.649 Y102.793 E222.91505
G1 X120.05 Y102.793 E223.02543
G1 X120.05 Y109.417 E223.18441
G1 X124.649 Y109.418 E223.29478
G1 X124.649 Y113.583 E223.39474
G1 X120.05 Y113.583 E223.50512
G1 X120.049 Y120.006 E223.65927
G1 X120.049 Y120.206 E223.66238
G0 F5400 X120.196 Y120.785
;TYPE:SKIN
G1 F1350 X118.262 Y122.719 E223.72802
G0 X118.192 Y122.789
G0 F5400 X117.697 Y122.719
G1 F1350 X119.631 Y120.785 E223.79366
G0 X119.701 Y120.715
G0 F5400 X119.468 Y120.382
G1 F1350 X117.131 Y122.719 E223.87298
G0 X117.061 Y122.789
G0 F5400 X116.565 Y122.719
G1 F1350 X119.468 Y119.816 E223.97151
G0 X119.538 Y119.746
