;FLAVOR:UltiGCode
;TIME:5312
;MATERIAL:7341
;MATERIAL2:0
;NOZZLE_DIAMETER:0.4
;Generated with Cura_SteamEngine 2.3.1

;LAYER_COUNT:98
;LAYER:0
M107
G10
G0 F3600 X84.261 Y76.734 Z.3
;TYPE:SKIRT
G11
G1 F1800 X84.647 Y76.408 E0.06063
G1 X85.08 Y76.147 E0.1213
G1 X85.549 Y75.957 E0.18202
G1 X86.042 Y75.844 E0.24272
G1 X86.51 Y75.809 E0.29903
G1 X106.793 Y75.8 E2.73299
G1 X106.834 Y75.8 E2.73791
G1 X112.847 Y75.875 E3.45953
G1 X115.732 Y75.801 E3.80584
G1 X115.816 Y75.8 E3.81592
G1 X136.493 Y75.81 E6.29716
G1 X136.997 Y75.85 E6.35783
G1 X137.488 Y75.969 E6.41846
G1 X137.954 Y76.164 E6.47908
G1 X138.384 Y76.43 E6.53975
G1 X138.767 Y76.761 E6.6005
G1 X139.093 Y77.147 E6.66113
G1 X139.354 Y77.58 E6.7218
G1 X139.543 Y78.049 E6.78248
G1 X139.657 Y78.542 E6.8432
G1 X139.691 Y79.009 E6.89938
G1 X139.7 Y120.771 E11.91083
G1 X139.858 Y126.35 E12.58057
G1 X140.004 Y129.149 E12.91691
G1 X140.007 Y129.412 E12.94847
G1 X139.91 Y132.634 E13.33529
G1 X139.889 Y144.197 E14.72285
G1 X139.848 Y144.701 E14.78353
G1 X139.728 Y145.192 E14.84418
G1 X139.533 Y145.658 E14.9048
G1 X139.266 Y146.088 E14.96554
G1 X138.935 Y146.47 E15.02619
G1 X138.548 Y146.795 E15.08684
G1 X138.115 Y147.056 E15.14751
G1 X137.646 Y147.245 E15.20819
G1 X137.153 Y147.357 E15.26885
G1 X136.689 Y147.391 E15.32468
G1 X86.31 Y147.391 E21.37016
G1 X85.806 Y147.351 E21.43083
G1 X85.315 Y147.232 E21.49146
G1 X84.848 Y147.038 E21.55214
G1 X84.418 Y146.772 E21.61282
G1 X84.035 Y146.442 E21.67348
G1 X83.709 Y146.055 E21.7342
G1 X83.448 Y145.622 E21.79487
G1 X83.258 Y145.154 E21.85549
G1 X83.145 Y144.661 E21.91618
G1 X83.11 Y144.215 E21.96986
G1 X82.993 Y128.725 E23.82872
G1 X82.999 Y128.51 E23.85453
G1 X83.213 Y124.935 E24.2843
G1 X83.301 Y120.796 E24.78109
G1 X83.311 Y79.008 E29.79565
G1 X83.351 Y78.504 E29.85632
G1 X83.47 Y78.013 E29.91694
G1 X83.665 Y77.546 E29.97767
G1 X83.931 Y77.116 E30.03835
G1 X84.261 Y76.734 E30.09892
G10
G0 F3600 X85.848 Y129.653
G0 X86.418 Y129.665
G0 X86.418 Y129.4
;TYPE:SUPPORT
G11
G1 F1800 X136.583 Y129.4 E36.11872
G1 X136.5 Y129.67 E36.15262
G1 X136.5 Y144 E37.87222
G1 X86.501 Y144 E43.8721
G1 X86.501 Y129.67 E45.5917
G1 X86.418 Y129.4 E45.6256
G10
G0 F3600 X86.66 Y130.634
G11
G1 F1800 X136.34 Y130.634 E51.5872
G10
G0 F3600 X135.966 Y129.56
G11
G1 F1800 X135.966 Y143.84 E53.3008
G10
G0 F3600 X136.34 Y141.298
G11
G1 F1800 X86.66 Y141.298 E59.2624
G10
G0 F3600 X86.66 Y138.632
G11
G1 F1800 X136.34 Y138.632 E65.224
G10
G0 F3600 X136.34 Y135.966
G11
G1 F1800 X86.66 Y135.966 E71.1856
G10
G0 F3600 X86.66 Y133.3
G11
G1 F1800 X136.34 Y133.3 E77.1472
G10
G0 F3600 X133.3 Y129.665
G0 X133.3 Y129.56
G11
G1 F1800 X133.3 Y143.84 E78.8608
G10
G0 F3600 X130.634 Y143.84
G11
G1 F1800 X130.634 Y129.56 E80.5744
G10
G0 F3600 X127.968 Y129.56
G11
G1 F1800 X127.968 Y143.84 E82.288
G10
G0 F3600 X125.302 Y143.84
G11
G1 F1800 X125.302 Y129.56 E84.0016
G10
G0 F3600 X122.636 Y129.56
G11
G1 F1800 X122.636 Y143.84 E85.7152
G10
G0 F3600 X119.97 Y143.84
G11
G1 F1800 X119.97 Y129.56 E87.4288
G10
G0 F3600 X117.304 Y129.56
G11
G1 F1800 X117.304 Y143.84 E89.1424
G10
G0 F3600 X114.638 Y143.84
G11
G1 F1800 X114.638 Y129.56 E90.856
G10
G0 F3600 X111.972 Y129.56
G11
G1 F1800 X111.972 Y143.84 E92.5696
G10
G0 F3600 X109.306 Y143.84
G11
G1 F1800 X109.306 Y129.56 E94.2832
G10
G0 F3600 X106.64 Y129.56
G11
G1 F1800 X106.64 Y143.84 E95.9968
G10
G0 F3600 X103.974 Y143.84
G11
G1 F1800 X103.974 Y129.56 E97.7104
G10
G0 F3600 X101.308 Y129.56
G11
G1 F1800 X101.308 Y143.84 E99.424
G10
G0 F3600 X98.642 Y143.84
G11
G1 F1800 X98.642 Y129.56 E101.1376
G10
G0 F3600 X95.976 Y129.56
G11
G1 F1800 X95.976 Y143.84 E102.8512
G10
G0 F3600 X93.31 Y143.84
G11
G1 F1800 X93.31 Y129.56 E104.5648
G10
G0 F3600 X90.644 Y129.56
G11
G1 F1800 X90.644 Y143.84 E106.2784
G10
G0 F3600 X87.978 Y143.84
G11
G1 F1800 X87.978 Y129.56 E107.992
G10
G0 F3600 X87.978 Y128.36
G0 X87.171 Y128.33
G0 X87.101 Y128.4
;TYPE:WALL-INNER
G11
G1 F1800 X87.101 Y79.6 E113.848
G1 X106.901 Y79.6 E116.224
G1 X106.901 Y86.499 E117.05188
G1 X106.658 Y86.559 E117.08191
G1 X105.721 Y86.848 E117.19958
G1 X104.801 Y87.185 E117.31715
G1 X103.9 Y87.573 E117.43487
G1 X103.021 Y88.009 E117.55262
G1 X102.169 Y88.491 E117.67008
G1 X101.343 Y89.019 E117.78772
G1 X100.547 Y89.591 E117.90535
G1 X99.782 Y90.206 E118.02313
G1 X99.053 Y90.861 E118.14074
G1 X98.361 Y91.553 E118.25817
G1 X97.706 Y92.282 E118.37578
G1 X97.091 Y93.047 E118.49356
G1 X96.519 Y93.843 E118.61119
G1 X95.992 Y94.669 E118.72876
G1 X95.509 Y95.521 E118.84629
G1 X95.073 Y96.4 E118.96403
G1 X94.685 Y97.301 E119.08175
G1 X94.348 Y98.221 E119.19933
G1 X94.059 Y99.158 E119.31699
G1 X93.824 Y100.11 E119.43466
G1 X93.639 Y101.072 E119.55222
G1 X93.506 Y102.043 E119.66983
G1 X93.426 Y103.021 E119.78758
G1 X93.401 Y104 E119.9051
G1 X93.426 Y104.98 E120.02273
G1 X93.506 Y105.958 E120.14049
G1 X93.639 Y106.929 E120.25809
G1 X93.824 Y107.891 E120.37565
G1 X94.059 Y108.843 E120.49332
G1 X94.348 Y109.78 E120.61099
G1 X94.685 Y110.7 E120.72856
G1 X95.073 Y111.601 E120.84628
G1 X95.509 Y112.479 E120.96391
G1 X95.992 Y113.331 E121.08144
G1 X96.519 Y114.157 E121.19902
G1 X97.091 Y114.953 E121.31664
G1 X97.706 Y115.718 E121.43443
G1 X98.361 Y116.447 E121.55203
G1 X99.053 Y117.139 E121.66947
G1 X99.782 Y117.794 E121.78707
G1 X100.547 Y118.409 E121.90486
G1 X101.343 Y118.981 E122.02248
G1 X102.169 Y119.508 E122.14006
G1 X103.021 Y119.991 E122.25758
G1 X103.9 Y120.427 E122.37533
G1 X104.801 Y120.815 E122.49305
G1 X105.721 Y121.152 E122.61062
G1 X106.658 Y121.441 E122.72829
G1 X107.61 Y121.676 E122.84596
G1 X108.572 Y121.861 E122.96351
G1 X109.543 Y121.994 E123.08112
G1 X110.52 Y122.074 E123.19875
G1 X111.5 Y122.1 E123.31639
G1 X112.48 Y122.074 E123.43403
G1 X113.457 Y121.994 E123.55167
G1 X114.428 Y121.861 E123.66927
G1 X115.39 Y121.676 E123.78683
G1 X116.342 Y121.441 E123.9045
G1 X117.279 Y121.152 E124.02216
G1 X118.199 Y120.815 E124.13974
G1 X119.1 Y120.427 E124.25746
G1 X119.979 Y119.991 E124.3752
G1 X120.831 Y119.508 E124.49273
G1 X121.657 Y118.981 E124.6103
G1 X122.453 Y118.409 E124.72793
G1 X123.218 Y117.794 E124.84571
G1 X123.947 Y117.139 E124.96332
G1 X124.639 Y116.447 E125.08075
G1 X125.294 Y115.718 E125.19836
G1 X125.909 Y114.953 E125.31614
G1 X126.481 Y114.157 E125.43377
G1 X127.009 Y113.331 E125.55141
G1 X127.491 Y112.479 E125.66888
G1 X127.927 Y111.601 E125.78651
G1 X128.315 Y110.7 E125.90423
G1 X128.652 Y109.78 E126.0218
G1 X128.941 Y108.843 E126.13947
G1 X129.176 Y107.891 E126.25714
G1 X129.361 Y106.929 E126.3747
G1 X129.494 Y105.958 E126.4923
G1 X129.574 Y104.981 E126.60994
G1 X129.6 Y104 E126.7277
G1 X129.574 Y103.02 E126.84534
G1 X129.494 Y102.043 E126.96297
G1 X129.361 Y101.072 E127.08058
G1 X129.176 Y100.11 E127.19813
G1 X128.941 Y99.158 E127.3158
G1 X128.652 Y98.221 E127.43347
G1 X128.315 Y97.301 E127.55104
G1 X127.927 Y96.4 E127.66876
G1 X127.491 Y95.521 E127.78651
G1 X127.009 Y94.669 E127.90397
G1 X126.481 Y93.843 E128.02161
G1 X125.909 Y93.047 E128.13924
G1 X125.294 Y92.282 E128.25702
G1 X124.639 Y91.553 E128.37463
G1 X123.947 Y90.861 E128.49206
G1 X123.218 Y90.206 E128.60967
G1 X122.453 Y89.591 E128.72745
G1 X121.657 Y89.019 E128.84508
G1 X120.831 Y88.491 E128.96272
G1 X119.979 Y88.009 E129.08019
G1 X119.1 Y87.573 E129.19793
G1 X118.199 Y87.185 E129.31565
G1 X117.279 Y86.848 E129.43322
G1 X116.342 Y86.559 E129.55089
G1 X116.1 Y86.5 E129.58078
G1 X116.1 Y79.6 E130.40878
G1 X135.9 Y79.6 E132.78478
G1 X135.9 Y128.4 E138.64078
G1 X87.101 Y128.4 E144.49666
G0 F3600 X86.701 Y128.8
;TYPE:WALL-OUTER
G1 F1800 X86.701 Y79.2 E150.44866
G1 X107.301 Y79.2 E152.92066
G1 X107.301 Y86.813 E153.83422
G1 X106.765 Y86.945 E153.90046
G1 X105.849 Y87.227 E154.01547
G1 X104.949 Y87.557 E154.1305
G1 X104.068 Y87.936 E154.24559
G1 X103.209 Y88.362 E154.36065
G1 X102.375 Y88.834 E154.47565
G1 X101.568 Y89.35 E154.59059
G1 X100.789 Y89.91 E154.70572
G1 X100.041 Y90.511 E154.82086
G1 X99.328 Y91.151 E154.93584
G1 X98.651 Y91.828 E155.05073
G1 X98.011 Y92.541 E155.1657
G1 X97.41 Y93.289 E155.28084
G1 X96.85 Y94.068 E155.39597
G1 X96.335 Y94.875 E155.51085
G1 X95.862 Y95.709 E155.6259
G1 X95.436 Y96.568 E155.74096
G1 X95.057 Y97.449 E155.85605
G1 X94.727 Y98.349 E155.97108
G1 X94.445 Y99.265 E156.08609
G1 X94.215 Y100.196 E156.20117
G1 X94.034 Y101.137 E156.31616
G1 X93.904 Y102.086 E156.43111
G1 X93.826 Y103.042 E156.54621
G1 X93.801 Y104 E156.66121
G1 X93.826 Y104.959 E156.77633
G1 X93.904 Y105.915 E156.89143
G1 X94.034 Y106.864 E157.00637
G1 X94.215 Y107.805 E157.12136
G1 X94.445 Y108.736 E157.23644
G1 X94.727 Y109.652 E157.35145
G1 X95.057 Y110.552 E157.46648
G1 X95.436 Y111.433 E157.58157
G1 X95.862 Y112.291 E157.69652
G1 X96.335 Y113.125 E157.81158
G1 X96.85 Y113.932 E157.92646
G1 X97.41 Y114.711 E158.04158
G1 X98.011 Y115.459 E158.15673
G1 X98.651 Y116.172 E158.2717
G1 X99.328 Y116.849 E158.38659
G1 X100.041 Y117.489 E158.50156
G1 X100.789 Y118.09 E158.61671
G1 X101.568 Y118.65 E158.73184
G1 X102.375 Y119.165 E158.84671
G1 X103.209 Y119.638 E158.96177
G1 X104.068 Y120.064 E159.07683
G1 X104.949 Y120.443 E159.19192
G1 X105.849 Y120.773 E159.30695
G1 X106.765 Y121.055 E159.42196
G1 X107.696 Y121.285 E159.53704
G1 X108.637 Y121.466 E159.65203
G1 X109.586 Y121.596 E159.76697
G1 X110.542 Y121.674 E159.88207
G1 X111.5 Y121.7 E159.99707
G1 X112.458 Y121.674 E160.11208
G1 X113.414 Y121.596 E160.22718
G1 X114.363 Y121.466 E160.34212
G1 X115.304 Y121.285 E160.45711
G1 X116.235 Y121.055 E160.57219
G1 X117.151 Y120.773 E160.6872
G1 X118.051 Y120.443 E160.80223
G1 X118.932 Y120.064 E160.91732
G1 X119.791 Y119.638 E161.03238
G1 X120.625 Y119.165 E161.14744
G1 X121.432 Y118.65 E161.26231
G1 X122.211 Y118.09 E161.37744
G1 X122.959 Y117.489 E161.49259
G1 X123.672 Y116.849 E161.60756
G1 X124.349 Y116.172 E161.72245
G1 X124.989 Y115.459 E161.83742
G1 X125.59 Y114.711 E161.95257
G1 X126.15 Y113.932 E162.06769
G1 X126.666 Y113.125 E162.18264
G1 X127.138 Y112.291 E162.29763
G1 X127.564 Y111.433 E162.41259
G1 X127.943 Y110.552 E162.52767
G1 X128.273 Y109.652 E162.6427
G1 X128.555 Y108.736 E162.75772
G1 X128.785 Y107.805 E162.87279
G1 X128.966 Y106.864 E162.98778
G1 X129.096 Y105.915 E163.10273
G1 X129.174 Y104.959 E163.21783
G1 X129.2 Y104 E163.33295
G1 X129.174 Y103.042 E163.44795
G1 X129.096 Y102.086 E163.56306
G1 X128.966 Y101.137 E163.678
G1 X128.785 Y100.196 E163.79299
G1 X128.555 Y99.265 E163.90807
G1 X128.273 Y98.349 E164.02308
G1 X127.943 Y97.449 E164.13811
G1 X127.564 Y96.568 E164.2532
G1 X127.138 Y95.709 E164.36826
G1 X126.666 Y94.875 E164.48325
G1 X126.15 Y94.068 E164.5982
G1 X125.59 Y93.289 E164.71332
G1 X124.989 Y92.541 E164.82847
G1 X124.349 Y91.828 E164.94344
G1 X123.672 Y91.151 E165.05833
G1 X122.959 Y90.511 E165.1733
G1 X122.211 Y89.91 E165.28845
G1 X121.432 Y89.35 E165.40358
G1 X120.625 Y88.834 E165.51852
G1 X119.791 Y88.362 E165.63352
G1 X118.932 Y87.936 E165.74858
G1 X118.051 Y87.557 E165.86366
G1 X117.151 Y87.227 E165.97869
G1 X116.235 Y86.945 E166.09371
G1 X115.7 Y86.813 E166.15983
G1 X115.7 Y79.2 E167.07339
G1 X136.3 Y79.2 E169.54539
G1 X136.3 Y128.8 E175.49739
G1 X86.701 Y128.8 E181.44927
G0 F3600 X87.171 Y128.33
G0 X87.49 Y128.219
;TYPE:SKIN
G1 F1800 X87.28 Y128.009 E181.48491
G0 F3600 X87.28 Y127.443
G1 F1800 X88.056 Y128.219 E181.6166
G0 X88.126 Y128.289
G0 F3600 X88.621 Y128.219
G1 F1800 X87.28 Y126.878 E181.84418
G0 X87.21 Y126.808
G0 F3600 X87.28 Y126.312
G1 F1800 X89.187 Y128.219 E182.1678
G0 X89.257 Y128.289
G0 F3600 X89.753 Y128.219
G1 F1800 X87.28 Y125.746 E182.58749
G0 X87.21 Y125.676
G0 F3600 X87.28 Y125.181
G1 F1800 X90.318 Y128.219 E183.10305
G0 X90.388 Y128.289
G0 F3600 X90.884 Y128.219
G1 F1800 X87.28 Y124.615 E183.71467
G0 X87.21 Y124.545
G0 F3600 X87.28 Y124.049
G1 F1800 X91.45 Y128.219 E184.42234
G0 X91.52 Y128.289
G0 F3600 X92.015 Y128.219
G1 F1800 X87.28 Y123.484 E185.2259
G0 X87.21 Y123.414
G0 F3600 X87.28 Y122.918
G1 F1800 X92.581 Y128.219 E186.12551
G0 X92.651 Y128.289
G0 F3600 X93.147 Y128.219
G1 F1800 X87.28 Y122.352 E187.12117
G0 X87.21 Y122.282
G0 F3600 X87.28 Y121.787
G1 F1800 X93.712 Y128.219 E188.21272
G0 X93.782 Y128.289
G0 F3600 X94.278 Y128.219
G1 F1800 X87.28 Y121.221 E189.40032
G0 X87.21 Y121.151
G0 F3600 X87.28 Y120.655
G1 F1800 X94.844 Y128.219 E190.68397
G0 X94.914 Y128.289
G0 F3600 X95.409 Y128.219
G1 F1800 X87.28 Y120.09 E192.06351
G0 X87.21 Y120.02
G0 F3600 X87.28 Y119.524
G1 F1800 X95.975 Y128.219 E193.5391
G0 X96.045 Y128.289
G0 F3600 X96.541 Y128.219
G1 F1800 X87.28 Y118.958 E195.11074
G0 X87.21 Y118.888
G0 F3600 X87.28 Y118.393
G1 F1800 X97.106 Y128.219 E196.77827
G0 X97.176 Y128.289
G0 F3600 X97.672 Y128.219
G1 F1800 X87.28 Y117.827 E198.54185
G0 X87.21 Y117.757
G0 F3600 X87.28 Y117.261
G1 F1800 X98.238 Y128.219 E200.40149
G0 X98.308 Y128.289
G0 F3600 X98.804 Y128.219
G1 F1800 X87.28 Y116.695 E202.35717
G0 X87.21 Y116.625
G0 F3600 X87.28 Y116.13
G1 F1800 X99.369 Y128.219 E204.40875
G0 X99.439 Y128.289
G0 F3600 X99.935 Y128.219
G1 F1800 X87.28 Y115.564 E206.55637
G0 X87.21 Y115.494
G0 F3600 X87.28 Y114.998
G1 F1800 X100.501 Y128.219 E208.80005
G0 X100.571 Y128.289
G0 F3600 X101.066 Y128.219
G1 F1800 X87.28 Y114.433 E211.13961
G0 X87.21 Y114.363
G0 F3600 X87.28 Y113.867
G1 F1800 X101.632 Y128.219 E213.57523
G0 X101.702 Y128.289
G0 F3600 X102.198 Y128.219
G1 F1800 X87.28 Y113.301 E216.10689
G0 X87.21 Y113.231
G0 F3600 X87.28 Y112.736
G1 F1800 X102.763 Y128.219 E218.73445
G0 X102.833 Y128.289
G0 F3600 X103.329 Y128.219
G1 F1800 X87.28 Y112.17 E221.45805
G0 X87.21 Y112.1
G0 F3600 X87.28 Y111.604
G1 F1800 X103.895 Y128.219 E224.27771
G0 X103.965 Y128.289
G0 F3600 X104.46 Y128.219
G1 F1800 X87.28 Y111.039 E227.19325
G0 X87.21 Y110.969
G0 F3600 X87.28 Y110.473
G1 F1800 X105.026 Y128.219 E230.20485
G0 X105.096 Y128.289
G0 F3600 X105.592 Y128.219
G1 F1800 X87.28 Y109.907 E233.3125
G0 X87.21 Y109.837
G0 F3600 X87.28 Y109.342
G1 F1800 X106.157 Y128.219 E236.51603
G0 X106.227 Y128.289
G0 F3600 X106.723 Y128.219
G1 F1800 X87.28 Y108.776 E239.81562
G0 X87.21 Y108.706
G0 F3600 X87.28 Y108.21
G1 F1800 X107.289 Y128.219 E243.21126
G0 X107.359 Y128.289
G0 F3600 X107.854 Y128.219
G1 F1800 X87.28 Y107.644 E246.70287
G0 X87.21 Y107.574
G0 F3600 X87.28 Y107.079
G1 F1800 X108.42 Y128.219 E250.29044
G0 X108.49 Y128.289
G0 F3600 X108.986 Y128.219
G1 F1800 X87.28 Y106.513 E253.97407
G0 X87.21 Y106.443
G0 F3600 X87.28 Y105.947
G1 F1800 X109.552 Y128.219 E257.75376
G0 X109.622 Y128.289
G0 F3600 X110.117 Y128.219
G1 F1800 X100.474 Y118.576 E259.39023
G0 X100.404 Y118.506
G0 F3600 X102.188 Y119.725
G1 F1800 X110.683 Y128.219 E260.83179
G0 X110.753 Y128.289
G0 F3600 X111.249 Y128.219
G1 F1800 X103.418 Y120.389 E262.16067
G0 X103.348 Y120.319
G0 F3600 X104.458 Y120.863
G1 F1800 X111.814 Y128.219 E263.40903
G0 X111.884 Y128.289
G0 F3600 X112.38 Y128.219
G1 F1800 X105.379 Y121.218 E264.59714
G0 X105.309 Y121.148
G0 F3600 X106.22 Y121.494
G1 F1800 X112.946 Y128.219 E265.73849
G0 X113.016 Y128.289
G0 F3600 X113.511 Y128.219
G1 F1800 X107.004 Y121.712 E266.84277
G0 X106.934 Y121.642
G0 F3600 X107.741 Y121.883
G1 F1800 X114.077 Y128.219 E267.91802
G0 X114.147 Y128.289
G0 F3600 X114.643 Y128.219
G1 F1800 X108.441 Y122.017 E268.97054
G0 X108.371 Y121.947
G0 F3600 X109.104 Y122.115
G1 F1800 X115.208 Y128.219 E270.00642
G0 X115.278 Y128.289
G0 F3600 X115.774 Y128.219
G1 F1800 X109.745 Y122.19 E271.02957
G0 X109.675 Y122.12
G0 F3600 X110.361 Y122.241
G1 F1800 X116.34 Y128.219 E272.04416
G0 X116.41 Y128.289
G0 F3600 X116.905 Y128.219
G1 F1800 X110.951 Y122.265 E273.05459
G0 X110.881 Y122.195
G0 F3600 X111.53 Y122.278
