;FLAVOR:UltiGCode
;TIME:1828
;MATERIAL:2064
;MATERIAL2:0
;NOZZLE_DIAMETER:0.4
;Generated with Cura_SteamEngine 2.3.1

;LAYER_COUNT:198
;LAYER:0
M107
G10
G0 F3600 X104.197 Y98.833 Z.3
G0 X104.477 Y98.59
;TYPE:SKIRT
G11
G1 F1800 X105.377 Y97.876 E0.13786
G1 X106.04 Y97.441 E0.23301
G1 X106.973 Y96.943 E0.35993
G1 X107.744 Y96.622 E0.46014
G1 X109.043 Y96.22 E0.62332
G1 X109.907 Y96.045 E0.7291
G1 X110.97 Y95.939 E0.8573
G1 X111.827 Y95.937 E0.96014
G1 X113.235 Y96.072 E1.12987
G1 X113.82 Y96.168 E1.20101
G1 X114.127 Y96.252 E1.2392
G1 X115.206 Y96.589 E1.37485
G1 X115.93 Y96.889 E1.4689
G1 X116.813 Y97.35 E1.58843
G1 X117.422 Y97.734 E1.67482
G1 X118.302 Y98.396 E1.80697
G1 X118.751 Y98.783 E1.8781
G1 X119.002 Y99.053 E1.92234
G1 X120.014 Y100.237 E2.10924
G1 X120.368 Y100.713 E2.18043
G1 X120.568 Y101.056 E2.22807
G1 X121.154 Y102.176 E2.37976
G1 X121.392 Y102.719 E2.4509
G1 X121.488 Y103.016 E2.48836
G1 X121.804 Y104.131 E2.62743
G1 X121.929 Y104.728 E2.70062
G1 X122.03 Y105.458 E2.78906
G1 X122.072 Y106.025 E2.85728
G1 X122.152 Y115.671 E4.01484
G1 X122.117 Y116.262 E4.08589
G1 X122.067 Y116.569 E4.12321
G1 X121.603 Y118.891 E4.40736
G1 X121.488 Y119.342 E4.46321
G1 X121.322 Y119.873 E4.52997
G1 X121.095 Y120.451 E4.60449
G1 X120.62 Y121.449 E4.73712
G1 X120.321 Y121.979 E4.81015
G1 X120.014 Y122.445 E4.87711
G1 X119.647 Y122.926 E4.94971
G1 X118.93 Y123.743 E5.08015
G1 X118.348 Y124.296 E5.17649
G1 X117.486 Y124.976 E5.30824
G1 X116.791 Y125.425 E5.40753
G1 X115.77 Y125.956 E5.54563
G1 X115.011 Y126.265 E5.64397
G1 X113.97 Y126.579 E5.77445
G1 X113.374 Y126.714 E5.84778
G1 X112.82 Y126.8 E5.91506
G1 X112.213 Y126.851 E5.98816
G1 X111.111 Y126.868 E6.12041
G1 X110.307 Y126.807 E6.21717
G1 X109.222 Y126.623 E6.34923
G1 X108.621 Y126.477 E6.42345
G1 X108.069 Y126.301 E6.49297
G1 X107.497 Y126.073 E6.56686
G1 X106.515 Y125.6 E6.69766
G1 X105.829 Y125.19 E6.79356
G1 X104.947 Y124.546 E6.92461
G1 X104.493 Y124.164 E6.99581
G1 X104.212 Y123.868 E7.04479
G1 X103.149 Y122.637 E7.23996
G1 X102.792 Y122.163 E7.31117
G1 X102.574 Y121.789 E7.36312
G1 X102.037 Y120.755 E7.50293
G1 X101.717 Y119.957 E7.60611
G1 X101.382 Y118.806 E7.74996
G1 X101.286 Y118.407 E7.7992
G1 X100.927 Y116.541 E8.02723
G1 X100.848 Y115.683 E8.13063
G1 X100.9 Y107.115 E9.15881
G1 X100.905 Y106.926 E9.18149
G1 X100.977 Y105.464 E9.35715
G1 X101.096 Y104.642 E9.45681
G1 X101.411 Y103.345 E9.61698
G1 X101.707 Y102.508 E9.72351
G1 X102.229 Y101.4 E9.87049
G1 X102.517 Y100.882 E9.94161
G1 X102.79 Y100.505 E9.99747
G1 X103.793 Y99.267 E10.18867
G1 X104.197 Y98.833 E10.25982
G1 X104.477 Y98.59 E10.30431
G0 F3600 X104.726 Y98.903
G1 F1800 X105.626 Y98.189 E10.44217
G1 X106.228 Y97.794 E10.52857
G1 X107.161 Y97.296 E10.65548
G1 X107.862 Y97.004 E10.74661
G1 X109.161 Y96.602 E10.90978
G1 X109.947 Y96.443 E11.00601
G1 X111.01 Y96.337 E11.1342
G1 X111.789 Y96.335 E11.22768
G1 X113.197 Y96.47 E11.39742
G1 X114.007 Y96.634 E11.49659
G1 X115.086 Y96.971 E11.63224
G1 X115.745 Y97.243 E11.71779
G1 X116.628 Y97.704 E11.83732
G1 X117.182 Y98.053 E11.91589
G1 X118.062 Y98.715 E12.04804
G1 X118.488 Y99.086 E12.11583
G1 X118.698 Y99.313 E12.15293
G1 X119.71 Y100.497 E12.33984
G1 X120.046 Y100.952 E12.40772
G1 X120.213 Y101.242 E12.44787
G1 X120.799 Y102.362 E12.59956
G1 X121.103 Y103.125 E12.69812
G1 X121.419 Y104.24 E12.83719
G1 X121.533 Y104.783 E12.90377
G1 X121.634 Y105.513 E12.9922
G1 X121.672 Y106.028 E13.05417
G1 X121.752 Y115.674 E14.21173
G1 X121.674 Y116.491 E14.31022
G1 X121.21 Y118.813 E14.59436
G1 X121.106 Y119.223 E14.64512
G1 X120.94 Y119.754 E14.71188
G1 X120.734 Y120.279 E14.77956
G1 X120.259 Y121.277 E14.91219
G1 X119.987 Y121.759 E14.97861
G1 X119.68 Y122.225 E15.04557
G1 X119.346 Y122.662 E15.11157
G1 X118.629 Y123.479 E15.24201
G1 X118.1 Y123.981 E15.32953
G1 X117.238 Y124.661 E15.46128
G1 X116.607 Y125.07 E15.55151
G1 X115.586 Y125.601 E15.68961
G1 X114.895 Y125.882 E15.77913
G1 X113.854 Y126.196 E15.90961
G1 X113.313 Y126.319 E15.97618
G1 X112.759 Y126.405 E16.04346
G1 X112.207 Y126.452 E16.10994
G1 X111.105 Y126.469 E16.24219
G1 X110.374 Y126.413 E16.33017
G1 X109.289 Y126.229 E16.46223
G1 X108.743 Y126.096 E16.52967
G1 X108.191 Y125.92 E16.59919
G1 X107.67 Y125.713 E16.66647
G1 X106.688 Y125.24 E16.79726
G1 X106.065 Y124.867 E16.8844
G1 X105.183 Y124.223 E17.01545
G1 X104.751 Y123.858 E17.08332
G1 X104.515 Y123.606 E17.12475
G1 X103.452 Y122.375 E17.31992
G1 X103.113 Y121.922 E17.38782
G1 X102.929 Y121.605 E17.4318
G1 X102.392 Y120.571 E17.57161
G1 X102.101 Y119.845 E17.66547
G1 X101.766 Y118.694 E17.80932
G1 X101.679 Y118.332 E17.854
G1 X101.32 Y116.466 E18.08203
G1 X101.248 Y115.686 E18.17603
G1 X101.3 Y107.118 E19.2042
G1 X101.305 Y106.945 E19.22497
G1 X101.377 Y105.483 E19.40063
G1 X101.485 Y104.736 E19.4912
G1 X101.8 Y103.439 E19.65136
G1 X102.068 Y102.678 E19.74818
G1 X102.59 Y101.57 E19.89516
G1 X102.867 Y101.077 E19.96301
G1 X103.101 Y100.757 E20.01059
G1 X104.104 Y99.519 E20.20178
G1 X104.49 Y99.106 E20.26962
G1 X104.726 Y98.903 E20.30698
G0 F3600 X104.975 Y99.217
G1 F1800 X105.875 Y98.503 E20.44483
G1 X106.417 Y98.147 E20.52265
G1 X107.35 Y97.649 E20.64956
G1 X107.981 Y97.386 E20.73159
G1 X109.28 Y96.984 E20.89477
G1 X109.987 Y96.841 E20.98133
G1 X111.05 Y96.735 E21.10952
G1 X111.751 Y96.733 E21.19364
G1 X113.159 Y96.868 E21.36337
G1 X113.888 Y97.016 E21.45264
G1 X114.967 Y97.353 E21.58829
G1 X115.56 Y97.598 E21.66528
G1 X116.443 Y98.059 E21.78481
G1 X116.941 Y98.373 E21.85546
G1 X117.821 Y99.035 E21.9876
G1 X118.394 Y99.573 E22.08192
G1 X119.406 Y100.757 E22.26883
G1 X119.723 Y101.189 E22.33313
G1 X119.859 Y101.427 E22.36602
G1 X120.445 Y102.547 E22.51771
G1 X120.719 Y103.234 E22.60646
G1 X121.035 Y104.349 E22.74553
G1 X121.137 Y104.838 E22.80548
G1 X121.238 Y105.568 E22.89391
G1 X121.272 Y106.031 E22.94962
G1 X121.352 Y115.677 E24.10718
G1 X121.282 Y116.412 E24.19578
G1 X120.818 Y118.734 E24.47993
G1 X120.724 Y119.103 E24.52562
G1 X120.558 Y119.634 E24.59238
G1 X120.373 Y120.107 E24.65333
G1 X119.898 Y121.105 E24.78596
G1 X119.653 Y121.539 E24.84577
G1 X119.346 Y122.005 E24.91273
G1 X119.046 Y122.399 E24.97216
G1 X118.329 Y123.216 E25.1026
G1 X117.853 Y123.667 E25.18129
G1 X116.991 Y124.347 E25.31304
G1 X116.422 Y124.715 E25.39435
G1 X115.401 Y125.246 E25.53245
G1 X114.78 Y125.499 E25.61292
G1 X113.739 Y125.813 E25.7434
G1 X113.251 Y125.923 E25.80343
G1 X112.697 Y126.009 E25.8707
G1 X112.201 Y126.052 E25.93045
G1 X111.099 Y126.069 E26.0627
G1 X110.441 Y126.018 E26.1419
G1 X109.356 Y125.834 E26.27396
G1 X108.864 Y125.715 E26.3347
G1 X108.312 Y125.539 E26.40423
G1 X107.844 Y125.352 E26.4647
G1 X106.862 Y124.879 E26.5955
G1 X106.301 Y124.543 E26.67397
G1 X105.419 Y123.899 E26.80502
G1 X105.011 Y123.552 E26.86929
G1 X104.817 Y123.345 E26.90334
G1 X103.754 Y122.114 E27.09851
G1 X103.435 Y121.683 E27.16286
G1 X103.284 Y121.42 E27.19925
G1 X102.747 Y120.386 E27.33906
G1 X102.485 Y119.733 E27.4235
G1 X102.15 Y118.582 E27.56735
G1 X102.072 Y118.256 E27.60757
G1 X101.713 Y116.39 E27.8356
G1 X101.648 Y115.688 E27.9202
G1 X101.7 Y107.12 E28.94838
G1 X101.704 Y106.965 E28.96698
G1 X101.776 Y105.503 E29.14264
G1 X101.874 Y104.83 E29.22425
G1 X102.189 Y103.533 E29.38441
G1 X102.43 Y102.849 E29.47144
G1 X102.952 Y101.741 E29.61842
G1 X103.216 Y101.274 E29.68279
G1 X103.412 Y101.009 E29.72234
G1 X104.415 Y99.771 E29.91354
G1 X104.975 Y99.217 E30.00807
G0 F3600 X105.223 Y99.53
G1 F1800 X106.123 Y98.816 E30.14593
G1 X106.605 Y98.5 E30.21509
G1 X107.538 Y98.002 E30.342
G1 X108.099 Y97.768 E30.41494
G1 X109.398 Y97.366 E30.57812
G1 X110.026 Y97.239 E30.655
G1 X111.089 Y97.133 E30.78319
G1 X111.712 Y97.132 E30.85795
G1 X113.12 Y97.267 E31.02769
G1 X113.769 Y97.398 E31.10714
G1 X114.848 Y97.735 E31.24279
G1 X115.375 Y97.952 E31.31118
G1 X116.258 Y98.413 E31.43071
G1 X116.701 Y98.693 E31.4936
G1 X117.581 Y99.355 E31.62574
G1 X118.09 Y99.833 E31.70953
G1 X119.102 Y101.017 E31.89644
G1 X119.504 Y101.613 E31.98271
G1 X120.09 Y102.733 E32.13439
G1 X120.334 Y103.343 E32.21323
G1 X120.65 Y104.458 E32.3523
G1 X120.741 Y104.892 E32.40552
G1 X120.842 Y105.622 E32.49395
G1 X120.872 Y106.034 E32.54352
G1 X120.952 Y115.68 E33.70108
G1 X120.89 Y116.334 E33.77991
G1 X120.426 Y118.656 E34.06406
G1 X120.342 Y118.984 E34.10469
G1 X120.176 Y119.515 E34.17145
G1 X120.011 Y119.935 E34.2256
G1 X119.536 Y120.933 E34.35823
G1 X119.319 Y121.318 E34.41127
G1 X119.012 Y121.784 E34.47823
G1 X118.745 Y122.135 E34.53115
G1 X118.028 Y122.952 E34.66159
G1 X117.605 Y123.353 E34.73154
G1 X116.743 Y124.033 E34.86329
G1 X116.238 Y124.36 E34.93548
G1 X115.217 Y124.891 E35.07358
G1 X114.664 Y125.116 E35.14523
G1 X113.623 Y125.43 E35.27571
G1 X113.19 Y125.528 E35.32898
G1 X112.636 Y125.614 E35.39626
G1 X112.194 Y125.652 E35.44949
G1 X111.092 Y125.669 E35.58175
G1 X110.508 Y125.624 E35.65203
G1 X109.423 Y125.44 E35.78409
G1 X108.986 Y125.334 E35.83805
G1 X108.434 Y125.158 E35.90758
G1 X108.017 Y124.992 E35.96144
G1 X107.035 Y124.519 E36.09224
G1 X106.537 Y124.22 E36.16194
G1 X105.655 Y123.576 E36.29299
G1 X105.12 Y123.083 E36.38029
G1 X104.057 Y121.852 E36.57547
G1 X103.639 Y121.236 E36.6648
G1 X103.102 Y120.202 E36.80461
G1 X102.869 Y119.621 E36.87973
G1 X102.534 Y118.47 E37.02358
G1 X102.465 Y118.181 E37.05924
G1 X102.106 Y116.315 E37.28726
G1 X102.048 Y115.691 E37.36247
G1 X102.1 Y107.123 E38.39065
G1 X102.104 Y106.985 E38.40721
G1 X102.176 Y105.523 E38.58286
G1 X102.262 Y104.925 E38.65536
G1 X102.577 Y103.628 E38.81553
G1 X102.792 Y103.019 E38.89303
G1 X103.314 Y101.911 E39.04
G1 X103.565 Y101.472 E39.10069
G1 X103.723 Y101.261 E39.13232
G1 X104.726 Y100.023 E39.32352
G1 X105.223 Y99.53 E39.40752
G0 F3600 X107.433 Y102.087
;TYPE:SUPPORT
G1 F1800 X107.887 Y101.712 E39.47818
G1 X108.35 Y101.394 E39.54559
G1 X108.789 Y101.151 E39.6058
G1 X109.368 Y100.894 E39.68182
G1 X109.858 Y100.731 E39.74378
G1 X110.413 Y100.603 E39.81213
G1 X110.921 Y100.532 E39.87368
G1 X111.491 Y100.505 E39.94216
G1 X112.098 Y100.533 E40.01508
G1 X112.582 Y100.598 E40.07368
G1 X113.189 Y100.746 E40.14865
G1 X113.67 Y100.903 E40.20937
G1 X114.186 Y101.133 E40.27716
G1 X114.665 Y101.402 E40.34309
G1 X115.105 Y101.702 E40.40699
G1 X115.545 Y102.067 E40.47559
G1 X115.924 Y102.453 E40.54051
G1 X116.323 Y102.928 E40.61495
G1 X116.588 Y103.318 E40.67153
G1 X116.874 Y103.839 E40.74285
G1 X117.083 Y104.296 E40.80316
G1 X117.258 Y104.818 E40.86922
G1 X117.403 Y105.45 E40.94703
G1 X117.468 Y105.926 E41.00468
G1 X117.5 Y106.471 E41.07019
G1 X117.5 Y114.281 E42.00739
G1 X117.468 Y114.186 E42.01942
G1 X117.227 Y113.647 E42.09028
G1 X116.94 Y113.13 E42.16123
G1 X116.61 Y112.644 E42.23173
G1 X116.228 Y112.186 E42.30329
G1 X115.813 Y111.77 E42.37381
G1 X115.352 Y111.389 E42.44558
G1 X114.869 Y111.06 E42.5157
G1 X114.352 Y110.773 E42.58666
G1 X113.813 Y110.532 E42.65751
G1 X113.253 Y110.344 E42.7284
G1 X112.671 Y110.208 E42.80012
G1 X112.091 Y110.129 E42.87036
G1 X111.5 Y110.101 E42.94136
G1 X110.909 Y110.129 E43.01236
G1 X110.328 Y110.208 E43.08272
G1 X109.749 Y110.344 E43.1541
G1 X109.184 Y110.533 E43.22559
G1 X108.648 Y110.773 E43.29606
G1 X108.131 Y111.06 E43.36702
G1 X107.648 Y111.389 E43.43715
G1 X107.181 Y111.775 E43.50985
G1 X106.776 Y112.18 E43.57858
G1 X106.39 Y112.645 E43.6511
G1 X106.06 Y113.13 E43.7215
G1 X105.773 Y113.647 E43.79246
G1 X105.533 Y114.183 E43.86293
G1 X105.5 Y114.281 E43.87534
G1 X105.5 Y106.445 E44.81566
G1 X105.521 Y106.024 E44.86624
G1 X105.61 Y105.37 E44.94545
G1 X105.743 Y104.799 E45.0158
G1 X105.889 Y104.37 E45.07018
G1 X106.163 Y103.761 E45.15032
G1 X106.379 Y103.362 E45.20476
G1 X106.704 Y102.897 E45.27284
G1 X107.107 Y102.413 E45.34842
G1 X107.433 Y102.087 E45.40374
G10
G0 F3600 X106.64 Y103.337
G11
G1 F1800 X106.64 Y112.033 E46.44726
G0 F3600 X106.701 Y111.972
G1 F1800 X105.7 Y111.972 E46.56738
G10
G0 F3600 X105.7 Y109.306
G11
G1 F1800 X117.3 Y109.306 E47.95938
G10
G0 F3600 X117.3 Y106.64
G11
G1 F1800 X105.7 Y106.64 E49.35138
G10
G0 F3600 X106.288 Y103.974
G11
G1 F1800 X116.716 Y103.974 E50.60274
G0 F3600 X114.638 Y101.628
G1 F1800 X114.638 Y110.702 E51.69162
G10
G0 F3600 X116.297 Y111.972
G11
G1 F1800 X117.3 Y111.972 E51.81198
G10
G0 F3600 X113.908 Y110.286
G0 X112.719 Y109.948
G0 X112.115 Y109.865
G0 X111.972 Y109.922
G11
G1 F1800 X111.972 Y100.728 E52.91526
G10
G0 F3600 X114.09 Y101.308
G11
G1 F1800 X108.928 Y101.308 E53.5347
G0 F3600 X109.306 Y101.14
G1 F1800 X109.306 Y110.283 E54.63186
G10
G0 F3600 X109.696 Y111.458
G0 X109.588 Y111.558
G0 X109.552 Y111.465
;TYPE:WALL-INNER
G11
G1 F1800 X110.023 Y111.308 E54.69144
G1 X110.512 Y111.192 E54.75175
G1 X110.993 Y111.125 E54.81002
G1 X111.5 Y111.102 E54.87093
G1 X112.007 Y111.125 E54.93183
G1 X112.488 Y111.193 E54.99012
G1 X112.979 Y111.308 E55.05064
G1 X113.445 Y111.464 E55.10961
G1 X113.907 Y111.669 E55.17026
G1 X114.346 Y111.912 E55.23047
G1 X114.752 Y112.189 E55.28945
G1 X115.141 Y112.512 E55.35013
G1 X115.481 Y112.853 E55.40791
G1 X115.814 Y113.253 E55.47037
G1 X116.088 Y113.654 E55.52865
G1 X116.331 Y114.092 E55.58875
G1 X116.536 Y114.554 E55.64941
G1 X116.693 Y115.023 E55.70876
G1 X116.808 Y115.513 E55.76915
G1 X116.875 Y115.992 E55.82719
G1 X116.898 Y116.5 E55.88822
G1 X116.875 Y117.007 E55.94912
G1 X116.809 Y117.479 E56.00631
G1 X116.692 Y117.977 E56.0677
G1 X116.535 Y118.448 E56.12727
G1 X116.334 Y118.902 E56.18686
G1 X116.088 Y119.345 E56.24766
G1 X115.814 Y119.746 E56.30594
G1 X115.481 Y120.146 E56.3684
G1 X115.141 Y120.487 E56.42618
G1 X114.752 Y120.81 E56.48686
G1 X114.341 Y121.091 E56.5466
G1 X113.907 Y121.332 E56.60617
G1 X113.449 Y121.534 E56.66624
G1 X112.979 Y121.692 E56.72574
G1 X112.488 Y121.807 E56.78626
G1 X112.007 Y121.875 E56.84455
G1 X111.5 Y121.899 E56.90546
G1 X110.993 Y121.875 E56.96637
G1 X110.512 Y121.808 E57.02465
G1 X110.023 Y121.692 E57.08495
G1 X109.552 Y121.535 E57.14453
G1 X109.089 Y121.33 E57.20529
G1 X108.659 Y121.091 E57.26433
G1 X108.248 Y120.81 E57.32407
G1 X107.859 Y120.487 E57.38475
G1 X107.513 Y120.141 E57.44347
G1 X107.19 Y119.752 E57.50414
G1 X106.909 Y119.341 E57.56389
G1 X106.663 Y118.899 E57.62459
G1 X106.468 Y118.455 E57.68278
G1 X106.308 Y117.979 E57.74304
G1 X106.193 Y117.488 E57.80355
G1 X106.124 Y116.968 E57.8665
G1 X106.102 Y116.453 E57.92836
G1 X106.13 Y115.956 E57.98809
G1 X106.192 Y115.512 E58.04189
G1 X106.306 Y115.026 E58.10179
G1 X106.465 Y114.551 E58.1619
G1 X106.669 Y114.092 E58.22218
G1 X106.912 Y113.654 E58.28228
G1 X107.19 Y113.247 E58.34143
G1 X107.513 Y112.858 E58.4021
G1 X107.859 Y112.512 E58.46082
G1 X108.248 Y112.189 E58.5215
G1 X108.654 Y111.912 E58.58047
G1 X109.093 Y111.669 E58.64069
G1 X109.552 Y111.465 E58.70096
G0 F3600 X109.588 Y111.558
G0 X110.187 Y112.933
G0 X110.221 Y113.026
G1 F1800 X109.776 Y113.225 E58.75946
G1 X109.372 Y113.473 E58.81634
G1 X109.012 Y113.76 E58.87159
G1 X108.682 Y114.1 E58.92845
G1 X108.398 Y114.48 E58.98538
G1 X108.165 Y114.894 E59.04239
G1 X107.987 Y115.334 E59.09934
G1 X107.868 Y115.793 E59.15624
G1 X107.807 Y116.262 E59.213
G1 X107.807 Y116.737 E59.27
G1 X107.868 Y117.206 E59.32675
G1 X107.987 Y117.665 E59.38365
G1 X108.165 Y118.106 E59.44072
G1 X108.398 Y118.519 E59.49762
G1 X108.682 Y118.899 E59.55455
G1 X109.012 Y119.239 E59.61141
G1 X109.382 Y119.535 E59.66827
G1 X109.789 Y119.781 E59.72534
G1 X110.223 Y119.973 E59.78229
G1 X110.678 Y120.108 E59.83924
G1 X111.145 Y120.183 E59.896
G1 X111.617 Y120.199 E59.95267
G1 X112.09 Y120.154 E60.00969
G1 X112.552 Y120.047 E60.06659
G1 X112.997 Y119.883 E60.1235
G1 X113.418 Y119.664 E60.18045
G1 X113.807 Y119.394 E60.23727
G1 X114.158 Y119.075 E60.29419
